(generated by gCode.py)
G21
G90
(z_safe=100.0, z_cut=0.0)
G0 Z100.000 F5000
(--- polygon 0 start ---)
G0 Z100.000 F5000 ; lift before travel
G0 X17.0000 Y335.0000 F5000 ; travel to polygon start
(Polygon ID: 0)
G1 Z0.000 F3000 ; plunge to cut depth
G1 X17.0000 Y335.0000 F1500 ; start cut at first vertex
G1 X17.0000 Y334.0000 F1500
G0 Z100.000 F5000 ; retract after polygon
(--- polygon 0 end ---)
(--- polygon 1 start ---)
G0 Z100.000 F5000 ; lift before travel
G0 X18.0000 Y148.0000 F5000 ; travel to polygon start
(Polygon ID: 1)
G1 Z0.000 F3000 ; plunge to cut depth
G1 X18.0000 Y148.0000 F1500 ; start cut at first vertex
G1 X18.0000 Y150.0000 F1500
G1 X17.0000 Y150.0000 F1500
G1 X16.0000 Y149.0000 F1500
G1 X17.0000 Y148.0000 F1500
G0 Z100.000 F5000 ; retract after polygon
(--- polygon 1 end ---)
(--- polygon 2 start ---)
G0 Z100.000 F5000 ; lift before travel
G0 X19.0000 Y335.0000 F5000 ; travel to polygon start
(Polygon ID: 2)
G1 Z0.000 F3000 ; plunge to cut depth
G1 X19.0000 Y335.0000 F1500 ; start cut at first vertex
G1 X19.0000 Y334.0000 F1500
G0 Z100.000 F5000 ; retract after polygon
(--- polygon 2 end ---)
(--- polygon 3 start ---)
G0 Z100.000 F5000 ; lift before travel
G0 X23.0000 Y86.0000 F5000 ; travel to polygon start
(Polygon ID: 3)
G1 Z0.000 F3000 ; plunge to cut depth
G1 X23.0000 Y86.0000 F1500 ; start cut at first vertex
G1 X22.0000 Y86.0000 F1500
G1 X21.0000 Y85.0000 F1500
G1 X21.0000 Y84.0000 F1500
G1 X23.0000 Y84.0000 F1500
G0 Z100.000 F5000 ; retract after polygon
(--- polygon 3 end ---)
(--- polygon 4 start ---)
G0 Z100.000 F5000 ; lift before travel
G0 X22.0000 Y221.0000 F5000 ; travel to polygon start
(Polygon ID: 4)
G1 Z0.000 F3000 ; plunge to cut depth
G1 X22.0000 Y221.0000 F1500 ; start cut at first vertex
G1 X23.0000 Y220.0000 F1500
G1 X23.0000 Y218.0000 F1500
G1 X23.0000 Y220.0000 F1500
G1 X22.0000 Y221.0000 F1500
G1 X21.0000 Y220.0000 F1500
G1 X21.0000 Y218.0000 F1500
G1 X21.0000 Y220.0000 F1500
G0 Z100.000 F5000 ; retract after polygon
(--- polygon 4 end ---)
(--- polygon 5 start ---)
G0 Z100.000 F5000 ; lift before travel
G0 X24.0000 Y30.0000 F5000 ; travel to polygon start
(Polygon ID: 5)
G1 Z0.000 F3000 ; plunge to cut depth
G1 X24.0000 Y30.0000 F1500 ; start cut at first vertex
G1 X23.0000 Y31.0000 F1500
G1 X22.0000 Y30.0000 F1500
G1 X22.0000 Y29.0000 F1500
G1 X24.0000 Y29.0000 F1500
G0 Z100.000 F5000 ; retract after polygon
(--- polygon 5 end ---)
(--- polygon 6 start ---)
G0 Z100.000 F5000 ; lift before travel
G0 X30.0000 Y109.0000 F5000 ; travel to polygon start
(Polygon ID: 6)
G1 Z0.000 F3000 ; plunge to cut depth
G1 X30.0000 Y109.0000 F1500 ; start cut at first vertex
G1 X28.0000 Y109.0000 F1500
G1 X28.0000 Y107.0000 F1500
G1 X30.0000 Y107.0000 F1500
G0 Z100.000 F5000 ; retract after polygon
(--- polygon 6 end ---)
(--- polygon 7 start ---)
G0 Z100.000 F5000 ; lift before travel
G0 X35.0000 Y61.0000 F5000 ; travel to polygon start
(Polygon ID: 7)
G1 Z0.000 F3000 ; plunge to cut depth
G1 X35.0000 Y61.0000 F1500 ; start cut at first vertex
G1 X34.0000 Y61.0000 F1500
G0 Z100.000 F5000 ; retract after polygon
(--- polygon 7 end ---)
(--- polygon 8 start ---)
G0 Z100.000 F5000 ; lift before travel
G0 X35.0000 Y63.0000 F5000 ; travel to polygon start
(Polygon ID: 8)
G1 Z0.000 F3000 ; plunge to cut depth
G1 X35.0000 Y63.0000 F1500 ; start cut at first vertex
G1 X34.0000 Y63.0000 F1500
G0 Z100.000 F5000 ; retract after polygon
(--- polygon 8 end ---)
(--- polygon 9 start ---)
G0 Z100.000 F5000 ; lift before travel
G0 X36.0000 Y178.0000 F5000 ; travel to polygon start
(Polygon ID: 9)
G1 Z0.000 F3000 ; plunge to cut depth
G1 X36.0000 Y178.0000 F1500 ; start cut at first vertex
G1 X36.0000 Y177.0000 F1500
G0 Z100.000 F5000 ; retract after polygon
(--- polygon 9 end ---)
(--- polygon 10 start ---)
G0 Z100.000 F5000 ; lift before travel
G0 X36.0000 Y323.0000 F5000 ; travel to polygon start
(Polygon ID: 10)
G1 Z0.000 F3000 ; plunge to cut depth
G1 X36.0000 Y323.0000 F1500 ; start cut at first vertex
G1 X37.0000 Y322.0000 F1500
G1 X36.0000 Y323.0000 F1500
G1 X35.0000 Y323.0000 F1500
G1 X35.0000 Y318.0000 F1500
G1 X37.0000 Y318.0000 F1500
G1 X37.0000 Y320.0000 F1500
G1 X36.0000 Y320.0000 F1500
G1 X35.0000 Y321.0000 F1500
G1 X35.0000 Y322.0000 F1500
G0 Z100.000 F5000 ; retract after polygon
(--- polygon 10 end ---)
(--- polygon 11 start ---)
G0 Z100.000 F5000 ; lift before travel
G0 X38.0000 Y176.0000 F5000 ; travel to polygon start
(Polygon ID: 11)
G1 Z0.000 F3000 ; plunge to cut depth
G1 X38.0000 Y176.0000 F1500 ; start cut at first vertex
G0 Z100.000 F5000 ; retract after polygon
(--- polygon 11 end ---)
(--- polygon 12 start ---)
G0 Z100.000 F5000 ; lift before travel
G0 X38.0000 Y333.0000 F5000 ; travel to polygon start
(Polygon ID: 12)
G1 Z0.000 F3000 ; plunge to cut depth
G1 X38.0000 Y333.0000 F1500 ; start cut at first vertex
G1 X36.0000 Y333.0000 F1500
G1 X35.0000 Y334.0000 F1500
G1 X36.0000 Y335.0000 F1500
G1 X37.0000 Y335.0000 F1500
G1 X36.0000 Y335.0000 F1500
G1 X35.0000 Y334.0000 F1500
G1 X35.0000 Y333.0000 F1500
G0 Z100.000 F5000 ; retract after polygon
(--- polygon 12 end ---)
(--- polygon 13 start ---)
G0 Z100.000 F5000 ; lift before travel
G0 X43.0000 Y216.0000 F5000 ; travel to polygon start
(Polygon ID: 13)
G1 Z0.000 F3000 ; plunge to cut depth
G1 X43.0000 Y216.0000 F1500 ; start cut at first vertex
G1 X41.0000 Y216.0000 F1500
G1 X41.0000 Y214.0000 F1500
G1 X43.0000 Y214.0000 F1500
G0 Z100.000 F5000 ; retract after polygon
(--- polygon 13 end ---)
(--- polygon 14 start ---)
G0 Z100.000 F5000 ; lift before travel
G0 X48.0000 Y17.0000 F5000 ; travel to polygon start
(Polygon ID: 14)
G1 Z0.000 F3000 ; plunge to cut depth
G1 X48.0000 Y17.0000 F1500 ; start cut at first vertex
G1 X46.0000 Y17.0000 F1500
G1 X45.0000 Y18.0000 F1500
G1 X46.0000 Y19.0000 F1500
G1 X47.0000 Y19.0000 F1500
G1 X46.0000 Y19.0000 F1500
G1 X45.0000 Y18.0000 F1500
G1 X45.0000 Y17.0000 F1500
G0 Z100.000 F5000 ; retract after polygon
(--- polygon 14 end ---)
(--- polygon 15 start ---)
G0 Z100.000 F5000 ; lift before travel
G0 X51.0000 Y104.0000 F5000 ; travel to polygon start
(Polygon ID: 15)
G1 Z0.000 F3000 ; plunge to cut depth
G1 X51.0000 Y104.0000 F1500 ; start cut at first vertex
G1 X51.0000 Y103.0000 F1500
G0 Z100.000 F5000 ; retract after polygon
(--- polygon 15 end ---)
(--- polygon 16 start ---)
G0 Z100.000 F5000 ; lift before travel
G0 X51.0000 Y188.0000 F5000 ; travel to polygon start
(Polygon ID: 16)
G1 Z0.000 F3000 ; plunge to cut depth
G1 X51.0000 Y188.0000 F1500 ; start cut at first vertex
G1 X49.0000 Y188.0000 F1500
G1 X49.0000 Y186.0000 F1500
G1 X48.0000 Y185.0000 F1500
G1 X48.0000 Y183.0000 F1500
G1 X50.0000 Y183.0000 F1500
G1 X50.0000 Y184.0000 F1500
G1 X49.0000 Y183.0000 F1500
G1 X48.0000 Y184.0000 F1500
G1 X48.0000 Y185.0000 F1500
G1 X49.0000 Y186.0000 F1500
G1 X51.0000 Y186.0000 F1500
G0 Z100.000 F5000 ; retract after polygon
(--- polygon 16 end ---)
(--- polygon 17 start ---)
G0 Z100.000 F5000 ; lift before travel
G0 X52.0000 Y230.0000 F5000 ; travel to polygon start
(Polygon ID: 17)
G1 Z0.000 F3000 ; plunge to cut depth
G1 X52.0000 Y230.0000 F1500 ; start cut at first vertex
G1 X51.0000 Y230.0000 F1500
G1 X50.0000 Y231.0000 F1500
G1 X51.0000 Y232.0000 F1500
G1 X52.0000 Y232.0000 F1500
G1 X51.0000 Y232.0000 F1500
G1 X50.0000 Y231.0000 F1500
G1 X51.0000 Y230.0000 F1500
G0 Z100.000 F5000 ; retract after polygon
(--- polygon 17 end ---)
(--- polygon 18 start ---)
G0 Z100.000 F5000 ; lift before travel
G0 X53.0000 Y117.0000 F5000 ; travel to polygon start
(Polygon ID: 18)
G1 Z0.000 F3000 ; plunge to cut depth
G1 X53.0000 Y117.0000 F1500 ; start cut at first vertex
G1 X53.0000 Y116.0000 F1500
G0 Z100.000 F5000 ; retract after polygon
(--- polygon 18 end ---)
(--- polygon 19 start ---)
G0 Z100.000 F5000 ; lift before travel
G0 X53.0000 Y184.0000 F5000 ; travel to polygon start
(Polygon ID: 19)
G1 Z0.000 F3000 ; plunge to cut depth
G1 X53.0000 Y184.0000 F1500 ; start cut at first vertex
G0 Z100.000 F5000 ; retract after polygon
(--- polygon 19 end ---)
(--- polygon 20 start ---)
G0 Z100.000 F5000 ; lift before travel
G0 X54.0000 Y148.0000 F5000 ; travel to polygon start
(Polygon ID: 20)
G1 Z0.000 F3000 ; plunge to cut depth
G1 X54.0000 Y148.0000 F1500 ; start cut at first vertex
G1 X53.0000 Y147.0000 F1500
G1 X49.0000 Y151.0000 F1500
G1 X53.0000 Y147.0000 F1500
G0 Z100.000 F5000 ; retract after polygon
(--- polygon 20 end ---)
(--- polygon 21 start ---)
G0 Z100.000 F5000 ; lift before travel
G0 X54.0000 Y212.0000 F5000 ; travel to polygon start
(Polygon ID: 21)
G1 Z0.000 F3000 ; plunge to cut depth
G1 X54.0000 Y212.0000 F1500 ; start cut at first vertex
G1 X53.0000 Y213.0000 F1500
G1 X52.0000 Y212.0000 F1500
G1 X52.0000 Y211.0000 F1500
G1 X54.0000 Y211.0000 F1500
G0 Z100.000 F5000 ; retract after polygon
(--- polygon 21 end ---)
(--- polygon 22 start ---)
G0 Z100.000 F5000 ; lift before travel
G0 X56.0000 Y78.0000 F5000 ; travel to polygon start
(Polygon ID: 22)
G1 Z0.000 F3000 ; plunge to cut depth
G1 X56.0000 Y78.0000 F1500 ; start cut at first vertex
G1 X55.0000 Y78.0000 F1500
G1 X54.0000 Y77.0000 F1500
G1 X54.0000 Y76.0000 F1500
G1 X56.0000 Y76.0000 F1500
G1 X55.0000 Y76.0000 F1500
G1 X54.0000 Y77.0000 F1500
G1 X55.0000 Y78.0000 F1500
G0 Z100.000 F5000 ; retract after polygon
(--- polygon 22 end ---)
(--- polygon 23 start ---)
G0 Z100.000 F5000 ; lift before travel
G0 X58.0000 Y113.0000 F5000 ; travel to polygon start
(Polygon ID: 23)
G1 Z0.000 F3000 ; plunge to cut depth
G1 X58.0000 Y113.0000 F1500 ; start cut at first vertex
G0 Z100.000 F5000 ; retract after polygon
(--- polygon 23 end ---)
(--- polygon 24 start ---)
G0 Z100.000 F5000 ; lift before travel
G0 X60.0000 Y49.0000 F5000 ; travel to polygon start
(Polygon ID: 24)
G1 Z0.000 F3000 ; plunge to cut depth
G1 X60.0000 Y49.0000 F1500 ; start cut at first vertex
G1 X58.0000 Y49.0000 F1500
G1 X58.0000 Y47.0000 F1500
G1 X60.0000 Y47.0000 F1500
G0 Z100.000 F5000 ; retract after polygon
(--- polygon 24 end ---)
(--- polygon 25 start ---)
G0 Z100.000 F5000 ; lift before travel
G0 X60.0000 Y93.0000 F5000 ; travel to polygon start
(Polygon ID: 25)
G1 Z0.000 F3000 ; plunge to cut depth
G1 X60.0000 Y93.0000 F1500 ; start cut at first vertex
G0 Z100.000 F5000 ; retract after polygon
(--- polygon 25 end ---)
(--- polygon 26 start ---)
G0 Z100.000 F5000 ; lift before travel
G0 X61.0000 Y104.0000 F5000 ; travel to polygon start
(Polygon ID: 26)
G1 Z0.000 F3000 ; plunge to cut depth
G1 X61.0000 Y104.0000 F1500 ; start cut at first vertex
G0 Z100.000 F5000 ; retract after polygon
(--- polygon 26 end ---)
(--- polygon 27 start ---)
G0 Z100.000 F5000 ; lift before travel
G0 X61.0000 Y132.0000 F5000 ; travel to polygon start
(Polygon ID: 27)
G1 Z0.000 F3000 ; plunge to cut depth
G1 X61.0000 Y132.0000 F1500 ; start cut at first vertex
G1 X59.0000 Y132.0000 F1500
G1 X59.0000 Y130.0000 F1500
G1 X60.0000 Y129.0000 F1500
G1 X59.0000 Y130.0000 F1500
G1 X59.0000 Y131.0000 F1500
G1 X60.0000 Y132.0000 F1500
G1 X61.0000 Y131.0000 F1500
G0 Z100.000 F5000 ; retract after polygon
(--- polygon 27 end ---)
(--- polygon 28 start ---)
G0 Z100.000 F5000 ; lift before travel
G0 X61.0000 Y155.0000 F5000 ; travel to polygon start
(Polygon ID: 28)
G1 Z0.000 F3000 ; plunge to cut depth
G1 X61.0000 Y155.0000 F1500 ; start cut at first vertex
G0 Z100.000 F5000 ; retract after polygon
(--- polygon 28 end ---)
(--- polygon 29 start ---)
G0 Z100.000 F5000 ; lift before travel
G0 X61.0000 Y230.0000 F5000 ; travel to polygon start
(Polygon ID: 29)
G1 Z0.000 F3000 ; plunge to cut depth
G1 X61.0000 Y230.0000 F1500 ; start cut at first vertex
G1 X60.0000 Y229.0000 F1500
G1 X59.0000 Y230.0000 F1500
G1 X59.0000 Y229.0000 F1500
G1 X61.0000 Y229.0000 F1500
G0 Z100.000 F5000 ; retract after polygon
(--- polygon 29 end ---)
(--- polygon 30 start ---)
G0 Z100.000 F5000 ; lift before travel
G0 X61.0000 Y234.0000 F5000 ; travel to polygon start
(Polygon ID: 30)
G1 Z0.000 F3000 ; plunge to cut depth
G1 X61.0000 Y234.0000 F1500 ; start cut at first vertex
G1 X59.0000 Y234.0000 F1500
G1 X59.0000 Y232.0000 F1500
G1 X61.0000 Y232.0000 F1500
G0 Z100.000 F5000 ; retract after polygon
(--- polygon 30 end ---)
(--- polygon 31 start ---)
G0 Z100.000 F5000 ; lift before travel
G0 X61.0000 Y220.0000 F5000 ; travel to polygon start
(Polygon ID: 31)
G1 Z0.000 F3000 ; plunge to cut depth
G1 X61.0000 Y220.0000 F1500 ; start cut at first vertex
G1 X62.0000 Y221.0000 F1500
G1 X61.0000 Y222.0000 F1500
G1 X60.0000 Y222.0000 F1500
G1 X60.0000 Y221.0000 F1500
G0 Z100.000 F5000 ; retract after polygon
(--- polygon 31 end ---)
(--- polygon 32 start ---)
G0 Z100.000 F5000 ; lift before travel
G0 X63.0000 Y80.0000 F5000 ; travel to polygon start
(Polygon ID: 32)
G1 Z0.000 F3000 ; plunge to cut depth
G1 X63.0000 Y80.0000 F1500 ; start cut at first vertex
G0 Z100.000 F5000 ; retract after polygon
(--- polygon 32 end ---)
(--- polygon 33 start ---)
G0 Z100.000 F5000 ; lift before travel
G0 X64.0000 Y88.0000 F5000 ; travel to polygon start
(Polygon ID: 33)
G1 Z0.000 F3000 ; plunge to cut depth
G1 X64.0000 Y88.0000 F1500 ; start cut at first vertex
G0 Z100.000 F5000 ; retract after polygon
(--- polygon 33 end ---)
(--- polygon 34 start ---)
G0 Z100.000 F5000 ; lift before travel
G0 X67.0000 Y33.0000 F5000 ; travel to polygon start
(Polygon ID: 34)
G1 Z0.000 F3000 ; plunge to cut depth
G1 X67.0000 Y33.0000 F1500 ; start cut at first vertex
G1 X66.0000 Y34.0000 F1500
G1 X66.0000 Y35.0000 F1500
G1 X66.0000 Y34.0000 F1500
G0 Z100.000 F5000 ; retract after polygon
(--- polygon 34 end ---)
(--- polygon 35 start ---)
G0 Z100.000 F5000 ; lift before travel
G0 X67.0000 Y100.0000 F5000 ; travel to polygon start
(Polygon ID: 35)
G1 Z0.000 F3000 ; plunge to cut depth
G1 X67.0000 Y100.0000 F1500 ; start cut at first vertex
G1 X65.0000 Y98.0000 F1500
G0 Z100.000 F5000 ; retract after polygon
(--- polygon 35 end ---)
(--- polygon 36 start ---)
G0 Z100.000 F5000 ; lift before travel
G0 X67.0000 Y118.0000 F5000 ; travel to polygon start
(Polygon ID: 36)
G1 Z0.000 F3000 ; plunge to cut depth
G1 X67.0000 Y118.0000 F1500 ; start cut at first vertex
G1 X67.0000 Y117.0000 F1500
G0 Z100.000 F5000 ; retract after polygon
(--- polygon 36 end ---)
(--- polygon 37 start ---)
G0 Z100.000 F5000 ; lift before travel
G0 X70.0000 Y182.0000 F5000 ; travel to polygon start
(Polygon ID: 37)
G1 Z0.000 F3000 ; plunge to cut depth
G1 X70.0000 Y182.0000 F1500 ; start cut at first vertex
G1 X70.0000 Y181.0000 F1500
G1 X71.0000 Y180.0000 F1500
G1 X71.0000 Y177.0000 F1500
G1 X70.0000 Y176.0000 F1500
G1 X71.0000 Y177.0000 F1500
G1 X71.0000 Y180.0000 F1500
G1 X70.0000 Y181.0000 F1500
G0 Z100.000 F5000 ; retract after polygon
(--- polygon 37 end ---)
(--- polygon 38 start ---)
G0 Z100.000 F5000 ; lift before travel
G0 X71.0000 Y185.0000 F5000 ; travel to polygon start
(Polygon ID: 38)
G1 Z0.000 F3000 ; plunge to cut depth
G1 X71.0000 Y185.0000 F1500 ; start cut at first vertex
G1 X70.0000 Y185.0000 F1500
G1 X69.0000 Y186.0000 F1500
G1 X67.0000 Y186.0000 F1500
G1 X69.0000 Y186.0000 F1500
G1 X70.0000 Y185.0000 F1500
G0 Z100.000 F5000 ; retract after polygon
(--- polygon 38 end ---)
(--- polygon 39 start ---)
G0 Z100.000 F5000 ; lift before travel
G0 X72.0000 Y120.0000 F5000 ; travel to polygon start
(Polygon ID: 39)
G1 Z0.000 F3000 ; plunge to cut depth
G1 X72.0000 Y120.0000 F1500 ; start cut at first vertex
G1 X71.0000 Y121.0000 F1500
G1 X71.0000 Y122.0000 F1500
G1 X70.0000 Y123.0000 F1500
G1 X70.0000 Y124.0000 F1500
G1 X69.0000 Y125.0000 F1500
G1 X69.0000 Y126.0000 F1500
G1 X68.0000 Y127.0000 F1500
G1 X68.0000 Y129.0000 F1500
G1 X67.0000 Y130.0000 F1500
G1 X67.0000 Y131.0000 F1500
G1 X67.0000 Y129.0000 F1500
G1 X68.0000 Y128.0000 F1500
G1 X68.0000 Y127.0000 F1500
G1 X69.0000 Y126.0000 F1500
G1 X69.0000 Y124.0000 F1500
G1 X71.0000 Y122.0000 F1500
G1 X71.0000 Y121.0000 F1500
G0 Z100.000 F5000 ; retract after polygon
(--- polygon 39 end ---)
(--- polygon 40 start ---)
G0 Z100.000 F5000 ; lift before travel
G0 X72.0000 Y166.0000 F5000 ; travel to polygon start
(Polygon ID: 40)
G1 Z0.000 F3000 ; plunge to cut depth
G1 X72.0000 Y166.0000 F1500 ; start cut at first vertex
G0 Z100.000 F5000 ; retract after polygon
(--- polygon 40 end ---)
(--- polygon 41 start ---)
G0 Z100.000 F5000 ; lift before travel
G0 X73.0000 Y110.0000 F5000 ; travel to polygon start
(Polygon ID: 41)
G1 Z0.000 F3000 ; plunge to cut depth
G1 X73.0000 Y110.0000 F1500 ; start cut at first vertex
G0 Z100.000 F5000 ; retract after polygon
(--- polygon 41 end ---)
(--- polygon 42 start ---)
G0 Z100.000 F5000 ; lift before travel
G0 X73.0000 Y118.0000 F5000 ; travel to polygon start
(Polygon ID: 42)
G1 Z0.000 F3000 ; plunge to cut depth
G1 X73.0000 Y118.0000 F1500 ; start cut at first vertex
G0 Z100.000 F5000 ; retract after polygon
(--- polygon 42 end ---)
(--- polygon 43 start ---)
G0 Z100.000 F5000 ; lift before travel
G0 X73.0000 Y180.0000 F5000 ; travel to polygon start
(Polygon ID: 43)
G1 Z0.000 F3000 ; plunge to cut depth
G1 X73.0000 Y180.0000 F1500 ; start cut at first vertex
G1 X73.0000 Y177.0000 F1500
G0 Z100.000 F5000 ; retract after polygon
(--- polygon 43 end ---)
(--- polygon 44 start ---)
G0 Z100.000 F5000 ; lift before travel
G0 X74.0000 Y164.0000 F5000 ; travel to polygon start
(Polygon ID: 44)
G1 Z0.000 F3000 ; plunge to cut depth
G1 X74.0000 Y164.0000 F1500 ; start cut at first vertex
G1 X73.0000 Y164.0000 F1500
G1 X72.0000 Y163.0000 F1500
G1 X72.0000 Y162.0000 F1500
G1 X74.0000 Y162.0000 F1500
G0 Z100.000 F5000 ; retract after polygon
(--- polygon 44 end ---)
(--- polygon 45 start ---)
G0 Z100.000 F5000 ; lift before travel
G0 X75.0000 Y111.0000 F5000 ; travel to polygon start
(Polygon ID: 45)
G1 Z0.000 F3000 ; plunge to cut depth
G1 X75.0000 Y111.0000 F1500 ; start cut at first vertex
G0 Z100.000 F5000 ; retract after polygon
(--- polygon 45 end ---)
(--- polygon 46 start ---)
G0 Z100.000 F5000 ; lift before travel
G0 X76.0000 Y55.0000 F5000 ; travel to polygon start
(Polygon ID: 46)
G1 Z0.000 F3000 ; plunge to cut depth
G1 X76.0000 Y55.0000 F1500 ; start cut at first vertex
G0 Z100.000 F5000 ; retract after polygon
(--- polygon 46 end ---)
(--- polygon 47 start ---)
G0 Z100.000 F5000 ; lift before travel
G0 X77.0000 Y270.0000 F5000 ; travel to polygon start
(Polygon ID: 47)
G1 Z0.000 F3000 ; plunge to cut depth
G1 X77.0000 Y270.0000 F1500 ; start cut at first vertex
G1 X77.0000 Y268.0000 F1500
G0 Z100.000 F5000 ; retract after polygon
(--- polygon 47 end ---)
(--- polygon 48 start ---)
G0 Z100.000 F5000 ; lift before travel
G0 X78.0000 Y140.0000 F5000 ; travel to polygon start
(Polygon ID: 48)
G1 Z0.000 F3000 ; plunge to cut depth
G1 X78.0000 Y140.0000 F1500 ; start cut at first vertex
G0 Z100.000 F5000 ; retract after polygon
(--- polygon 48 end ---)
(--- polygon 49 start ---)
G0 Z100.000 F5000 ; lift before travel
G0 X78.0000 Y142.0000 F5000 ; travel to polygon start
(Polygon ID: 49)
G1 Z0.000 F3000 ; plunge to cut depth
G1 X78.0000 Y142.0000 F1500 ; start cut at first vertex
G1 X76.0000 Y142.0000 F1500
G0 Z100.000 F5000 ; retract after polygon
(--- polygon 49 end ---)
(--- polygon 50 start ---)
G0 Z100.000 F5000 ; lift before travel
G0 X81.0000 Y263.0000 F5000 ; travel to polygon start
(Polygon ID: 50)
G1 Z0.000 F3000 ; plunge to cut depth
G1 X81.0000 Y263.0000 F1500 ; start cut at first vertex
G0 Z100.000 F5000 ; retract after polygon
(--- polygon 50 end ---)
(--- polygon 51 start ---)
G0 Z100.000 F5000 ; lift before travel
G0 X82.0000 Y233.0000 F5000 ; travel to polygon start
(Polygon ID: 51)
G1 Z0.000 F3000 ; plunge to cut depth
G1 X82.0000 Y233.0000 F1500 ; start cut at first vertex
G1 X80.0000 Y233.0000 F1500
G1 X80.0000 Y232.0000 F1500
G1 X81.0000 Y231.0000 F1500
G1 X82.0000 Y232.0000 F1500
G0 Z100.000 F5000 ; retract after polygon
(--- polygon 51 end ---)
(--- polygon 52 start ---)
G0 Z100.000 F5000 ; lift before travel
G0 X82.0000 Y291.0000 F5000 ; travel to polygon start
(Polygon ID: 52)
G1 Z0.000 F3000 ; plunge to cut depth
G1 X82.0000 Y291.0000 F1500 ; start cut at first vertex
G0 Z100.000 F5000 ; retract after polygon
(--- polygon 52 end ---)
(--- polygon 53 start ---)
G0 Z100.000 F5000 ; lift before travel
G0 X84.0000 Y227.0000 F5000 ; travel to polygon start
(Polygon ID: 53)
G1 Z0.000 F3000 ; plunge to cut depth
G1 X84.0000 Y227.0000 F1500 ; start cut at first vertex
G1 X82.0000 Y227.0000 F1500
G1 X82.0000 Y226.0000 F1500
G1 X83.0000 Y225.0000 F1500
G1 X84.0000 Y226.0000 F1500
G0 Z100.000 F5000 ; retract after polygon
(--- polygon 53 end ---)
(--- polygon 54 start ---)
G0 Z100.000 F5000 ; lift before travel
G0 X85.0000 Y279.0000 F5000 ; travel to polygon start
(Polygon ID: 54)
G1 Z0.000 F3000 ; plunge to cut depth
G1 X85.0000 Y279.0000 F1500 ; start cut at first vertex
G0 Z100.000 F5000 ; retract after polygon
(--- polygon 54 end ---)
(--- polygon 55 start ---)
G0 Z100.000 F5000 ; lift before travel
G0 X85.0000 Y339.0000 F5000 ; travel to polygon start
(Polygon ID: 55)
G1 Z0.000 F3000 ; plunge to cut depth
G1 X85.0000 Y339.0000 F1500 ; start cut at first vertex
G1 X84.0000 Y339.0000 F1500
G0 Z100.000 F5000 ; retract after polygon
(--- polygon 55 end ---)
(--- polygon 56 start ---)
G0 Z100.000 F5000 ; lift before travel
G0 X85.0000 Y341.0000 F5000 ; travel to polygon start
(Polygon ID: 56)
G1 Z0.000 F3000 ; plunge to cut depth
G1 X85.0000 Y341.0000 F1500 ; start cut at first vertex
G1 X84.0000 Y341.0000 F1500
G0 Z100.000 F5000 ; retract after polygon
(--- polygon 56 end ---)
(--- polygon 57 start ---)
G0 Z100.000 F5000 ; lift before travel
G0 X86.0000 Y133.0000 F5000 ; travel to polygon start
(Polygon ID: 57)
G1 Z0.000 F3000 ; plunge to cut depth
G1 X86.0000 Y133.0000 F1500 ; start cut at first vertex
G1 X83.0000 Y133.0000 F1500
G0 Z100.000 F5000 ; retract after polygon
(--- polygon 57 end ---)
(--- polygon 58 start ---)
G0 Z100.000 F5000 ; lift before travel
G0 X87.0000 Y55.0000 F5000 ; travel to polygon start
(Polygon ID: 58)
G1 Z0.000 F3000 ; plunge to cut depth
G1 X87.0000 Y55.0000 F1500 ; start cut at first vertex
G0 Z100.000 F5000 ; retract after polygon
(--- polygon 58 end ---)
(--- polygon 59 start ---)
G0 Z100.000 F5000 ; lift before travel
G0 X87.0000 Y159.0000 F5000 ; travel to polygon start
(Polygon ID: 59)
G1 Z0.000 F3000 ; plunge to cut depth
G1 X87.0000 Y159.0000 F1500 ; start cut at first vertex
G0 Z100.000 F5000 ; retract after polygon
(--- polygon 59 end ---)
(--- polygon 60 start ---)
G0 Z100.000 F5000 ; lift before travel
G0 X88.0000 Y50.0000 F5000 ; travel to polygon start
(Polygon ID: 60)
G1 Z0.000 F3000 ; plunge to cut depth
G1 X88.0000 Y50.0000 F1500 ; start cut at first vertex
G0 Z100.000 F5000 ; retract after polygon
(--- polygon 60 end ---)
(--- polygon 61 start ---)
G0 Z100.000 F5000 ; lift before travel
G0 X88.0000 Y298.0000 F5000 ; travel to polygon start
(Polygon ID: 61)
G1 Z0.000 F3000 ; plunge to cut depth
G1 X88.0000 Y298.0000 F1500 ; start cut at first vertex
G1 X87.0000 Y298.0000 F1500
G1 X83.0000 Y294.0000 F1500
G1 X83.0000 Y293.0000 F1500
G0 Z100.000 F5000 ; retract after polygon
(--- polygon 61 end ---)
(--- polygon 62 start ---)
G0 Z100.000 F5000 ; lift before travel
G0 X88.0000 Y318.0000 F5000 ; travel to polygon start
(Polygon ID: 62)
G1 Z0.000 F3000 ; plunge to cut depth
G1 X88.0000 Y318.0000 F1500 ; start cut at first vertex
G1 X87.0000 Y318.0000 F1500
G0 Z100.000 F5000 ; retract after polygon
(--- polygon 62 end ---)
(--- polygon 63 start ---)
G0 Z100.000 F5000 ; lift before travel
G0 X89.0000 Y332.0000 F5000 ; travel to polygon start
(Polygon ID: 63)
G1 Z0.000 F3000 ; plunge to cut depth
G1 X89.0000 Y332.0000 F1500 ; start cut at first vertex
G1 X86.0000 Y332.0000 F1500
G1 X86.0000 Y330.0000 F1500
G1 X89.0000 Y330.0000 F1500
G0 Z100.000 F5000 ; retract after polygon
(--- polygon 63 end ---)
(--- polygon 64 start ---)
G0 Z100.000 F5000 ; lift before travel
G0 X90.0000 Y44.0000 F5000 ; travel to polygon start
(Polygon ID: 64)
G1 Z0.000 F3000 ; plunge to cut depth
G1 X90.0000 Y44.0000 F1500 ; start cut at first vertex
G1 X88.0000 Y46.0000 F1500
G1 X88.0000 Y47.0000 F1500
G1 X88.0000 Y46.0000 F1500
G0 Z100.000 F5000 ; retract after polygon
(--- polygon 64 end ---)
(--- polygon 65 start ---)
G0 Z100.000 F5000 ; lift before travel
G0 X90.0000 Y123.0000 F5000 ; travel to polygon start
(Polygon ID: 65)
G1 Z0.000 F3000 ; plunge to cut depth
G1 X90.0000 Y123.0000 F1500 ; start cut at first vertex
G0 Z100.000 F5000 ; retract after polygon
(--- polygon 65 end ---)
(--- polygon 66 start ---)
G0 Z100.000 F5000 ; lift before travel
G0 X91.0000 Y121.0000 F5000 ; travel to polygon start
(Polygon ID: 66)
G1 Z0.000 F3000 ; plunge to cut depth
G1 X91.0000 Y121.0000 F1500 ; start cut at first vertex
G0 Z100.000 F5000 ; retract after polygon
(--- polygon 66 end ---)
(--- polygon 67 start ---)
G0 Z100.000 F5000 ; lift before travel
G0 X91.0000 Y258.0000 F5000 ; travel to polygon start
(Polygon ID: 67)
G1 Z0.000 F3000 ; plunge to cut depth
G1 X91.0000 Y258.0000 F1500 ; start cut at first vertex
G1 X89.0000 Y260.0000 F1500
G1 X89.0000 Y259.0000 F1500
G1 X90.0000 Y258.0000 F1500
G0 Z100.000 F5000 ; retract after polygon
(--- polygon 67 end ---)
(--- polygon 68 start ---)
G0 Z100.000 F5000 ; lift before travel
G0 X91.0000 Y308.0000 F5000 ; travel to polygon start
(Polygon ID: 68)
G1 Z0.000 F3000 ; plunge to cut depth
G1 X91.0000 Y308.0000 F1500 ; start cut at first vertex
G1 X90.0000 Y308.0000 F1500
G1 X89.0000 Y309.0000 F1500
G1 X90.0000 Y308.0000 F1500
G0 Z100.000 F5000 ; retract after polygon
(--- polygon 68 end ---)
(--- polygon 69 start ---)
G0 Z100.000 F5000 ; lift before travel
G0 X92.0000 Y123.0000 F5000 ; travel to polygon start
(Polygon ID: 69)
G1 Z0.000 F3000 ; plunge to cut depth
G1 X92.0000 Y123.0000 F1500 ; start cut at first vertex
G0 Z100.000 F5000 ; retract after polygon
(--- polygon 69 end ---)
(--- polygon 70 start ---)
G0 Z100.000 F5000 ; lift before travel
G0 X89.0000 Y140.0000 F5000 ; travel to polygon start
(Polygon ID: 70)
G1 Z0.000 F3000 ; plunge to cut depth
G1 X89.0000 Y140.0000 F1500 ; start cut at first vertex
G1 X90.0000 Y139.0000 F1500
G1 X90.0000 Y137.0000 F1500
G1 X91.0000 Y136.0000 F1500
G1 X91.0000 Y135.0000 F1500
G1 X92.0000 Y134.0000 F1500
G1 X92.0000 Y130.0000 F1500
G1 X91.0000 Y129.0000 F1500
G1 X86.0000 Y129.0000 F1500
G1 X89.0000 Y129.0000 F1500
G1 X90.0000 Y128.0000 F1500
G1 X90.0000 Y126.0000 F1500
G1 X90.0000 Y128.0000 F1500
G1 X91.0000 Y129.0000 F1500
G1 X92.0000 Y128.0000 F1500
G1 X92.0000 Y134.0000 F1500
G1 X91.0000 Y135.0000 F1500
G1 X91.0000 Y137.0000 F1500
G1 X90.0000 Y138.0000 F1500
G1 X90.0000 Y139.0000 F1500
G0 Z100.000 F5000 ; retract after polygon
(--- polygon 70 end ---)
(--- polygon 71 start ---)
G0 Z100.000 F5000 ; lift before travel
G0 X93.0000 Y137.0000 F5000 ; travel to polygon start
(Polygon ID: 71)
G1 Z0.000 F3000 ; plunge to cut depth
G1 X93.0000 Y137.0000 F1500 ; start cut at first vertex
G0 Z100.000 F5000 ; retract after polygon
(--- polygon 71 end ---)
(--- polygon 72 start ---)
G0 Z100.000 F5000 ; lift before travel
G0 X93.0000 Y161.0000 F5000 ; travel to polygon start
(Polygon ID: 72)
G1 Z0.000 F3000 ; plunge to cut depth
G1 X93.0000 Y161.0000 F1500 ; start cut at first vertex
G1 X86.0000 Y161.0000 F1500
G1 X85.0000 Y160.0000 F1500
G1 X83.0000 Y160.0000 F1500
G1 X81.0000 Y158.0000 F1500
G1 X83.0000 Y160.0000 F1500
G1 X85.0000 Y160.0000 F1500
G1 X86.0000 Y161.0000 F1500
G1 X91.0000 Y161.0000 F1500
G1 X92.0000 Y160.0000 F1500
G0 Z100.000 F5000 ; retract after polygon
(--- polygon 72 end ---)
(--- polygon 73 start ---)
G0 Z100.000 F5000 ; lift before travel
G0 X93.0000 Y253.0000 F5000 ; travel to polygon start
(Polygon ID: 73)
G1 Z0.000 F3000 ; plunge to cut depth
G1 X93.0000 Y253.0000 F1500 ; start cut at first vertex
G1 X92.0000 Y254.0000 F1500
G1 X91.0000 Y254.0000 F1500
G1 X92.0000 Y254.0000 F1500
G0 Z100.000 F5000 ; retract after polygon
(--- polygon 73 end ---)
(--- polygon 74 start ---)
G0 Z100.000 F5000 ; lift before travel
G0 X94.0000 Y133.0000 F5000 ; travel to polygon start
(Polygon ID: 74)
G1 Z0.000 F3000 ; plunge to cut depth
G1 X94.0000 Y133.0000 F1500 ; start cut at first vertex
G1 X94.0000 Y130.0000 F1500
G0 Z100.000 F5000 ; retract after polygon
(--- polygon 74 end ---)
(--- polygon 75 start ---)
G0 Z100.000 F5000 ; lift before travel
G0 X95.0000 Y103.0000 F5000 ; travel to polygon start
(Polygon ID: 75)
G1 Z0.000 F3000 ; plunge to cut depth
G1 X95.0000 Y103.0000 F1500 ; start cut at first vertex
G1 X94.0000 Y103.0000 F1500
G0 Z100.000 F5000 ; retract after polygon
(--- polygon 75 end ---)
(--- polygon 76 start ---)
G0 Z100.000 F5000 ; lift before travel
G0 X95.0000 Y258.0000 F5000 ; travel to polygon start
(Polygon ID: 76)
G1 Z0.000 F3000 ; plunge to cut depth
G1 X95.0000 Y258.0000 F1500 ; start cut at first vertex
G1 X95.0000 Y260.0000 F1500
G1 X94.0000 Y261.0000 F1500
G1 X94.0000 Y266.0000 F1500
G1 X93.0000 Y267.0000 F1500
G1 X93.0000 Y270.0000 F1500
G1 X93.0000 Y266.0000 F1500
G1 X94.0000 Y265.0000 F1500
G1 X94.0000 Y261.0000 F1500
G1 X95.0000 Y260.0000 F1500
G0 Z100.000 F5000 ; retract after polygon
(--- polygon 76 end ---)
(--- polygon 77 start ---)
G0 Z100.000 F5000 ; lift before travel
G0 X97.0000 Y149.0000 F5000 ; travel to polygon start
(Polygon ID: 77)
G1 Z0.000 F3000 ; plunge to cut depth
G1 X97.0000 Y149.0000 F1500 ; start cut at first vertex
G0 Z100.000 F5000 ; retract after polygon
(--- polygon 77 end ---)
(--- polygon 78 start ---)
G0 Z100.000 F5000 ; lift before travel
G0 X98.0000 Y301.0000 F5000 ; travel to polygon start
(Polygon ID: 78)
G1 Z0.000 F3000 ; plunge to cut depth
G1 X98.0000 Y301.0000 F1500 ; start cut at first vertex
G1 X96.0000 Y301.0000 F1500
G0 Z100.000 F5000 ; retract after polygon
(--- polygon 78 end ---)
(--- polygon 79 start ---)
G0 Z100.000 F5000 ; lift before travel
G0 X99.0000 Y114.0000 F5000 ; travel to polygon start
(Polygon ID: 79)
G1 Z0.000 F3000 ; plunge to cut depth
G1 X99.0000 Y114.0000 F1500 ; start cut at first vertex
G1 X98.0000 Y113.0000 F1500
G1 X98.0000 Y112.0000 F1500
G1 X97.0000 Y111.0000 F1500
G1 X95.0000 Y111.0000 F1500
G1 X97.0000 Y111.0000 F1500
G1 X98.0000 Y112.0000 F1500
G1 X98.0000 Y113.0000 F1500
G0 Z100.000 F5000 ; retract after polygon
(--- polygon 79 end ---)
(--- polygon 80 start ---)
G0 Z100.000 F5000 ; lift before travel
G0 X98.0000 Y147.0000 F5000 ; travel to polygon start
(Polygon ID: 80)
G1 Z0.000 F3000 ; plunge to cut depth
G1 X98.0000 Y147.0000 F1500 ; start cut at first vertex
G1 X98.0000 Y145.0000 F1500
G1 X99.0000 Y144.0000 F1500
G1 X99.0000 Y139.0000 F1500
G1 X99.0000 Y145.0000 F1500
G1 X98.0000 Y146.0000 F1500
G0 Z100.000 F5000 ; retract after polygon
(--- polygon 80 end ---)
(--- polygon 81 start ---)
G0 Z100.000 F5000 ; lift before travel
G0 X99.0000 Y248.0000 F5000 ; travel to polygon start
(Polygon ID: 81)
G1 Z0.000 F3000 ; plunge to cut depth
G1 X99.0000 Y248.0000 F1500 ; start cut at first vertex
G1 X99.0000 Y249.0000 F1500
G1 X98.0000 Y250.0000 F1500
G1 X98.0000 Y252.0000 F1500
G1 X97.0000 Y253.0000 F1500
G1 X97.0000 Y254.0000 F1500
G1 X96.0000 Y255.0000 F1500
G1 X96.0000 Y256.0000 F1500
G1 X96.0000 Y255.0000 F1500
G1 X95.0000 Y254.0000 F1500
G1 X94.0000 Y255.0000 F1500
G1 X94.0000 Y256.0000 F1500
G1 X93.0000 Y257.0000 F1500
G1 X93.0000 Y259.0000 F1500
G1 X92.0000 Y260.0000 F1500
G1 X92.0000 Y261.0000 F1500
G1 X91.0000 Y262.0000 F1500
G1 X91.0000 Y271.0000 F1500
G1 X91.0000 Y262.0000 F1500
G1 X92.0000 Y261.0000 F1500
G1 X92.0000 Y260.0000 F1500
G1 X93.0000 Y259.0000 F1500
G1 X93.0000 Y257.0000 F1500
G1 X94.0000 Y256.0000 F1500
G1 X94.0000 Y255.0000 F1500
G1 X95.0000 Y254.0000 F1500
G1 X96.0000 Y255.0000 F1500
G1 X97.0000 Y254.0000 F1500
G1 X97.0000 Y252.0000 F1500
G1 X96.0000 Y251.0000 F1500
G1 X95.0000 Y252.0000 F1500
G1 X96.0000 Y251.0000 F1500
G1 X96.0000 Y250.0000 F1500
G1 X96.0000 Y251.0000 F1500
G1 X97.0000 Y252.0000 F1500
G1 X98.0000 Y251.0000 F1500
G1 X98.0000 Y250.0000 F1500
G1 X99.0000 Y249.0000 F1500
G0 Z100.000 F5000 ; retract after polygon
(--- polygon 81 end ---)
(--- polygon 82 start ---)
G0 Z100.000 F5000 ; lift before travel
G0 X101.0000 Y143.0000 F5000 ; travel to polygon start
(Polygon ID: 82)
G1 Z0.000 F3000 ; plunge to cut depth
G1 X101.0000 Y143.0000 F1500 ; start cut at first vertex
G1 X101.0000 Y140.0000 F1500
G0 Z100.000 F5000 ; retract after polygon
(--- polygon 82 end ---)
(--- polygon 83 start ---)
G0 Z100.000 F5000 ; lift before travel
G0 X101.0000 Y62.0000 F5000 ; travel to polygon start
(Polygon ID: 83)
G1 Z0.000 F3000 ; plunge to cut depth
G1 X101.0000 Y62.0000 F1500 ; start cut at first vertex
G1 X102.0000 Y61.0000 F1500
G1 X102.0000 Y60.0000 F1500
G1 X101.0000 Y59.0000 F1500
G1 X101.0000 Y57.0000 F1500
G1 X100.0000 Y56.0000 F1500
G1 X100.0000 Y54.0000 F1500
G1 X99.0000 Y53.0000 F1500
G1 X99.0000 Y52.0000 F1500
G1 X98.0000 Y51.0000 F1500
G1 X98.0000 Y50.0000 F1500
G1 X97.0000 Y49.0000 F1500
G1 X97.0000 Y48.0000 F1500
G1 X96.0000 Y47.0000 F1500
G1 X96.0000 Y46.0000 F1500
G1 X94.0000 Y44.0000 F1500
G1 X94.0000 Y43.0000 F1500
G1 X93.0000 Y42.0000 F1500
G1 X90.0000 Y42.0000 F1500
G1 X94.0000 Y42.0000 F1500
G1 X94.0000 Y43.0000 F1500
G1 X95.0000 Y44.0000 F1500
G1 X95.0000 Y45.0000 F1500
G1 X97.0000 Y47.0000 F1500
G1 X97.0000 Y48.0000 F1500
G1 X98.0000 Y49.0000 F1500
G1 X98.0000 Y51.0000 F1500
G1 X99.0000 Y52.0000 F1500
G1 X99.0000 Y53.0000 F1500
G1 X100.0000 Y54.0000 F1500
G1 X100.0000 Y56.0000 F1500
G1 X101.0000 Y57.0000 F1500
G1 X101.0000 Y58.0000 F1500
G1 X102.0000 Y59.0000 F1500
G1 X102.0000 Y61.0000 F1500
G0 Z100.000 F5000 ; retract after polygon
(--- polygon 83 end ---)
(--- polygon 84 start ---)
G0 Z100.000 F5000 ; lift before travel
G0 X103.0000 Y43.0000 F5000 ; travel to polygon start
(Polygon ID: 84)
G1 Z0.000 F3000 ; plunge to cut depth
G1 X103.0000 Y43.0000 F1500 ; start cut at first vertex
G1 X102.0000 Y43.0000 F1500
G1 X101.0000 Y44.0000 F1500
G1 X102.0000 Y45.0000 F1500
G1 X101.0000 Y45.0000 F1500
G1 X101.0000 Y43.0000 F1500
G0 Z100.000 F5000 ; retract after polygon
(--- polygon 84 end ---)
(--- polygon 85 start ---)
G0 Z100.000 F5000 ; lift before travel
G0 X103.0000 Y84.0000 F5000 ; travel to polygon start
(Polygon ID: 85)
G1 Z0.000 F3000 ; plunge to cut depth
G1 X103.0000 Y84.0000 F1500 ; start cut at first vertex
G1 X102.0000 Y85.0000 F1500
G1 X102.0000 Y87.0000 F1500
G1 X99.0000 Y90.0000 F1500
G1 X97.0000 Y90.0000 F1500
G1 X96.0000 Y91.0000 F1500
G1 X93.0000 Y91.0000 F1500
G1 X92.0000 Y92.0000 F1500
G1 X85.0000 Y92.0000 F1500
G1 X84.0000 Y91.0000 F1500
G1 X80.0000 Y91.0000 F1500
G1 X79.0000 Y90.0000 F1500
G1 X77.0000 Y90.0000 F1500
G1 X76.0000 Y89.0000 F1500
G1 X75.0000 Y89.0000 F1500
G1 X74.0000 Y88.0000 F1500
G1 X73.0000 Y88.0000 F1500
G1 X70.0000 Y85.0000 F1500
G1 X69.0000 Y85.0000 F1500
G1 X67.0000 Y83.0000 F1500
G1 X67.0000 Y82.0000 F1500
G1 X66.0000 Y81.0000 F1500
G1 X66.0000 Y79.0000 F1500
G1 X65.0000 Y78.0000 F1500
G1 X65.0000 Y75.0000 F1500
G1 X67.0000 Y73.0000 F1500
G1 X67.0000 Y71.0000 F1500
G1 X68.0000 Y70.0000 F1500
G1 X68.0000 Y69.0000 F1500
G1 X69.0000 Y68.0000 F1500
G1 X69.0000 Y67.0000 F1500
G1 X70.0000 Y66.0000 F1500
G1 X70.0000 Y65.0000 F1500
G1 X71.0000 Y64.0000 F1500
G1 X71.0000 Y63.0000 F1500
G1 X73.0000 Y61.0000 F1500
G1 X73.0000 Y60.0000 F1500
G1 X75.0000 Y58.0000 F1500
G1 X75.0000 Y57.0000 F1500
G1 X77.0000 Y57.0000 F1500
G1 X77.0000 Y58.0000 F1500
G1 X80.0000 Y61.0000 F1500
G1 X81.0000 Y61.0000 F1500
G1 X84.0000 Y64.0000 F1500
G1 X85.0000 Y63.0000 F1500
G1 X84.0000 Y64.0000 F1500
G1 X85.0000 Y65.0000 F1500
G1 X89.0000 Y65.0000 F1500
G1 X90.0000 Y66.0000 F1500
G1 X95.0000 Y66.0000 F1500
G1 X96.0000 Y65.0000 F1500
G1 X99.0000 Y65.0000 F1500
G1 X100.0000 Y64.0000 F1500
G1 X101.0000 Y64.0000 F1500
G1 X102.0000 Y65.0000 F1500
G1 X102.0000 Y72.0000 F1500
G1 X103.0000 Y73.0000 F1500
G0 Z100.000 F5000 ; retract after polygon
(--- polygon 85 end ---)
(--- polygon 86 start ---)
G0 Z100.000 F5000 ; lift before travel
G0 X103.0000 Y89.0000 F5000 ; travel to polygon start
(Polygon ID: 86)
G1 Z0.000 F3000 ; plunge to cut depth
G1 X103.0000 Y89.0000 F1500 ; start cut at first vertex
G1 X103.0000 Y92.0000 F1500
G1 X102.0000 Y93.0000 F1500
G1 X102.0000 Y95.0000 F1500
G1 X101.0000 Y96.0000 F1500
G1 X101.0000 Y97.0000 F1500
G1 X100.0000 Y98.0000 F1500
G1 X100.0000 Y100.0000 F1500
G1 X97.0000 Y103.0000 F1500
G1 X97.0000 Y104.0000 F1500
G1 X96.0000 Y105.0000 F1500
G1 X96.0000 Y106.0000 F1500
G1 X93.0000 Y109.0000 F1500
G1 X93.0000 Y110.0000 F1500
G1 X90.0000 Y113.0000 F1500
G1 X90.0000 Y114.0000 F1500
G1 X87.0000 Y117.0000 F1500
G1 X87.0000 Y118.0000 F1500
G1 X85.0000 Y120.0000 F1500
G1 X84.0000 Y120.0000 F1500
G1 X83.0000 Y121.0000 F1500
G1 X83.0000 Y122.0000 F1500
G1 X81.0000 Y122.0000 F1500
G1 X80.0000 Y123.0000 F1500
G1 X75.0000 Y123.0000 F1500
G1 X80.0000 Y123.0000 F1500
G1 X81.0000 Y122.0000 F1500
G1 X82.0000 Y122.0000 F1500
G1 X83.0000 Y121.0000 F1500
G1 X82.0000 Y120.0000 F1500
G1 X79.0000 Y120.0000 F1500
G1 X79.0000 Y119.0000 F1500
G1 X80.0000 Y120.0000 F1500
G1 X82.0000 Y120.0000 F1500
G1 X83.0000 Y121.0000 F1500
G1 X87.0000 Y117.0000 F1500
G1 X87.0000 Y116.0000 F1500
G1 X90.0000 Y113.0000 F1500
G1 X90.0000 Y112.0000 F1500
G1 X93.0000 Y109.0000 F1500
G1 X93.0000 Y108.0000 F1500
G1 X95.0000 Y106.0000 F1500
G1 X94.0000 Y105.0000 F1500
G1 X95.0000 Y106.0000 F1500
G1 X97.0000 Y104.0000 F1500
G1 X97.0000 Y102.0000 F1500
G1 X98.0000 Y101.0000 F1500
G1 X97.0000 Y100.0000 F1500
G1 X96.0000 Y100.0000 F1500
G1 X95.0000 Y101.0000 F1500
G1 X82.0000 Y101.0000 F1500
G1 X81.0000 Y100.0000 F1500
G1 X78.0000 Y100.0000 F1500
G1 X77.0000 Y99.0000 F1500
G1 X75.0000 Y99.0000 F1500
G1 X74.0000 Y98.0000 F1500
G1 X72.0000 Y98.0000 F1500
G1 X71.0000 Y97.0000 F1500
G1 X70.0000 Y98.0000 F1500
G1 X70.0000 Y100.0000 F1500
G1 X72.0000 Y102.0000 F1500
G1 X74.0000 Y102.0000 F1500
G1 X75.0000 Y103.0000 F1500
G1 X77.0000 Y103.0000 F1500
G1 X78.0000 Y102.0000 F1500
G1 X78.0000 Y103.0000 F1500
G1 X79.0000 Y104.0000 F1500
G1 X81.0000 Y104.0000 F1500
G1 X82.0000 Y105.0000 F1500
G1 X87.0000 Y105.0000 F1500
G1 X88.0000 Y104.0000 F1500
G1 X92.0000 Y104.0000 F1500
G1 X88.0000 Y104.0000 F1500
G1 X87.0000 Y105.0000 F1500
G1 X88.0000 Y106.0000 F1500
G1 X92.0000 Y106.0000 F1500
G1 X88.0000 Y106.0000 F1500
G1 X87.0000 Y107.0000 F1500
G1 X82.0000 Y107.0000 F1500
G1 X81.0000 Y106.0000 F1500
G1 X79.0000 Y106.0000 F1500
G1 X78.0000 Y107.0000 F1500
G1 X77.0000 Y107.0000 F1500
G1 X76.0000 Y108.0000 F1500
G1 X77.0000 Y109.0000 F1500
G1 X77.0000 Y117.0000 F1500
G1 X76.0000 Y118.0000 F1500
G1 X76.0000 Y121.0000 F1500
G1 X74.0000 Y121.0000 F1500
G1 X75.0000 Y121.0000 F1500
G1 X76.0000 Y120.0000 F1500
G1 X76.0000 Y118.0000 F1500
G1 X77.0000 Y117.0000 F1500
G1 X77.0000 Y110.0000 F1500
G1 X75.0000 Y108.0000 F1500
G1 X73.0000 Y108.0000 F1500
G1 X72.0000 Y107.0000 F1500
G1 X70.0000 Y109.0000 F1500
G1 X70.0000 Y110.0000 F1500
G1 X69.0000 Y111.0000 F1500
G1 X69.0000 Y112.0000 F1500
G1 X68.0000 Y113.0000 F1500
G1 X68.0000 Y115.0000 F1500
G1 X68.0000 Y112.0000 F1500
G1 X69.0000 Y111.0000 F1500
G1 X69.0000 Y110.0000 F1500
G1 X70.0000 Y109.0000 F1500
G1 X70.0000 Y108.0000 F1500
G1 X71.0000 Y108.0000 F1500
G1 X72.0000 Y107.0000 F1500
G1 X71.0000 Y106.0000 F1500
G1 X71.0000 Y105.0000 F1500
G1 X72.0000 Y104.0000 F1500
G1 X73.0000 Y104.0000 F1500
G1 X74.0000 Y103.0000 F1500
G1 X73.0000 Y102.0000 F1500
G1 X71.0000 Y102.0000 F1500
G1 X69.0000 Y100.0000 F1500
G1 X70.0000 Y99.0000 F1500
G1 X70.0000 Y98.0000 F1500
G1 X71.0000 Y97.0000 F1500
G1 X70.0000 Y96.0000 F1500
G1 X69.0000 Y96.0000 F1500
G1 X67.0000 Y94.0000 F1500
G1 X66.0000 Y94.0000 F1500
G1 X64.0000 Y92.0000 F1500
G1 X64.0000 Y91.0000 F1500
G1 X63.0000 Y90.0000 F1500
G1 X62.0000 Y91.0000 F1500
G1 X62.0000 Y97.0000 F1500
G1 X63.0000 Y98.0000 F1500
G1 X63.0000 Y105.0000 F1500
G1 X64.0000 Y106.0000 F1500
G1 X64.0000 Y110.0000 F1500
G1 X65.0000 Y111.0000 F1500
G1 X65.0000 Y112.0000 F1500
G1 X66.0000 Y113.0000 F1500
G1 X66.0000 Y115.0000 F1500
G1 X65.0000 Y116.0000 F1500
G1 X65.0000 Y118.0000 F1500
G1 X65.0000 Y116.0000 F1500
G1 X66.0000 Y115.0000 F1500
G1 X66.0000 Y114.0000 F1500
G1 X64.0000 Y112.0000 F1500
G1 X63.0000 Y113.0000 F1500
G1 X62.0000 Y113.0000 F1500
G1 X57.0000 Y118.0000 F1500
G1 X57.0000 Y120.0000 F1500
G1 X56.0000 Y121.0000 F1500
G1 X56.0000 Y126.0000 F1500
G1 X55.0000 Y127.0000 F1500
G1 X54.0000 Y127.0000 F1500
G1 X54.0000 Y126.0000 F1500
G1 X53.0000 Y125.0000 F1500
G1 X53.0000 Y124.0000 F1500
G1 X52.0000 Y123.0000 F1500
G1 X52.0000 Y121.0000 F1500
G1 X51.0000 Y120.0000 F1500
G1 X51.0000 Y119.0000 F1500
G1 X50.0000 Y118.0000 F1500
G1 X50.0000 Y116.0000 F1500
G1 X49.0000 Y115.0000 F1500
G1 X49.0000 Y111.0000 F1500
G1 X48.0000 Y110.0000 F1500
G1 X48.0000 Y109.0000 F1500
G1 X49.0000 Y108.0000 F1500
G1 X49.0000 Y103.0000 F1500
G1 X49.0000 Y108.0000 F1500
G1 X48.0000 Y109.0000 F1500
G1 X48.0000 Y110.0000 F1500
G1 X49.0000 Y111.0000 F1500
G1 X49.0000 Y115.0000 F1500
G1 X50.0000 Y116.0000 F1500
G1 X50.0000 Y118.0000 F1500
G1 X51.0000 Y119.0000 F1500
G1 X51.0000 Y120.0000 F1500
G1 X52.0000 Y121.0000 F1500
G1 X53.0000 Y120.0000 F1500
G1 X52.0000 Y121.0000 F1500
G1 X52.0000 Y123.0000 F1500
G1 X53.0000 Y124.0000 F1500
G1 X53.0000 Y125.0000 F1500
G1 X55.0000 Y127.0000 F1500
G1 X56.0000 Y126.0000 F1500
G1 X56.0000 Y121.0000 F1500
G1 X55.0000 Y120.0000 F1500
G1 X55.0000 Y118.0000 F1500
G1 X55.0000 Y120.0000 F1500
G1 X56.0000 Y121.0000 F1500
G1 X57.0000 Y120.0000 F1500
G1 X57.0000 Y117.0000 F1500
G1 X61.0000 Y113.0000 F1500
G1 X63.0000 Y113.0000 F1500
G1 X64.0000 Y112.0000 F1500
G1 X63.0000 Y111.0000 F1500
G1 X61.0000 Y111.0000 F1500
G1 X63.0000 Y111.0000 F1500
G1 X64.0000 Y110.0000 F1500
G1 X64.0000 Y106.0000 F1500
G1 X63.0000 Y105.0000 F1500
G1 X62.0000 Y106.0000 F1500
G1 X62.0000 Y108.0000 F1500
G1 X62.0000 Y106.0000 F1500
G1 X63.0000 Y105.0000 F1500
G1 X63.0000 Y98.0000 F1500
G1 X62.0000 Y97.0000 F1500
G1 X62.0000 Y96.0000 F1500
G1 X61.0000 Y95.0000 F1500
G1 X59.0000 Y95.0000 F1500
G1 X61.0000 Y95.0000 F1500
G1 X62.0000 Y94.0000 F1500
G1 X62.0000 Y90.0000 F1500
G1 X64.0000 Y90.0000 F1500
G1 X64.0000 Y91.0000 F1500
G1 X67.0000 Y94.0000 F1500
G1 X68.0000 Y94.0000 F1500
G1 X70.0000 Y96.0000 F1500
G1 X71.0000 Y96.0000 F1500
G1 X72.0000 Y97.0000 F1500
G1 X73.0000 Y96.0000 F1500
G1 X72.0000 Y97.0000 F1500
G1 X73.0000 Y98.0000 F1500
G1 X74.0000 Y98.0000 F1500
G1 X75.0000 Y99.0000 F1500
G1 X77.0000 Y99.0000 F1500
G1 X78.0000 Y100.0000 F1500
G1 X81.0000 Y100.0000 F1500
G1 X82.0000 Y101.0000 F1500
G1 X95.0000 Y101.0000 F1500
G1 X96.0000 Y100.0000 F1500
G1 X95.0000 Y99.0000 F1500
G1 X90.0000 Y99.0000 F1500
G1 X95.0000 Y99.0000 F1500
G1 X96.0000 Y100.0000 F1500
G1 X97.0000 Y100.0000 F1500
G1 X98.0000 Y101.0000 F1500
G1 X100.0000 Y99.0000 F1500
G1 X99.0000 Y98.0000 F1500
G1 X98.0000 Y98.0000 F1500
G1 X100.0000 Y98.0000 F1500
G1 X101.0000 Y97.0000 F1500
G1 X101.0000 Y96.0000 F1500
G1 X102.0000 Y95.0000 F1500
G1 X102.0000 Y93.0000 F1500
G1 X103.0000 Y92.0000 F1500
G0 Z100.000 F5000 ; retract after polygon
(--- polygon 86 end ---)
(--- polygon 87 start ---)
G0 Z100.000 F5000 ; lift before travel
G0 X103.0000 Y180.0000 F5000 ; travel to polygon start
(Polygon ID: 87)
G1 Z0.000 F3000 ; plunge to cut depth
G1 X103.0000 Y180.0000 F1500 ; start cut at first vertex
G1 X101.0000 Y182.0000 F1500
G0 Z100.000 F5000 ; retract after polygon
(--- polygon 87 end ---)
(--- polygon 88 start ---)
G0 Z100.000 F5000 ; lift before travel
G0 X104.0000 Y146.0000 F5000 ; travel to polygon start
(Polygon ID: 88)
G1 Z0.000 F3000 ; plunge to cut depth
G1 X104.0000 Y146.0000 F1500 ; start cut at first vertex
G0 Z100.000 F5000 ; retract after polygon
(--- polygon 88 end ---)
(--- polygon 89 start ---)
G0 Z100.000 F5000 ; lift before travel
G0 X109.0000 Y43.0000 F5000 ; travel to polygon start
(Polygon ID: 89)
G1 Z0.000 F3000 ; plunge to cut depth
G1 X109.0000 Y43.0000 F1500 ; start cut at first vertex
G1 X107.0000 Y43.0000 F1500
G1 X107.0000 Y40.0000 F1500
G1 X109.0000 Y40.0000 F1500
G0 Z100.000 F5000 ; retract after polygon
(--- polygon 89 end ---)
(--- polygon 90 start ---)
G0 Z100.000 F5000 ; lift before travel
G0 X109.0000 Y243.0000 F5000 ; travel to polygon start
(Polygon ID: 90)
G1 Z0.000 F3000 ; plunge to cut depth
G1 X109.0000 Y243.0000 F1500 ; start cut at first vertex
G1 X106.0000 Y246.0000 F1500
G1 X106.0000 Y248.0000 F1500
G1 X105.0000 Y249.0000 F1500
G1 X105.0000 Y251.0000 F1500
G1 X104.0000 Y252.0000 F1500
G1 X104.0000 Y262.0000 F1500
G1 X104.0000 Y251.0000 F1500
G1 X103.0000 Y250.0000 F1500
G1 X103.0000 Y249.0000 F1500
G1 X102.0000 Y248.0000 F1500
G1 X101.0000 Y249.0000 F1500
G1 X101.0000 Y251.0000 F1500
G1 X102.0000 Y252.0000 F1500
G1 X102.0000 Y263.0000 F1500
G1 X102.0000 Y252.0000 F1500
G1 X101.0000 Y251.0000 F1500
G1 X100.0000 Y252.0000 F1500
G1 X100.0000 Y253.0000 F1500
G1 X99.0000 Y254.0000 F1500
G1 X100.0000 Y253.0000 F1500
G1 X100.0000 Y252.0000 F1500
G1 X101.0000 Y251.0000 F1500
G1 X101.0000 Y249.0000 F1500
G1 X102.0000 Y248.0000 F1500
G1 X105.0000 Y248.0000 F1500
G1 X106.0000 Y247.0000 F1500
G1 X106.0000 Y245.0000 F1500
G1 X107.0000 Y244.0000 F1500
G1 X108.0000 Y244.0000 F1500
G0 Z100.000 F5000 ; retract after polygon
(--- polygon 90 end ---)
(--- polygon 91 start ---)
G0 Z100.000 F5000 ; lift before travel
G0 X110.0000 Y301.0000 F5000 ; travel to polygon start
(Polygon ID: 91)
G1 Z0.000 F3000 ; plunge to cut depth
G1 X110.0000 Y301.0000 F1500 ; start cut at first vertex
G1 X109.0000 Y301.0000 F1500
G1 X109.0000 Y300.0000 F1500
G0 Z100.000 F5000 ; retract after polygon
(--- polygon 91 end ---)
(--- polygon 92 start ---)
G0 Z100.000 F5000 ; lift before travel
G0 X104.0000 Y112.0000 F5000 ; travel to polygon start
(Polygon ID: 92)
G1 Z0.000 F3000 ; plunge to cut depth
G1 X104.0000 Y112.0000 F1500 ; start cut at first vertex
G1 X105.0000 Y123.0000 F1500
G1 X101.0000 Y132.0000 F1500
G1 X106.0000 Y136.0000 F1500
G1 X107.0000 Y144.0000 F1500
G1 X102.0000 Y153.0000 F1500
G1 X100.0000 Y153.0000 F1500
G1 X98.0000 Y155.0000 F1500
G1 X100.0000 Y156.0000 F1500
G1 X101.0000 Y155.0000 F1500
G1 X98.0000 Y157.0000 F1500
G1 X90.0000 Y158.0000 F1500
G1 X94.0000 Y158.0000 F1500
G1 X95.0000 Y157.0000 F1500
G1 X94.0000 Y156.0000 F1500
G1 X86.0000 Y155.0000 F1500
G1 X85.0000 Y156.0000 F1500
G1 X86.0000 Y157.0000 F1500
G1 X88.0000 Y157.0000 F1500
G1 X84.0000 Y156.0000 F1500
G1 X83.0000 Y157.0000 F1500
G1 X84.0000 Y158.0000 F1500
G1 X82.0000 Y155.0000 F1500
G1 X80.0000 Y156.0000 F1500
G1 X82.0000 Y155.0000 F1500
G1 X83.0000 Y156.0000 F1500
G1 X85.0000 Y156.0000 F1500
G1 X86.0000 Y155.0000 F1500
G1 X83.0000 Y153.0000 F1500
G1 X81.0000 Y153.0000 F1500
G1 X79.0000 Y151.0000 F1500
G1 X82.0000 Y153.0000 F1500
G1 X84.0000 Y153.0000 F1500
G1 X86.0000 Y155.0000 F1500
G1 X89.0000 Y155.0000 F1500
G1 X90.0000 Y156.0000 F1500
G1 X97.0000 Y155.0000 F1500
G1 X98.0000 Y154.0000 F1500
G1 X98.0000 Y152.0000 F1500
G1 X101.0000 Y149.0000 F1500
G1 X101.0000 Y147.0000 F1500
G1 X103.0000 Y144.0000 F1500
G1 X103.0000 Y138.0000 F1500
G1 X101.0000 Y136.0000 F1500
G1 X103.0000 Y138.0000 F1500
G1 X103.0000 Y144.0000 F1500
G1 X101.0000 Y149.0000 F1500
G1 X99.0000 Y151.0000 F1500
G1 X99.0000 Y152.0000 F1500
G1 X101.0000 Y153.0000 F1500
G1 X106.0000 Y147.0000 F1500
G1 X106.0000 Y145.0000 F1500
G1 X105.0000 Y144.0000 F1500
G1 X105.0000 Y139.0000 F1500
G1 X106.0000 Y137.0000 F1500
G1 X102.0000 Y133.0000 F1500
G1 X101.0000 Y133.0000 F1500
G1 X96.0000 Y138.0000 F1500
G1 X97.0000 Y139.0000 F1500
G1 X97.0000 Y141.0000 F1500
G1 X95.0000 Y145.0000 F1500
G1 X96.0000 Y147.0000 F1500
G1 X91.0000 Y150.0000 F1500
G1 X92.0000 Y151.0000 F1500
G1 X91.0000 Y150.0000 F1500
G1 X89.0000 Y151.0000 F1500
G1 X85.0000 Y151.0000 F1500
G1 X83.0000 Y150.0000 F1500
G1 X78.0000 Y144.0000 F1500
G1 X75.0000 Y144.0000 F1500
G1 X74.0000 Y143.0000 F1500
G1 X75.0000 Y144.0000 F1500
G1 X80.0000 Y144.0000 F1500
G1 X83.0000 Y141.0000 F1500
G1 X82.0000 Y139.0000 F1500
G1 X80.0000 Y139.0000 F1500
G1 X87.0000 Y138.0000 F1500
G1 X88.0000 Y137.0000 F1500
G1 X87.0000 Y136.0000 F1500
G1 X82.0000 Y135.0000 F1500
G1 X68.0000 Y141.0000 F1500
G1 X70.0000 Y143.0000 F1500
G1 X72.0000 Y143.0000 F1500
G1 X71.0000 Y144.0000 F1500
G1 X73.0000 Y146.0000 F1500
G1 X77.0000 Y146.0000 F1500
G1 X78.0000 Y147.0000 F1500
G1 X77.0000 Y146.0000 F1500
G1 X73.0000 Y146.0000 F1500
G1 X68.0000 Y144.0000 F1500
G1 X66.0000 Y146.0000 F1500
G1 X63.0000 Y146.0000 F1500
G1 X62.0000 Y144.0000 F1500
G1 X56.0000 Y143.0000 F1500
G1 X55.0000 Y144.0000 F1500
G1 X57.0000 Y145.0000 F1500
G1 X55.0000 Y146.0000 F1500
G1 X56.0000 Y147.0000 F1500
G1 X55.0000 Y146.0000 F1500
G1 X56.0000 Y145.0000 F1500
G1 X55.0000 Y144.0000 F1500
G1 X52.0000 Y145.0000 F1500
G1 X45.0000 Y153.0000 F1500
G1 X46.0000 Y155.0000 F1500
G1 X47.0000 Y154.0000 F1500
G1 X43.0000 Y161.0000 F1500
G1 X43.0000 Y163.0000 F1500
G1 X45.0000 Y165.0000 F1500
G1 X46.0000 Y164.0000 F1500
G1 X45.0000 Y162.0000 F1500
G1 X49.0000 Y154.0000 F1500
G1 X52.0000 Y151.0000 F1500
G1 X53.0000 Y151.0000 F1500
G1 X49.0000 Y155.0000 F1500
G1 X48.0000 Y158.0000 F1500
G1 X46.0000 Y160.0000 F1500
G1 X47.0000 Y162.0000 F1500
G1 X51.0000 Y157.0000 F1500
G1 X60.0000 Y153.0000 F1500
G1 X63.0000 Y153.0000 F1500
G1 X67.0000 Y155.0000 F1500
G1 X69.0000 Y155.0000 F1500
G1 X70.0000 Y153.0000 F1500
G1 X69.0000 Y155.0000 F1500
G1 X70.0000 Y156.0000 F1500
G1 X72.0000 Y156.0000 F1500
G1 X73.0000 Y155.0000 F1500
G1 X72.0000 Y154.0000 F1500
G1 X73.0000 Y153.0000 F1500
G1 X70.0000 Y150.0000 F1500
G1 X66.0000 Y150.0000 F1500
G1 X70.0000 Y150.0000 F1500
G1 X74.0000 Y153.0000 F1500
G1 X75.0000 Y152.0000 F1500
G1 X71.0000 Y148.0000 F1500
G1 X62.0000 Y148.0000 F1500
G1 X61.0000 Y149.0000 F1500
G1 X63.0000 Y150.0000 F1500
G1 X57.0000 Y151.0000 F1500
G1 X53.0000 Y154.0000 F1500
G1 X56.0000 Y152.0000 F1500
G1 X55.0000 Y151.0000 F1500
G1 X56.0000 Y152.0000 F1500
G1 X57.0000 Y151.0000 F1500
G1 X59.0000 Y151.0000 F1500
G1 X61.0000 Y149.0000 F1500
G1 X59.0000 Y148.0000 F1500
G1 X58.0000 Y149.0000 F1500
G1 X57.0000 Y149.0000 F1500
G1 X59.0000 Y148.0000 F1500
G1 X72.0000 Y148.0000 F1500
G1 X76.0000 Y152.0000 F1500
G1 X79.0000 Y159.0000 F1500
G1 X84.0000 Y165.0000 F1500
G1 X86.0000 Y166.0000 F1500
G1 X88.0000 Y166.0000 F1500
G1 X89.0000 Y165.0000 F1500
G1 X94.0000 Y165.0000 F1500
G1 X96.0000 Y166.0000 F1500
G1 X97.0000 Y165.0000 F1500
G1 X96.0000 Y163.0000 F1500
G1 X85.0000 Y163.0000 F1500
G1 X84.0000 Y162.0000 F1500
G1 X85.0000 Y163.0000 F1500
G1 X95.0000 Y163.0000 F1500
G1 X99.0000 Y161.0000 F1500
G1 X101.0000 Y158.0000 F1500
G1 X102.0000 Y159.0000 F1500
G1 X104.0000 Y157.0000 F1500
G1 X103.0000 Y156.0000 F1500
G1 X106.0000 Y153.0000 F1500
G1 X105.0000 Y152.0000 F1500
G1 X106.0000 Y153.0000 F1500
G1 X108.0000 Y151.0000 F1500
G1 X108.0000 Y149.0000 F1500
G1 X109.0000 Y148.0000 F1500
G1 X108.0000 Y146.0000 F1500
G1 X110.0000 Y149.0000 F1500
G1 X111.0000 Y149.0000 F1500
G1 X112.0000 Y147.0000 F1500
G1 X111.0000 Y149.0000 F1500
G1 X109.0000 Y148.0000 F1500
G1 X108.0000 Y149.0000 F1500
G1 X108.0000 Y152.0000 F1500
G1 X104.0000 Y156.0000 F1500
G1 X103.0000 Y159.0000 F1500
G1 X96.0000 Y163.0000 F1500
G1 X98.0000 Y165.0000 F1500
G1 X101.0000 Y163.0000 F1500
G1 X99.0000 Y165.0000 F1500
G1 X94.0000 Y167.0000 F1500
G1 X89.0000 Y167.0000 F1500
G1 X88.0000 Y166.0000 F1500
G1 X83.0000 Y165.0000 F1500
G1 X79.0000 Y160.0000 F1500
G1 X78.0000 Y156.0000 F1500
G1 X76.0000 Y154.0000 F1500
G1 X71.0000 Y157.0000 F1500
G1 X73.0000 Y159.0000 F1500
G1 X74.0000 Y158.0000 F1500
G1 X74.0000 Y159.0000 F1500
G1 X72.0000 Y159.0000 F1500
G1 X70.0000 Y156.0000 F1500
G1 X69.0000 Y158.0000 F1500
G1 X70.0000 Y159.0000 F1500
G1 X69.0000 Y158.0000 F1500
G1 X70.0000 Y156.0000 F1500
G1 X69.0000 Y155.0000 F1500
G1 X67.0000 Y155.0000 F1500
G1 X63.0000 Y153.0000 F1500
G1 X58.0000 Y154.0000 F1500
G1 X57.0000 Y156.0000 F1500
G1 X62.0000 Y159.0000 F1500
G1 X64.0000 Y157.0000 F1500
G1 X63.0000 Y156.0000 F1500
G1 X65.0000 Y156.0000 F1500
G1 X61.0000 Y161.0000 F1500
G1 X61.0000 Y163.0000 F1500
G1 X66.0000 Y169.0000 F1500
G1 X67.0000 Y168.0000 F1500
G1 X69.0000 Y170.0000 F1500
G1 X74.0000 Y170.0000 F1500
G1 X78.0000 Y174.0000 F1500
G1 X78.0000 Y179.0000 F1500
G1 X75.0000 Y181.0000 F1500
G1 X73.0000 Y185.0000 F1500
G1 X73.0000 Y183.0000 F1500
G1 X75.0000 Y181.0000 F1500
G1 X76.0000 Y177.0000 F1500
G1 X71.0000 Y173.0000 F1500
G1 X67.0000 Y174.0000 F1500
G1 X69.0000 Y174.0000 F1500
G1 X70.0000 Y173.0000 F1500
G1 X74.0000 Y174.0000 F1500
G1 X75.0000 Y172.0000 F1500
G1 X73.0000 Y170.0000 F1500
G1 X69.0000 Y170.0000 F1500
G1 X67.0000 Y171.0000 F1500
G1 X65.0000 Y174.0000 F1500
G1 X64.0000 Y173.0000 F1500
G1 X63.0000 Y174.0000 F1500
G1 X64.0000 Y176.0000 F1500
G1 X68.0000 Y176.0000 F1500
G1 X68.0000 Y184.0000 F1500
G1 X66.0000 Y184.0000 F1500
G1 X64.0000 Y186.0000 F1500
G1 X65.0000 Y187.0000 F1500
G1 X64.0000 Y186.0000 F1500
G1 X61.0000 Y186.0000 F1500
G1 X60.0000 Y187.0000 F1500
G1 X60.0000 Y186.0000 F1500
G1 X63.0000 Y186.0000 F1500
G1 X65.0000 Y184.0000 F1500
G1 X67.0000 Y184.0000 F1500
G1 X68.0000 Y183.0000 F1500
G1 X68.0000 Y177.0000 F1500
G1 X63.0000 Y175.0000 F1500
G1 X62.0000 Y176.0000 F1500
G1 X58.0000 Y176.0000 F1500
G1 X55.0000 Y178.0000 F1500
G1 X53.0000 Y178.0000 F1500
G1 X52.0000 Y177.0000 F1500
G1 X49.0000 Y177.0000 F1500
G1 X46.0000 Y175.0000 F1500
G1 X45.0000 Y172.0000 F1500
G1 X42.0000 Y170.0000 F1500
G1 X41.0000 Y164.0000 F1500
G1 X39.0000 Y161.0000 F1500
G1 X39.0000 Y154.0000 F1500
G1 X40.0000 Y153.0000 F1500
G1 X40.0000 Y150.0000 F1500
G1 X39.0000 Y149.0000 F1500
G1 X40.0000 Y150.0000 F1500
G1 X41.0000 Y149.0000 F1500
G1 X42.0000 Y144.0000 F1500
G1 X50.0000 Y135.0000 F1500
G1 X55.0000 Y134.0000 F1500
G1 X58.0000 Y136.0000 F1500
G1 X63.0000 Y134.0000 F1500
G1 X63.0000 Y130.0000 F1500
G1 X62.0000 Y128.0000 F1500
G1 X64.0000 Y127.0000 F1500
G1 X65.0000 Y120.0000 F1500
G1 X64.0000 Y128.0000 F1500
G1 X66.0000 Y133.0000 F1500
G1 X66.0000 Y137.0000 F1500
G1 X68.0000 Y140.0000 F1500
G1 X69.0000 Y139.0000 F1500
G1 X69.0000 Y135.0000 F1500
G1 X70.0000 Y134.0000 F1500
G1 X69.0000 Y133.0000 F1500
G1 X72.0000 Y130.0000 F1500
G1 X72.0000 Y127.0000 F1500
G1 X73.0000 Y126.0000 F1500
G1 X74.0000 Y127.0000 F1500
G1 X79.0000 Y127.0000 F1500
G1 X80.0000 Y126.0000 F1500
G1 X79.0000 Y125.0000 F1500
G1 X76.0000 Y125.0000 F1500
G1 X79.0000 Y125.0000 F1500
G1 X80.0000 Y126.0000 F1500
G1 X81.0000 Y125.0000 F1500
G1 X83.0000 Y125.0000 F1500
G1 X85.0000 Y122.0000 F1500
G1 X85.0000 Y124.0000 F1500
G1 X84.0000 Y125.0000 F1500
G1 X82.0000 Y125.0000 F1500
G1 X79.0000 Y128.0000 F1500
G1 X79.0000 Y130.0000 F1500
G1 X76.0000 Y132.0000 F1500
G1 X74.0000 Y131.0000 F1500
G1 X75.0000 Y132.0000 F1500
G1 X79.0000 Y129.0000 F1500
G1 X78.0000 Y127.0000 F1500
G1 X77.0000 Y128.0000 F1500
G1 X76.0000 Y127.0000 F1500
G1 X75.0000 Y128.0000 F1500
G1 X73.0000 Y127.0000 F1500
G1 X71.0000 Y132.0000 F1500
G1 X69.0000 Y133.0000 F1500
G1 X72.0000 Y135.0000 F1500
G1 X75.0000 Y135.0000 F1500
G1 X81.0000 Y131.0000 F1500
G1 X86.0000 Y131.0000 F1500
G1 X81.0000 Y131.0000 F1500
G1 X79.0000 Y133.0000 F1500
G1 X82.0000 Y135.0000 F1500
G1 X87.0000 Y136.0000 F1500
G1 X89.0000 Y134.0000 F1500
G1 X88.0000 Y132.0000 F1500
G1 X89.0000 Y131.0000 F1500
G1 X90.0000 Y132.0000 F1500
G1 X88.0000 Y135.0000 F1500
G1 X87.0000 Y140.0000 F1500
G1 X85.0000 Y142.0000 F1500
G1 X85.0000 Y144.0000 F1500
G1 X87.0000 Y145.0000 F1500
G1 X88.0000 Y144.0000 F1500
G1 X87.0000 Y143.0000 F1500
G1 X88.0000 Y142.0000 F1500
G1 X92.0000 Y144.0000 F1500
G1 X93.0000 Y143.0000 F1500
G1 X92.0000 Y140.0000 F1500
G1 X93.0000 Y141.0000 F1500
G1 X94.0000 Y139.0000 F1500
G1 X101.0000 Y133.0000 F1500
G1 X100.0000 Y131.0000 F1500
G1 X103.0000 Y127.0000 F1500
G1 X102.0000 Y125.0000 F1500
G1 X103.0000 Y123.0000 F1500
G1 X102.0000 Y113.0000 F1500
G1 X100.0000 Y112.0000 F1500
G1 X97.0000 Y108.0000 F1500
G1 X101.0000 Y112.0000 F1500
G1 X102.0000 Y110.0000 F1500
G1 X99.0000 Y106.0000 F1500
G0 Z100.000 F5000 ; retract after polygon
(--- polygon 92 end ---)
(--- polygon 93 start ---)
G0 Z100.000 F5000 ; lift before travel
G0 X114.0000 Y140.0000 F5000 ; travel to polygon start
(Polygon ID: 93)
G1 Z0.000 F3000 ; plunge to cut depth
G1 X114.0000 Y140.0000 F1500 ; start cut at first vertex
G1 X114.0000 Y142.0000 F1500
G1 X113.0000 Y142.0000 F1500
G1 X112.0000 Y143.0000 F1500
G1 X112.0000 Y145.0000 F1500
G1 X110.0000 Y145.0000 F1500
G1 X110.0000 Y143.0000 F1500
G1 X112.0000 Y143.0000 F1500
G1 X114.0000 Y141.0000 F1500
G1 X113.0000 Y140.0000 F1500
G0 Z100.000 F5000 ; retract after polygon
(--- polygon 93 end ---)
(--- polygon 94 start ---)
G0 Z100.000 F5000 ; lift before travel
G0 X114.0000 Y264.0000 F5000 ; travel to polygon start
(Polygon ID: 94)
G1 Z0.000 F3000 ; plunge to cut depth
G1 X114.0000 Y264.0000 F1500 ; start cut at first vertex
G0 Z100.000 F5000 ; retract after polygon
(--- polygon 94 end ---)
(--- polygon 95 start ---)
G0 Z100.000 F5000 ; lift before travel
G0 X112.0000 Y293.0000 F5000 ; travel to polygon start
(Polygon ID: 95)
G1 Z0.000 F3000 ; plunge to cut depth
G1 X112.0000 Y293.0000 F1500 ; start cut at first vertex
G1 X98.0000 Y293.0000 F1500
G1 X97.0000 Y292.0000 F1500
G1 X96.0000 Y292.0000 F1500
G1 X95.0000 Y291.0000 F1500
G1 X93.0000 Y291.0000 F1500
G1 X93.0000 Y290.0000 F1500
G1 X90.0000 Y287.0000 F1500
G1 X94.0000 Y291.0000 F1500
G1 X95.0000 Y291.0000 F1500
G1 X96.0000 Y292.0000 F1500
G1 X97.0000 Y292.0000 F1500
G1 X98.0000 Y293.0000 F1500
G1 X111.0000 Y293.0000 F1500
G1 X114.0000 Y290.0000 F1500
G1 X111.0000 Y287.0000 F1500
G1 X110.0000 Y287.0000 F1500
G1 X107.0000 Y284.0000 F1500
G1 X106.0000 Y284.0000 F1500
G1 X101.0000 Y279.0000 F1500
G1 X101.0000 Y278.0000 F1500
G1 X99.0000 Y276.0000 F1500
G1 X99.0000 Y273.0000 F1500
G1 X98.0000 Y272.0000 F1500
G1 X98.0000 Y266.0000 F1500
G1 X98.0000 Y272.0000 F1500
G1 X99.0000 Y273.0000 F1500
G1 X99.0000 Y275.0000 F1500
G1 X101.0000 Y277.0000 F1500
G1 X101.0000 Y278.0000 F1500
G1 X107.0000 Y284.0000 F1500
G1 X108.0000 Y284.0000 F1500
G1 X111.0000 Y287.0000 F1500
G1 X112.0000 Y287.0000 F1500
G1 X114.0000 Y289.0000 F1500
G1 X114.0000 Y291.0000 F1500
G0 Z100.000 F5000 ; retract after polygon
(--- polygon 95 end ---)
(--- polygon 96 start ---)
G0 Z100.000 F5000 ; lift before travel
G0 X116.0000 Y103.0000 F5000 ; travel to polygon start
(Polygon ID: 96)
G1 Z0.000 F3000 ; plunge to cut depth
G1 X116.0000 Y103.0000 F1500 ; start cut at first vertex
G1 X115.0000 Y103.0000 F1500
G1 X114.0000 Y102.0000 F1500
G1 X114.0000 Y101.0000 F1500
G1 X116.0000 Y101.0000 F1500
G0 Z100.000 F5000 ; retract after polygon
(--- polygon 96 end ---)
(--- polygon 97 start ---)
G0 Z100.000 F5000 ; lift before travel
G0 X116.0000 Y236.0000 F5000 ; travel to polygon start
(Polygon ID: 97)
G1 Z0.000 F3000 ; plunge to cut depth
G1 X116.0000 Y236.0000 F1500 ; start cut at first vertex
G1 X116.0000 Y233.0000 F1500
G0 Z100.000 F5000 ; retract after polygon
(--- polygon 97 end ---)
(--- polygon 98 start ---)
G0 Z100.000 F5000 ; lift before travel
G0 X118.0000 Y197.0000 F5000 ; travel to polygon start
(Polygon ID: 98)
G1 Z0.000 F3000 ; plunge to cut depth
G1 X118.0000 Y197.0000 F1500 ; start cut at first vertex
G1 X118.0000 Y196.0000 F1500
G0 Z100.000 F5000 ; retract after polygon
(--- polygon 98 end ---)
(--- polygon 99 start ---)
G0 Z100.000 F5000 ; lift before travel
G0 X118.0000 Y239.0000 F5000 ; travel to polygon start
(Polygon ID: 99)
G1 Z0.000 F3000 ; plunge to cut depth
G1 X118.0000 Y239.0000 F1500 ; start cut at first vertex
G0 Z100.000 F5000 ; retract after polygon
(--- polygon 99 end ---)
(--- polygon 100 start ---)
G0 Z100.000 F5000 ; lift before travel
G0 X119.0000 Y125.0000 F5000 ; travel to polygon start
(Polygon ID: 100)
G1 Z0.000 F3000 ; plunge to cut depth
G1 X119.0000 Y125.0000 F1500 ; start cut at first vertex
G1 X117.0000 Y125.0000 F1500
G1 X116.0000 Y126.0000 F1500
G1 X117.0000 Y127.0000 F1500
G1 X118.0000 Y127.0000 F1500
G1 X117.0000 Y127.0000 F1500
G1 X116.0000 Y126.0000 F1500
G1 X116.0000 Y125.0000 F1500
G0 Z100.000 F5000 ; retract after polygon
(--- polygon 100 end ---)
(--- polygon 101 start ---)
G0 Z100.000 F5000 ; lift before travel
G0 X119.0000 Y331.0000 F5000 ; travel to polygon start
(Polygon ID: 101)
G1 Z0.000 F3000 ; plunge to cut depth
G1 X119.0000 Y331.0000 F1500 ; start cut at first vertex
G1 X118.0000 Y332.0000 F1500
G1 X115.0000 Y332.0000 F1500
G1 X114.0000 Y331.0000 F1500
G1 X114.0000 Y328.0000 F1500
G1 X115.0000 Y327.0000 F1500
G1 X116.0000 Y327.0000 F1500
G1 X117.0000 Y328.0000 F1500
G1 X118.0000 Y328.0000 F1500
G1 X118.0000 Y329.0000 F1500
G1 X119.0000 Y330.0000 F1500
G0 Z100.000 F5000 ; retract after polygon
(--- polygon 101 end ---)
(--- polygon 102 start ---)
G0 Z100.000 F5000 ; lift before travel
G0 X122.0000 Y17.0000 F5000 ; travel to polygon start
(Polygon ID: 102)
G1 Z0.000 F3000 ; plunge to cut depth
G1 X122.0000 Y17.0000 F1500 ; start cut at first vertex
G1 X121.0000 Y17.0000 F1500
G0 Z100.000 F5000 ; retract after polygon
(--- polygon 102 end ---)
(--- polygon 103 start ---)
G0 Z100.000 F5000 ; lift before travel
G0 X124.0000 Y19.0000 F5000 ; travel to polygon start
(Polygon ID: 103)
G1 Z0.000 F3000 ; plunge to cut depth
G1 X124.0000 Y19.0000 F1500 ; start cut at first vertex
G1 X124.0000 Y20.0000 F1500
G1 X123.0000 Y21.0000 F1500
G1 X120.0000 Y21.0000 F1500
G1 X120.0000 Y19.0000 F1500
G0 Z100.000 F5000 ; retract after polygon
(--- polygon 103 end ---)
(--- polygon 104 start ---)
G0 Z100.000 F5000 ; lift before travel
G0 X124.0000 Y250.0000 F5000 ; travel to polygon start
(Polygon ID: 104)
G1 Z0.000 F3000 ; plunge to cut depth
G1 X124.0000 Y250.0000 F1500 ; start cut at first vertex
G1 X123.0000 Y250.0000 F1500
G1 X122.0000 Y251.0000 F1500
G1 X122.0000 Y253.0000 F1500
G1 X122.0000 Y250.0000 F1500
G0 Z100.000 F5000 ; retract after polygon
(--- polygon 104 end ---)
(--- polygon 105 start ---)
G0 Z100.000 F5000 ; lift before travel
G0 X125.0000 Y159.0000 F5000 ; travel to polygon start
(Polygon ID: 105)
G1 Z0.000 F3000 ; plunge to cut depth
G1 X125.0000 Y159.0000 F1500 ; start cut at first vertex
G1 X124.0000 Y158.0000 F1500
G1 X122.0000 Y158.0000 F1500
G1 X124.0000 Y158.0000 F1500
G0 Z100.000 F5000 ; retract after polygon
(--- polygon 105 end ---)
(--- polygon 106 start ---)
G0 Z100.000 F5000 ; lift before travel
G0 X125.0000 Y174.0000 F5000 ; travel to polygon start
(Polygon ID: 106)
G1 Z0.000 F3000 ; plunge to cut depth
G1 X125.0000 Y174.0000 F1500 ; start cut at first vertex
G0 Z100.000 F5000 ; retract after polygon
(--- polygon 106 end ---)
(--- polygon 107 start ---)
G0 Z100.000 F5000 ; lift before travel
G0 X125.0000 Y285.0000 F5000 ; travel to polygon start
(Polygon ID: 107)
G1 Z0.000 F3000 ; plunge to cut depth
G1 X125.0000 Y285.0000 F1500 ; start cut at first vertex
G1 X124.0000 Y286.0000 F1500
G1 X121.0000 Y286.0000 F1500
G1 X120.0000 Y287.0000 F1500
G1 X116.0000 Y287.0000 F1500
G1 X115.0000 Y286.0000 F1500
G1 X114.0000 Y286.0000 F1500
G1 X113.0000 Y285.0000 F1500
G1 X112.0000 Y285.0000 F1500
G1 X113.0000 Y285.0000 F1500
G1 X114.0000 Y286.0000 F1500
G1 X116.0000 Y286.0000 F1500
G1 X117.0000 Y287.0000 F1500
G1 X120.0000 Y287.0000 F1500
G1 X121.0000 Y286.0000 F1500
G1 X120.0000 Y285.0000 F1500
G1 X118.0000 Y285.0000 F1500
G1 X117.0000 Y284.0000 F1500
G1 X116.0000 Y284.0000 F1500
G1 X115.0000 Y283.0000 F1500
G1 X113.0000 Y283.0000 F1500
G1 X112.0000 Y282.0000 F1500
G1 X111.0000 Y282.0000 F1500
G1 X110.0000 Y281.0000 F1500
G1 X109.0000 Y281.0000 F1500
G1 X107.0000 Y279.0000 F1500
G1 X106.0000 Y279.0000 F1500
G1 X102.0000 Y275.0000 F1500
G1 X102.0000 Y274.0000 F1500
G1 X101.0000 Y273.0000 F1500
G1 X101.0000 Y272.0000 F1500
G1 X100.0000 Y271.0000 F1500
G1 X100.0000 Y266.0000 F1500
G1 X100.0000 Y271.0000 F1500
G1 X101.0000 Y272.0000 F1500
G1 X101.0000 Y273.0000 F1500
G1 X107.0000 Y279.0000 F1500
G1 X108.0000 Y279.0000 F1500
G1 X110.0000 Y281.0000 F1500
G1 X111.0000 Y281.0000 F1500
G1 X113.0000 Y283.0000 F1500
G1 X115.0000 Y283.0000 F1500
G1 X116.0000 Y284.0000 F1500
G1 X117.0000 Y284.0000 F1500
G1 X118.0000 Y283.0000 F1500
G1 X119.0000 Y283.0000 F1500
G1 X120.0000 Y282.0000 F1500
G1 X118.0000 Y280.0000 F1500
G1 X118.0000 Y279.0000 F1500
G1 X116.0000 Y277.0000 F1500
G1 X116.0000 Y276.0000 F1500
G1 X115.0000 Y275.0000 F1500
G1 X117.0000 Y277.0000 F1500
G1 X117.0000 Y278.0000 F1500
G1 X123.0000 Y284.0000 F1500
G1 X121.0000 Y282.0000 F1500
G1 X120.0000 Y283.0000 F1500
G1 X118.0000 Y283.0000 F1500
G1 X117.0000 Y284.0000 F1500
G1 X118.0000 Y285.0000 F1500
G1 X120.0000 Y285.0000 F1500
G1 X121.0000 Y286.0000 F1500
G1 X124.0000 Y286.0000 F1500
G0 Z100.000 F5000 ; retract after polygon
(--- polygon 107 end ---)
(--- polygon 108 start ---)
G0 Z100.000 F5000 ; lift before travel
G0 X127.0000 Y155.0000 F5000 ; travel to polygon start
(Polygon ID: 108)
G1 Z0.000 F3000 ; plunge to cut depth
G1 X127.0000 Y155.0000 F1500 ; start cut at first vertex
G0 Z100.000 F5000 ; retract after polygon
(--- polygon 108 end ---)
(--- polygon 109 start ---)
G0 Z100.000 F5000 ; lift before travel
G0 X131.0000 Y152.0000 F5000 ; travel to polygon start
(Polygon ID: 109)
G1 Z0.000 F3000 ; plunge to cut depth
G1 X131.0000 Y152.0000 F1500 ; start cut at first vertex
G1 X130.0000 Y153.0000 F1500
G0 Z100.000 F5000 ; retract after polygon
(--- polygon 109 end ---)
(--- polygon 110 start ---)
G0 Z100.000 F5000 ; lift before travel
G0 X131.0000 Y155.0000 F5000 ; travel to polygon start
(Polygon ID: 110)
G1 Z0.000 F3000 ; plunge to cut depth
G1 X131.0000 Y155.0000 F1500 ; start cut at first vertex
G1 X129.0000 Y157.0000 F1500
G1 X126.0000 Y157.0000 F1500
G1 X128.0000 Y157.0000 F1500
G1 X130.0000 Y155.0000 F1500
G0 Z100.000 F5000 ; retract after polygon
(--- polygon 110 end ---)
(--- polygon 111 start ---)
G0 Z100.000 F5000 ; lift before travel
G0 X134.0000 Y47.0000 F5000 ; travel to polygon start
(Polygon ID: 111)
G1 Z0.000 F3000 ; plunge to cut depth
G1 X134.0000 Y47.0000 F1500 ; start cut at first vertex
G1 X134.0000 Y48.0000 F1500
G1 X133.0000 Y49.0000 F1500
G1 X132.0000 Y49.0000 F1500
G1 X132.0000 Y47.0000 F1500
G0 Z100.000 F5000 ; retract after polygon
(--- polygon 111 end ---)
(--- polygon 112 start ---)
G0 Z100.000 F5000 ; lift before travel
G0 X134.0000 Y314.0000 F5000 ; travel to polygon start
(Polygon ID: 112)
G1 Z0.000 F3000 ; plunge to cut depth
G1 X134.0000 Y314.0000 F1500 ; start cut at first vertex
G1 X133.0000 Y314.0000 F1500
G1 X132.0000 Y313.0000 F1500
G1 X132.0000 Y312.0000 F1500
G1 X134.0000 Y312.0000 F1500
G0 Z100.000 F5000 ; retract after polygon
(--- polygon 112 end ---)
(--- polygon 113 start ---)
G0 Z100.000 F5000 ; lift before travel
G0 X139.0000 Y73.0000 F5000 ; travel to polygon start
(Polygon ID: 113)
G1 Z0.000 F3000 ; plunge to cut depth
G1 X139.0000 Y73.0000 F1500 ; start cut at first vertex
G1 X139.0000 Y72.0000 F1500
G0 Z100.000 F5000 ; retract after polygon
(--- polygon 113 end ---)
(--- polygon 114 start ---)
G0 Z100.000 F5000 ; lift before travel
G0 X140.0000 Y163.0000 F5000 ; travel to polygon start
(Polygon ID: 114)
G1 Z0.000 F3000 ; plunge to cut depth
G1 X140.0000 Y163.0000 F1500 ; start cut at first vertex
G1 X136.0000 Y163.0000 F1500
G1 X136.0000 Y162.0000 F1500
G1 X135.0000 Y161.0000 F1500
G1 X137.0000 Y163.0000 F1500
G0 Z100.000 F5000 ; retract after polygon
(--- polygon 114 end ---)
(--- polygon 115 start ---)
G0 Z100.000 F5000 ; lift before travel
G0 X141.0000 Y102.0000 F5000 ; travel to polygon start
(Polygon ID: 115)
G1 Z0.000 F3000 ; plunge to cut depth
G1 X141.0000 Y102.0000 F1500 ; start cut at first vertex
G0 Z100.000 F5000 ; retract after polygon
(--- polygon 115 end ---)
(--- polygon 116 start ---)
G0 Z100.000 F5000 ; lift before travel
G0 X139.0000 Y212.0000 F5000 ; travel to polygon start
(Polygon ID: 116)
G1 Z0.000 F3000 ; plunge to cut depth
G1 X139.0000 Y212.0000 F1500 ; start cut at first vertex
G1 X139.0000 Y211.0000 F1500
G1 X140.0000 Y210.0000 F1500
G1 X141.0000 Y211.0000 F1500
G1 X141.0000 Y212.0000 F1500
G1 X141.0000 Y211.0000 F1500
G1 X140.0000 Y210.0000 F1500
G1 X139.0000 Y211.0000 F1500
G0 Z100.000 F5000 ; retract after polygon
(--- polygon 116 end ---)
(--- polygon 117 start ---)
G0 Z100.000 F5000 ; lift before travel
G0 X142.0000 Y269.0000 F5000 ; travel to polygon start
(Polygon ID: 117)
G1 Z0.000 F3000 ; plunge to cut depth
G1 X142.0000 Y269.0000 F1500 ; start cut at first vertex
G1 X140.0000 Y269.0000 F1500
G1 X139.0000 Y270.0000 F1500
G1 X136.0000 Y270.0000 F1500
G1 X135.0000 Y269.0000 F1500
G1 X134.0000 Y269.0000 F1500
G1 X126.0000 Y261.0000 F1500
G1 X125.0000 Y262.0000 F1500
G1 X126.0000 Y261.0000 F1500
G1 X125.0000 Y260.0000 F1500
G1 X125.0000 Y259.0000 F1500
G1 X135.0000 Y269.0000 F1500
G1 X136.0000 Y269.0000 F1500
G1 X137.0000 Y270.0000 F1500
G1 X138.0000 Y270.0000 F1500
G1 X139.0000 Y269.0000 F1500
G1 X141.0000 Y269.0000 F1500
G1 X142.0000 Y268.0000 F1500
G0 Z100.000 F5000 ; retract after polygon
(--- polygon 117 end ---)
(--- polygon 118 start ---)
G0 Z100.000 F5000 ; lift before travel
G0 X142.0000 Y322.0000 F5000 ; travel to polygon start
(Polygon ID: 118)
G1 Z0.000 F3000 ; plunge to cut depth
G1 X142.0000 Y322.0000 F1500 ; start cut at first vertex
G0 Z100.000 F5000 ; retract after polygon
(--- polygon 118 end ---)
(--- polygon 119 start ---)
G0 Z100.000 F5000 ; lift before travel
G0 X143.0000 Y145.0000 F5000 ; travel to polygon start
(Polygon ID: 119)
G1 Z0.000 F3000 ; plunge to cut depth
G1 X143.0000 Y145.0000 F1500 ; start cut at first vertex
G1 X143.0000 Y146.0000 F1500
G1 X142.0000 Y146.0000 F1500
G1 X139.0000 Y149.0000 F1500
G1 X138.0000 Y148.0000 F1500
G1 X135.0000 Y151.0000 F1500
G1 X134.0000 Y151.0000 F1500
G1 X133.0000 Y152.0000 F1500
G1 X135.0000 Y150.0000 F1500
G1 X135.0000 Y149.0000 F1500
G1 X136.0000 Y148.0000 F1500
G1 X138.0000 Y148.0000 F1500
G1 X139.0000 Y149.0000 F1500
G0 Z100.000 F5000 ; retract after polygon
(--- polygon 119 end ---)
(--- polygon 120 start ---)
G0 Z100.000 F5000 ; lift before travel
G0 X143.0000 Y324.0000 F5000 ; travel to polygon start
(Polygon ID: 120)
G1 Z0.000 F3000 ; plunge to cut depth
G1 X143.0000 Y324.0000 F1500 ; start cut at first vertex
G1 X142.0000 Y324.0000 F1500
G0 Z100.000 F5000 ; retract after polygon
(--- polygon 120 end ---)
(--- polygon 121 start ---)
G0 Z100.000 F5000 ; lift before travel
G0 X145.0000 Y120.0000 F5000 ; travel to polygon start
(Polygon ID: 121)
G1 Z0.000 F3000 ; plunge to cut depth
G1 X145.0000 Y120.0000 F1500 ; start cut at first vertex
G0 Z100.000 F5000 ; retract after polygon
(--- polygon 121 end ---)
(--- polygon 122 start ---)
G0 Z100.000 F5000 ; lift before travel
G0 X145.0000 Y149.0000 F5000 ; travel to polygon start
(Polygon ID: 122)
G1 Z0.000 F3000 ; plunge to cut depth
G1 X145.0000 Y149.0000 F1500 ; start cut at first vertex
G1 X145.0000 Y150.0000 F1500
G1 X142.0000 Y153.0000 F1500
G1 X141.0000 Y153.0000 F1500
G1 X135.0000 Y159.0000 F1500
G1 X134.0000 Y159.0000 F1500
G1 X132.0000 Y161.0000 F1500
G1 X130.0000 Y161.0000 F1500
G1 X131.0000 Y161.0000 F1500
G1 X132.0000 Y160.0000 F1500
G1 X131.0000 Y159.0000 F1500
G1 X129.0000 Y159.0000 F1500
G1 X128.0000 Y160.0000 F1500
G1 X129.0000 Y159.0000 F1500
G1 X131.0000 Y159.0000 F1500
G1 X132.0000 Y160.0000 F1500
G1 X133.0000 Y159.0000 F1500
G1 X134.0000 Y159.0000 F1500
G1 X137.0000 Y156.0000 F1500
G1 X138.0000 Y156.0000 F1500
G1 X144.0000 Y150.0000 F1500
G1 X144.0000 Y149.0000 F1500
G1 X143.0000 Y148.0000 F1500
G1 X137.0000 Y154.0000 F1500
G1 X143.0000 Y148.0000 F1500
G1 X144.0000 Y149.0000 F1500
G0 Z100.000 F5000 ; retract after polygon
(--- polygon 122 end ---)
(--- polygon 123 start ---)
G0 Z100.000 F5000 ; lift before travel
G0 X145.0000 Y283.0000 F5000 ; travel to polygon start
(Polygon ID: 123)
G1 Z0.000 F3000 ; plunge to cut depth
G1 X145.0000 Y283.0000 F1500 ; start cut at first vertex
G1 X145.0000 Y281.0000 F1500
G0 Z100.000 F5000 ; retract after polygon
(--- polygon 123 end ---)
(--- polygon 124 start ---)
G0 Z100.000 F5000 ; lift before travel
G0 X143.0000 Y75.0000 F5000 ; travel to polygon start
(Polygon ID: 124)
G1 Z0.000 F3000 ; plunge to cut depth
G1 X143.0000 Y75.0000 F1500 ; start cut at first vertex
G1 X142.0000 Y75.0000 F1500
G1 X141.0000 Y76.0000 F1500
G1 X135.0000 Y76.0000 F1500
G1 X133.0000 Y74.0000 F1500
G1 X132.0000 Y74.0000 F1500
G1 X134.0000 Y74.0000 F1500
G1 X135.0000 Y73.0000 F1500
G1 X135.0000 Y72.0000 F1500
G1 X136.0000 Y71.0000 F1500
G1 X136.0000 Y70.0000 F1500
G1 X137.0000 Y69.0000 F1500
G1 X137.0000 Y68.0000 F1500
G1 X137.0000 Y69.0000 F1500
G1 X136.0000 Y70.0000 F1500
G1 X136.0000 Y71.0000 F1500
G1 X135.0000 Y72.0000 F1500
G1 X135.0000 Y73.0000 F1500
G1 X134.0000 Y74.0000 F1500
G1 X136.0000 Y76.0000 F1500
G1 X141.0000 Y76.0000 F1500
G1 X145.0000 Y72.0000 F1500
G1 X144.0000 Y71.0000 F1500
G1 X143.0000 Y71.0000 F1500
G1 X143.0000 Y70.0000 F1500
G1 X142.0000 Y69.0000 F1500
G1 X141.0000 Y70.0000 F1500
G1 X141.0000 Y71.0000 F1500
G1 X141.0000 Y69.0000 F1500
G1 X142.0000 Y68.0000 F1500
G1 X143.0000 Y68.0000 F1500
G1 X144.0000 Y67.0000 F1500
G1 X142.0000 Y65.0000 F1500
G1 X142.0000 Y64.0000 F1500
G1 X141.0000 Y63.0000 F1500
G1 X140.0000 Y64.0000 F1500
G1 X140.0000 Y65.0000 F1500
G1 X139.0000 Y66.0000 F1500
G1 X139.0000 Y65.0000 F1500
G1 X141.0000 Y63.0000 F1500
G1 X140.0000 Y62.0000 F1500
G1 X137.0000 Y62.0000 F1500
G1 X137.0000 Y60.0000 F1500
G1 X135.0000 Y58.0000 F1500
G1 X134.0000 Y58.0000 F1500
G1 X132.0000 Y60.0000 F1500
G1 X132.0000 Y59.0000 F1500
G1 X133.0000 Y59.0000 F1500
G1 X134.0000 Y58.0000 F1500
G1 X141.0000 Y58.0000 F1500
G1 X142.0000 Y59.0000 F1500
G1 X143.0000 Y59.0000 F1500
G1 X146.0000 Y62.0000 F1500
G1 X146.0000 Y63.0000 F1500
G1 X147.0000 Y64.0000 F1500
G1 X147.0000 Y69.0000 F1500
G1 X146.0000 Y70.0000 F1500
G1 X146.0000 Y72.0000 F1500
G0 Z100.000 F5000 ; retract after polygon
(--- polygon 124 end ---)
(--- polygon 125 start ---)
G0 Z100.000 F5000 ; lift before travel
G0 X147.0000 Y123.0000 F5000 ; travel to polygon start
(Polygon ID: 125)
G1 Z0.000 F3000 ; plunge to cut depth
G1 X147.0000 Y123.0000 F1500 ; start cut at first vertex
G0 Z100.000 F5000 ; retract after polygon
(--- polygon 125 end ---)
(--- polygon 126 start ---)
G0 Z100.000 F5000 ; lift before travel
G0 X147.0000 Y126.0000 F5000 ; travel to polygon start
(Polygon ID: 126)
G1 Z0.000 F3000 ; plunge to cut depth
G1 X147.0000 Y126.0000 F1500 ; start cut at first vertex
G1 X145.0000 Y124.0000 F1500
G1 X145.0000 Y123.0000 F1500
G1 X144.0000 Y122.0000 F1500
G1 X145.0000 Y123.0000 F1500
G1 X145.0000 Y124.0000 F1500
G0 Z100.000 F5000 ; retract after polygon
(--- polygon 126 end ---)
(--- polygon 127 start ---)
G0 Z100.000 F5000 ; lift before travel
G0 X147.0000 Y144.0000 F5000 ; travel to polygon start
(Polygon ID: 127)
G1 Z0.000 F3000 ; plunge to cut depth
G1 X147.0000 Y144.0000 F1500 ; start cut at first vertex
G0 Z100.000 F5000 ; retract after polygon
(--- polygon 127 end ---)
(--- polygon 128 start ---)
G0 Z100.000 F5000 ; lift before travel
G0 X147.0000 Y270.0000 F5000 ; travel to polygon start
(Polygon ID: 128)
G1 Z0.000 F3000 ; plunge to cut depth
G1 X147.0000 Y270.0000 F1500 ; start cut at first vertex
G1 X146.0000 Y271.0000 F1500
G1 X145.0000 Y271.0000 F1500
G1 X143.0000 Y273.0000 F1500
G1 X142.0000 Y273.0000 F1500
G1 X141.0000 Y274.0000 F1500
G1 X140.0000 Y274.0000 F1500
G1 X139.0000 Y275.0000 F1500
G1 X137.0000 Y275.0000 F1500
G1 X134.0000 Y272.0000 F1500
G1 X133.0000 Y272.0000 F1500
G1 X128.0000 Y267.0000 F1500
G1 X128.0000 Y266.0000 F1500
G1 X127.0000 Y265.0000 F1500
G1 X134.0000 Y272.0000 F1500
G1 X135.0000 Y272.0000 F1500
G1 X138.0000 Y275.0000 F1500
G1 X139.0000 Y274.0000 F1500
G1 X140.0000 Y274.0000 F1500
G1 X141.0000 Y273.0000 F1500
G1 X142.0000 Y273.0000 F1500
G1 X144.0000 Y271.0000 F1500
G1 X145.0000 Y271.0000 F1500
G1 X147.0000 Y269.0000 F1500
G1 X146.0000 Y268.0000 F1500
G1 X147.0000 Y268.0000 F1500
G0 Z100.000 F5000 ; retract after polygon
(--- polygon 128 end ---)
(--- polygon 129 start ---)
G0 Z100.000 F5000 ; lift before travel
G0 X149.0000 Y141.0000 F5000 ; travel to polygon start
(Polygon ID: 129)
G1 Z0.000 F3000 ; plunge to cut depth
G1 X149.0000 Y141.0000 F1500 ; start cut at first vertex
G0 Z100.000 F5000 ; retract after polygon
(--- polygon 129 end ---)
(--- polygon 130 start ---)
G0 Z100.000 F5000 ; lift before travel
G0 X149.0000 Y207.0000 F5000 ; travel to polygon start
(Polygon ID: 130)
G1 Z0.000 F3000 ; plunge to cut depth
G1 X149.0000 Y207.0000 F1500 ; start cut at first vertex
G1 X148.0000 Y207.0000 F1500
G0 Z100.000 F5000 ; retract after polygon
(--- polygon 130 end ---)
(--- polygon 131 start ---)
G0 Z100.000 F5000 ; lift before travel
G0 X150.0000 Y145.0000 F5000 ; travel to polygon start
(Polygon ID: 131)
G1 Z0.000 F3000 ; plunge to cut depth
G1 X150.0000 Y145.0000 F1500 ; start cut at first vertex
G1 X149.0000 Y145.0000 F1500
G1 X147.0000 Y147.0000 F1500
G1 X147.0000 Y148.0000 F1500
G1 X147.0000 Y147.0000 F1500
G1 X149.0000 Y145.0000 F1500
G0 Z100.000 F5000 ; retract after polygon
(--- polygon 131 end ---)
(--- polygon 132 start ---)
G0 Z100.000 F5000 ; lift before travel
G0 X153.0000 Y206.0000 F5000 ; travel to polygon start
(Polygon ID: 132)
G1 Z0.000 F3000 ; plunge to cut depth
G1 X153.0000 Y206.0000 F1500 ; start cut at first vertex
G1 X151.0000 Y206.0000 F1500
G0 Z100.000 F5000 ; retract after polygon
(--- polygon 132 end ---)
(--- polygon 133 start ---)
G0 Z100.000 F5000 ; lift before travel
G0 X153.0000 Y269.0000 F5000 ; travel to polygon start
(Polygon ID: 133)
G1 Z0.000 F3000 ; plunge to cut depth
G1 X153.0000 Y269.0000 F1500 ; start cut at first vertex
G0 Z100.000 F5000 ; retract after polygon
(--- polygon 133 end ---)
(--- polygon 134 start ---)
G0 Z100.000 F5000 ; lift before travel
G0 X155.0000 Y243.0000 F5000 ; travel to polygon start
(Polygon ID: 134)
G1 Z0.000 F3000 ; plunge to cut depth
G1 X155.0000 Y243.0000 F1500 ; start cut at first vertex
G1 X154.0000 Y242.0000 F1500
G0 Z100.000 F5000 ; retract after polygon
(--- polygon 134 end ---)
(--- polygon 135 start ---)
G0 Z100.000 F5000 ; lift before travel
G0 X156.0000 Y60.0000 F5000 ; travel to polygon start
(Polygon ID: 135)
G1 Z0.000 F3000 ; plunge to cut depth
G1 X156.0000 Y60.0000 F1500 ; start cut at first vertex
G1 X154.0000 Y60.0000 F1500
G1 X154.0000 Y58.0000 F1500
G1 X156.0000 Y58.0000 F1500
G0 Z100.000 F5000 ; retract after polygon
(--- polygon 135 end ---)
(--- polygon 136 start ---)
G0 Z100.000 F5000 ; lift before travel
G0 X157.0000 Y205.0000 F5000 ; travel to polygon start
(Polygon ID: 136)
G1 Z0.000 F3000 ; plunge to cut depth
G1 X157.0000 Y205.0000 F1500 ; start cut at first vertex
G1 X156.0000 Y205.0000 F1500
G0 Z100.000 F5000 ; retract after polygon
(--- polygon 136 end ---)
(--- polygon 137 start ---)
G0 Z100.000 F5000 ; lift before travel
G0 X158.0000 Y230.0000 F5000 ; travel to polygon start
(Polygon ID: 137)
G1 Z0.000 F3000 ; plunge to cut depth
G1 X158.0000 Y230.0000 F1500 ; start cut at first vertex
G0 Z100.000 F5000 ; retract after polygon
(--- polygon 137 end ---)
(--- polygon 138 start ---)
G0 Z100.000 F5000 ; lift before travel
G0 X160.0000 Y136.0000 F5000 ; travel to polygon start
(Polygon ID: 138)
G1 Z0.000 F3000 ; plunge to cut depth
G1 X160.0000 Y136.0000 F1500 ; start cut at first vertex
G0 Z100.000 F5000 ; retract after polygon
(--- polygon 138 end ---)
(--- polygon 139 start ---)
G0 Z100.000 F5000 ; lift before travel
G0 X161.0000 Y318.0000 F5000 ; travel to polygon start
(Polygon ID: 139)
G1 Z0.000 F3000 ; plunge to cut depth
G1 X161.0000 Y318.0000 F1500 ; start cut at first vertex
G1 X160.0000 Y317.0000 F1500
G1 X159.0000 Y318.0000 F1500
G1 X159.0000 Y317.0000 F1500
G1 X161.0000 Y317.0000 F1500
G0 Z100.000 F5000 ; retract after polygon
(--- polygon 139 end ---)
(--- polygon 140 start ---)
G0 Z100.000 F5000 ; lift before travel
G0 X163.0000 Y137.0000 F5000 ; travel to polygon start
(Polygon ID: 140)
G1 Z0.000 F3000 ; plunge to cut depth
G1 X163.0000 Y137.0000 F1500 ; start cut at first vertex
G1 X162.0000 Y137.0000 F1500
G0 Z100.000 F5000 ; retract after polygon
(--- polygon 140 end ---)
(--- polygon 141 start ---)
G0 Z100.000 F5000 ; lift before travel
G0 X163.0000 Y142.0000 F5000 ; travel to polygon start
(Polygon ID: 141)
G1 Z0.000 F3000 ; plunge to cut depth
G1 X163.0000 Y142.0000 F1500 ; start cut at first vertex
G1 X162.0000 Y142.0000 F1500
G0 Z100.000 F5000 ; retract after polygon
(--- polygon 141 end ---)
(--- polygon 142 start ---)
G0 Z100.000 F5000 ; lift before travel
G0 X164.0000 Y246.0000 F5000 ; travel to polygon start
(Polygon ID: 142)
G1 Z0.000 F3000 ; plunge to cut depth
G1 X164.0000 Y246.0000 F1500 ; start cut at first vertex
G1 X163.0000 Y246.0000 F1500
G1 X163.0000 Y245.0000 F1500
G1 X161.0000 Y243.0000 F1500
G1 X161.0000 Y242.0000 F1500
G1 X160.0000 Y241.0000 F1500
G1 X159.0000 Y242.0000 F1500
G1 X160.0000 Y241.0000 F1500
G1 X160.0000 Y240.0000 F1500
G1 X158.0000 Y238.0000 F1500
G1 X158.0000 Y237.0000 F1500
G1 X156.0000 Y235.0000 F1500
G1 X156.0000 Y234.0000 F1500
G1 X155.0000 Y233.0000 F1500
G1 X155.0000 Y227.0000 F1500
G1 X154.0000 Y226.0000 F1500
G1 X153.0000 Y227.0000 F1500
G1 X153.0000 Y229.0000 F1500
G1 X147.0000 Y229.0000 F1500
G1 X146.0000 Y228.0000 F1500
G1 X145.0000 Y228.0000 F1500
G1 X143.0000 Y226.0000 F1500
G1 X143.0000 Y224.0000 F1500
G1 X142.0000 Y223.0000 F1500
G1 X142.0000 Y222.0000 F1500
G1 X141.0000 Y221.0000 F1500
G1 X142.0000 Y221.0000 F1500
G1 X142.0000 Y222.0000 F1500
G1 X143.0000 Y223.0000 F1500
G1 X143.0000 Y225.0000 F1500
G1 X147.0000 Y229.0000 F1500
G1 X152.0000 Y229.0000 F1500
G1 X153.0000 Y228.0000 F1500
G1 X153.0000 Y227.0000 F1500
G1 X152.0000 Y226.0000 F1500
G1 X152.0000 Y225.0000 F1500
G1 X151.0000 Y224.0000 F1500
G1 X151.0000 Y223.0000 F1500
G1 X150.0000 Y222.0000 F1500
G1 X150.0000 Y221.0000 F1500
G1 X149.0000 Y220.0000 F1500
G1 X149.0000 Y219.0000 F1500
G1 X148.0000 Y218.0000 F1500
G1 X148.0000 Y217.0000 F1500
G1 X149.0000 Y216.0000 F1500
G1 X149.0000 Y215.0000 F1500
G1 X148.0000 Y214.0000 F1500
G1 X147.0000 Y215.0000 F1500
G1 X148.0000 Y214.0000 F1500
G1 X148.0000 Y213.0000 F1500
G1 X147.0000 Y212.0000 F1500
G1 X146.0000 Y213.0000 F1500
G1 X147.0000 Y212.0000 F1500
G1 X147.0000 Y211.0000 F1500
G1 X146.0000 Y210.0000 F1500
G1 X145.0000 Y211.0000 F1500
G1 X146.0000 Y210.0000 F1500
G1 X146.0000 Y209.0000 F1500
G1 X145.0000 Y208.0000 F1500
G1 X139.0000 Y208.0000 F1500
G1 X145.0000 Y208.0000 F1500
G1 X146.0000 Y209.0000 F1500
G1 X146.0000 Y210.0000 F1500
G1 X147.0000 Y211.0000 F1500
G1 X148.0000 Y210.0000 F1500
G1 X148.0000 Y209.0000 F1500
G1 X148.0000 Y210.0000 F1500
G1 X149.0000 Y211.0000 F1500
G1 X149.0000 Y212.0000 F1500
G1 X148.0000 Y213.0000 F1500
G1 X149.0000 Y214.0000 F1500
G1 X149.0000 Y215.0000 F1500
G1 X150.0000 Y216.0000 F1500
G1 X150.0000 Y217.0000 F1500
G1 X151.0000 Y218.0000 F1500
G1 X151.0000 Y219.0000 F1500
G1 X152.0000 Y220.0000 F1500
G1 X152.0000 Y222.0000 F1500
G1 X153.0000 Y223.0000 F1500
G1 X153.0000 Y224.0000 F1500
G1 X154.0000 Y225.0000 F1500
G1 X154.0000 Y226.0000 F1500
G1 X155.0000 Y227.0000 F1500
G1 X155.0000 Y233.0000 F1500
G1 X156.0000 Y234.0000 F1500
G1 X157.0000 Y233.0000 F1500
G1 X157.0000 Y232.0000 F1500
G1 X157.0000 Y233.0000 F1500
G1 X156.0000 Y234.0000 F1500
G1 X157.0000 Y235.0000 F1500
G1 X157.0000 Y236.0000 F1500
G1 X159.0000 Y238.0000 F1500
G1 X159.0000 Y239.0000 F1500
G1 X161.0000 Y241.0000 F1500
G1 X161.0000 Y242.0000 F1500
G1 X163.0000 Y244.0000 F1500
G1 X164.0000 Y243.0000 F1500
G1 X163.0000 Y244.0000 F1500
G1 X163.0000 Y245.0000 F1500
G0 Z100.000 F5000 ; retract after polygon
(--- polygon 142 end ---)
(--- polygon 143 start ---)
G0 Z100.000 F5000 ; lift before travel
G0 X164.0000 Y288.0000 F5000 ; travel to polygon start
(Polygon ID: 143)
G1 Z0.000 F3000 ; plunge to cut depth
G1 X164.0000 Y288.0000 F1500 ; start cut at first vertex
G1 X162.0000 Y288.0000 F1500
G1 X162.0000 Y286.0000 F1500
G1 X164.0000 Y286.0000 F1500
G0 Z100.000 F5000 ; retract after polygon
(--- polygon 143 end ---)
(--- polygon 144 start ---)
G0 Z100.000 F5000 ; lift before travel
G0 X165.0000 Y191.0000 F5000 ; travel to polygon start
(Polygon ID: 144)
G1 Z0.000 F3000 ; plunge to cut depth
G1 X165.0000 Y191.0000 F1500 ; start cut at first vertex
G0 Z100.000 F5000 ; retract after polygon
(--- polygon 144 end ---)
(--- polygon 145 start ---)
G0 Z100.000 F5000 ; lift before travel
G0 X167.0000 Y183.0000 F5000 ; travel to polygon start
(Polygon ID: 145)
G1 Z0.000 F3000 ; plunge to cut depth
G1 X167.0000 Y183.0000 F1500 ; start cut at first vertex
G1 X167.0000 Y180.0000 F1500
G0 Z100.000 F5000 ; retract after polygon
(--- polygon 145 end ---)
(--- polygon 146 start ---)
G0 Z100.000 F5000 ; lift before travel
G0 X167.0000 Y189.0000 F5000 ; travel to polygon start
(Polygon ID: 146)
G1 Z0.000 F3000 ; plunge to cut depth
G1 X167.0000 Y189.0000 F1500 ; start cut at first vertex
G1 X165.0000 Y189.0000 F1500
G1 X165.0000 Y187.0000 F1500
G1 X167.0000 Y187.0000 F1500
G0 Z100.000 F5000 ; retract after polygon
(--- polygon 146 end ---)
(--- polygon 147 start ---)
G0 Z100.000 F5000 ; lift before travel
G0 X168.0000 Y178.0000 F5000 ; travel to polygon start
(Polygon ID: 147)
G1 Z0.000 F3000 ; plunge to cut depth
G1 X168.0000 Y178.0000 F1500 ; start cut at first vertex
G1 X167.0000 Y177.0000 F1500
G0 Z100.000 F5000 ; retract after polygon
(--- polygon 147 end ---)
(--- polygon 148 start ---)
G0 Z100.000 F5000 ; lift before travel
G0 X168.0000 Y202.0000 F5000 ; travel to polygon start
(Polygon ID: 148)
G1 Z0.000 F3000 ; plunge to cut depth
G1 X168.0000 Y202.0000 F1500 ; start cut at first vertex
G1 X167.0000 Y202.0000 F1500
G0 Z100.000 F5000 ; retract after polygon
(--- polygon 148 end ---)
(--- polygon 149 start ---)
G0 Z100.000 F5000 ; lift before travel
G0 X170.0000 Y302.0000 F5000 ; travel to polygon start
(Polygon ID: 149)
G1 Z0.000 F3000 ; plunge to cut depth
G1 X170.0000 Y302.0000 F1500 ; start cut at first vertex
G1 X169.0000 Y303.0000 F1500
G1 X169.0000 Y304.0000 F1500
G1 X169.0000 Y302.0000 F1500
G0 Z100.000 F5000 ; retract after polygon
(--- polygon 149 end ---)
(--- polygon 150 start ---)
G0 Z100.000 F5000 ; lift before travel
G0 X172.0000 Y203.0000 F5000 ; travel to polygon start
(Polygon ID: 150)
G1 Z0.000 F3000 ; plunge to cut depth
G1 X172.0000 Y203.0000 F1500 ; start cut at first vertex
G0 Z100.000 F5000 ; retract after polygon
(--- polygon 150 end ---)
(--- polygon 151 start ---)
G0 Z100.000 F5000 ; lift before travel
G0 X173.0000 Y179.0000 F5000 ; travel to polygon start
(Polygon ID: 151)
G1 Z0.000 F3000 ; plunge to cut depth
G1 X173.0000 Y179.0000 F1500 ; start cut at first vertex
G0 Z100.000 F5000 ; retract after polygon
(--- polygon 151 end ---)
(--- polygon 152 start ---)
G0 Z100.000 F5000 ; lift before travel
G0 X176.0000 Y95.0000 F5000 ; travel to polygon start
(Polygon ID: 152)
G1 Z0.000 F3000 ; plunge to cut depth
G1 X176.0000 Y95.0000 F1500 ; start cut at first vertex
G1 X175.0000 Y96.0000 F1500
G0 Z100.000 F5000 ; retract after polygon
(--- polygon 152 end ---)
(--- polygon 153 start ---)
G0 Z100.000 F5000 ; lift before travel
G0 X176.0000 Y180.0000 F5000 ; travel to polygon start
(Polygon ID: 153)
G1 Z0.000 F3000 ; plunge to cut depth
G1 X176.0000 Y180.0000 F1500 ; start cut at first vertex
G0 Z100.000 F5000 ; retract after polygon
(--- polygon 153 end ---)
(--- polygon 154 start ---)
G0 Z100.000 F5000 ; lift before travel
G0 X177.0000 Y93.0000 F5000 ; travel to polygon start
(Polygon ID: 154)
G1 Z0.000 F3000 ; plunge to cut depth
G1 X177.0000 Y93.0000 F1500 ; start cut at first vertex
G0 Z100.000 F5000 ; retract after polygon
(--- polygon 154 end ---)
(--- polygon 155 start ---)
G0 Z100.000 F5000 ; lift before travel
G0 X176.0000 Y211.0000 F5000 ; travel to polygon start
(Polygon ID: 155)
G1 Z0.000 F3000 ; plunge to cut depth
G1 X176.0000 Y211.0000 F1500 ; start cut at first vertex
G1 X175.0000 Y210.0000 F1500
G1 X175.0000 Y209.0000 F1500
G1 X176.0000 Y208.0000 F1500
G1 X176.0000 Y206.0000 F1500
G1 X175.0000 Y205.0000 F1500
G1 X174.0000 Y206.0000 F1500
G1 X174.0000 Y207.0000 F1500
G1 X174.0000 Y206.0000 F1500
G1 X173.0000 Y205.0000 F1500
G1 X174.0000 Y204.0000 F1500
G1 X174.0000 Y202.0000 F1500
G1 X173.0000 Y201.0000 F1500
G1 X173.0000 Y200.0000 F1500
G1 X173.0000 Y201.0000 F1500
G1 X174.0000 Y202.0000 F1500
G1 X175.0000 Y201.0000 F1500
G1 X175.0000 Y200.0000 F1500
G1 X175.0000 Y201.0000 F1500
G1 X174.0000 Y202.0000 F1500
G1 X174.0000 Y203.0000 F1500
G1 X175.0000 Y204.0000 F1500
G1 X175.0000 Y205.0000 F1500
G1 X176.0000 Y206.0000 F1500
G1 X176.0000 Y208.0000 F1500
G1 X177.0000 Y209.0000 F1500
G1 X176.0000 Y208.0000 F1500
G1 X175.0000 Y209.0000 F1500
G1 X175.0000 Y210.0000 F1500
G0 Z100.000 F5000 ; retract after polygon
(--- polygon 155 end ---)
(--- polygon 156 start ---)
G0 Z100.000 F5000 ; lift before travel
G0 X177.0000 Y213.0000 F5000 ; travel to polygon start
(Polygon ID: 156)
G1 Z0.000 F3000 ; plunge to cut depth
G1 X177.0000 Y213.0000 F1500 ; start cut at first vertex
G0 Z100.000 F5000 ; retract after polygon
(--- polygon 156 end ---)
(--- polygon 157 start ---)
G0 Z100.000 F5000 ; lift before travel
G0 X177.0000 Y294.0000 F5000 ; travel to polygon start
(Polygon ID: 157)
G1 Z0.000 F3000 ; plunge to cut depth
G1 X177.0000 Y294.0000 F1500 ; start cut at first vertex
G1 X175.0000 Y294.0000 F1500
G1 X175.0000 Y292.0000 F1500
G1 X176.0000 Y291.0000 F1500
G1 X177.0000 Y292.0000 F1500
G0 Z100.000 F5000 ; retract after polygon
(--- polygon 157 end ---)
(--- polygon 158 start ---)
G0 Z100.000 F5000 ; lift before travel
G0 X178.0000 Y108.0000 F5000 ; travel to polygon start
(Polygon ID: 158)
G1 Z0.000 F3000 ; plunge to cut depth
G1 X178.0000 Y108.0000 F1500 ; start cut at first vertex
G0 Z100.000 F5000 ; retract after polygon
(--- polygon 158 end ---)
(--- polygon 159 start ---)
G0 Z100.000 F5000 ; lift before travel
G0 X178.0000 Y211.0000 F5000 ; travel to polygon start
(Polygon ID: 159)
G1 Z0.000 F3000 ; plunge to cut depth
G1 X178.0000 Y211.0000 F1500 ; start cut at first vertex
G0 Z100.000 F5000 ; retract after polygon
(--- polygon 159 end ---)
(--- polygon 160 start ---)
G0 Z100.000 F5000 ; lift before travel
G0 X178.0000 Y215.0000 F5000 ; travel to polygon start
(Polygon ID: 160)
G1 Z0.000 F3000 ; plunge to cut depth
G1 X178.0000 Y215.0000 F1500 ; start cut at first vertex
G0 Z100.000 F5000 ; retract after polygon
(--- polygon 160 end ---)
(--- polygon 161 start ---)
G0 Z100.000 F5000 ; lift before travel
G0 X180.0000 Y95.0000 F5000 ; travel to polygon start
(Polygon ID: 161)
G1 Z0.000 F3000 ; plunge to cut depth
G1 X180.0000 Y95.0000 F1500 ; start cut at first vertex
G1 X180.0000 Y96.0000 F1500
G1 X179.0000 Y97.0000 F1500
G1 X179.0000 Y100.0000 F1500
G1 X179.0000 Y97.0000 F1500
G1 X180.0000 Y96.0000 F1500
G0 Z100.000 F5000 ; retract after polygon
(--- polygon 161 end ---)
(--- polygon 162 start ---)
G0 Z100.000 F5000 ; lift before travel
G0 X180.0000 Y112.0000 F5000 ; travel to polygon start
(Polygon ID: 162)
G1 Z0.000 F3000 ; plunge to cut depth
G1 X180.0000 Y112.0000 F1500 ; start cut at first vertex
G0 Z100.000 F5000 ; retract after polygon
(--- polygon 162 end ---)
(--- polygon 163 start ---)
G0 Z100.000 F5000 ; lift before travel
G0 X180.0000 Y138.0000 F5000 ; travel to polygon start
(Polygon ID: 163)
G1 Z0.000 F3000 ; plunge to cut depth
G1 X180.0000 Y138.0000 F1500 ; start cut at first vertex
G1 X180.0000 Y139.0000 F1500
G1 X179.0000 Y140.0000 F1500
G1 X179.0000 Y141.0000 F1500
G1 X177.0000 Y143.0000 F1500
G1 X176.0000 Y143.0000 F1500
G1 X174.0000 Y145.0000 F1500
G1 X174.0000 Y144.0000 F1500
G1 X175.0000 Y144.0000 F1500
G1 X180.0000 Y139.0000 F1500
G1 X179.0000 Y138.0000 F1500
G0 Z100.000 F5000 ; retract after polygon
(--- polygon 163 end ---)
(--- polygon 164 start ---)
G0 Z100.000 F5000 ; lift before travel
G0 X180.0000 Y188.0000 F5000 ; travel to polygon start
(Polygon ID: 164)
G1 Z0.000 F3000 ; plunge to cut depth
G1 X180.0000 Y188.0000 F1500 ; start cut at first vertex
G1 X180.0000 Y181.0000 F1500
G1 X179.0000 Y180.0000 F1500
G1 X179.0000 Y179.0000 F1500
G1 X179.0000 Y180.0000 F1500
G1 X180.0000 Y181.0000 F1500
G0 Z100.000 F5000 ; retract after polygon
(--- polygon 164 end ---)
(--- polygon 165 start ---)
G0 Z100.000 F5000 ; lift before travel
G0 X180.0000 Y190.0000 F5000 ; travel to polygon start
(Polygon ID: 165)
G1 Z0.000 F3000 ; plunge to cut depth
G1 X180.0000 Y190.0000 F1500 ; start cut at first vertex
G0 Z100.000 F5000 ; retract after polygon
(--- polygon 165 end ---)
(--- polygon 166 start ---)
G0 Z100.000 F5000 ; lift before travel
G0 X180.0000 Y218.0000 F5000 ; travel to polygon start
(Polygon ID: 166)
G1 Z0.000 F3000 ; plunge to cut depth
G1 X180.0000 Y218.0000 F1500 ; start cut at first vertex
G1 X179.0000 Y217.0000 F1500
G0 Z100.000 F5000 ; retract after polygon
(--- polygon 166 end ---)
(--- polygon 167 start ---)
G0 Z100.000 F5000 ; lift before travel
G0 X180.0000 Y244.0000 F5000 ; travel to polygon start
(Polygon ID: 167)
G1 Z0.000 F3000 ; plunge to cut depth
G1 X180.0000 Y244.0000 F1500 ; start cut at first vertex
G1 X176.0000 Y244.0000 F1500
G1 X175.0000 Y245.0000 F1500
G1 X170.0000 Y245.0000 F1500
G1 X169.0000 Y244.0000 F1500
G1 X168.0000 Y244.0000 F1500
G1 X166.0000 Y242.0000 F1500
G1 X166.0000 Y241.0000 F1500
G1 X165.0000 Y240.0000 F1500
G1 X164.0000 Y240.0000 F1500
G1 X163.0000 Y239.0000 F1500
G1 X163.0000 Y238.0000 F1500
G1 X161.0000 Y236.0000 F1500
G1 X161.0000 Y235.0000 F1500
G1 X159.0000 Y233.0000 F1500
G1 X159.0000 Y232.0000 F1500
G1 X161.0000 Y234.0000 F1500
G1 X161.0000 Y235.0000 F1500
G1 X163.0000 Y237.0000 F1500
G1 X163.0000 Y238.0000 F1500
G1 X170.0000 Y245.0000 F1500
G1 X175.0000 Y245.0000 F1500
G1 X176.0000 Y244.0000 F1500
G0 Z100.000 F5000 ; retract after polygon
(--- polygon 167 end ---)
(--- polygon 168 start ---)
G0 Z100.000 F5000 ; lift before travel
G0 X180.0000 Y308.0000 F5000 ; travel to polygon start
(Polygon ID: 168)
G1 Z0.000 F3000 ; plunge to cut depth
G1 X180.0000 Y308.0000 F1500 ; start cut at first vertex
G1 X176.0000 Y308.0000 F1500
G1 X175.0000 Y307.0000 F1500
G1 X175.0000 Y304.0000 F1500
G1 X176.0000 Y303.0000 F1500
G1 X179.0000 Y303.0000 F1500
G1 X180.0000 Y304.0000 F1500
G0 Z100.000 F5000 ; retract after polygon
(--- polygon 168 end ---)
(--- polygon 169 start ---)
G0 Z100.000 F5000 ; lift before travel
G0 X181.0000 Y216.0000 F5000 ; travel to polygon start
(Polygon ID: 169)
G1 Z0.000 F3000 ; plunge to cut depth
G1 X181.0000 Y216.0000 F1500 ; start cut at first vertex
G1 X180.0000 Y215.0000 F1500
G1 X180.0000 Y214.0000 F1500
G1 X179.0000 Y213.0000 F1500
G1 X180.0000 Y214.0000 F1500
G1 X180.0000 Y215.0000 F1500
G0 Z100.000 F5000 ; retract after polygon
(--- polygon 169 end ---)
(--- polygon 170 start ---)
G0 Z100.000 F5000 ; lift before travel
G0 X182.0000 Y138.0000 F5000 ; travel to polygon start
(Polygon ID: 170)
G1 Z0.000 F3000 ; plunge to cut depth
G1 X182.0000 Y138.0000 F1500 ; start cut at first vertex
G0 Z100.000 F5000 ; retract after polygon
(--- polygon 170 end ---)
(--- polygon 171 start ---)
G0 Z100.000 F5000 ; lift before travel
G0 X184.0000 Y86.0000 F5000 ; travel to polygon start
(Polygon ID: 171)
G1 Z0.000 F3000 ; plunge to cut depth
G1 X184.0000 Y86.0000 F1500 ; start cut at first vertex
G1 X183.0000 Y86.0000 F1500
G0 Z100.000 F5000 ; retract after polygon
(--- polygon 171 end ---)
(--- polygon 172 start ---)
G0 Z100.000 F5000 ; lift before travel
G0 X184.0000 Y138.0000 F5000 ; travel to polygon start
(Polygon ID: 172)
G1 Z0.000 F3000 ; plunge to cut depth
G1 X184.0000 Y138.0000 F1500 ; start cut at first vertex
G0 Z100.000 F5000 ; retract after polygon
(--- polygon 172 end ---)
(--- polygon 173 start ---)
G0 Z100.000 F5000 ; lift before travel
G0 X184.0000 Y224.0000 F5000 ; travel to polygon start
(Polygon ID: 173)
G1 Z0.000 F3000 ; plunge to cut depth
G1 X184.0000 Y224.0000 F1500 ; start cut at first vertex
G1 X183.0000 Y223.0000 F1500
G1 X183.0000 Y222.0000 F1500
G1 X181.0000 Y220.0000 F1500
G1 X184.0000 Y223.0000 F1500
G0 Z100.000 F5000 ; retract after polygon
(--- polygon 173 end ---)
(--- polygon 174 start ---)
G0 Z100.000 F5000 ; lift before travel
G0 X185.0000 Y92.0000 F5000 ; travel to polygon start
(Polygon ID: 174)
G1 Z0.000 F3000 ; plunge to cut depth
G1 X185.0000 Y92.0000 F1500 ; start cut at first vertex
G1 X183.0000 Y92.0000 F1500
G1 X182.0000 Y93.0000 F1500
G1 X183.0000 Y92.0000 F1500
G0 Z100.000 F5000 ; retract after polygon
(--- polygon 174 end ---)
(--- polygon 175 start ---)
G0 Z100.000 F5000 ; lift before travel
G0 X186.0000 Y94.0000 F5000 ; travel to polygon start
(Polygon ID: 175)
G1 Z0.000 F3000 ; plunge to cut depth
G1 X186.0000 Y94.0000 F1500 ; start cut at first vertex
G0 Z100.000 F5000 ; retract after polygon
(--- polygon 175 end ---)
(--- polygon 176 start ---)
G0 Z100.000 F5000 ; lift before travel
G0 X187.0000 Y127.0000 F5000 ; travel to polygon start
(Polygon ID: 176)
G1 Z0.000 F3000 ; plunge to cut depth
G1 X187.0000 Y127.0000 F1500 ; start cut at first vertex
G1 X187.0000 Y126.0000 F1500
G0 Z100.000 F5000 ; retract after polygon
(--- polygon 176 end ---)
(--- polygon 177 start ---)
G0 Z100.000 F5000 ; lift before travel
G0 X188.0000 Y254.0000 F5000 ; travel to polygon start
(Polygon ID: 177)
G1 Z0.000 F3000 ; plunge to cut depth
G1 X188.0000 Y254.0000 F1500 ; start cut at first vertex
G0 Z100.000 F5000 ; retract after polygon
(--- polygon 177 end ---)
(--- polygon 178 start ---)
G0 Z100.000 F5000 ; lift before travel
G0 X188.0000 Y322.0000 F5000 ; travel to polygon start
(Polygon ID: 178)
G1 Z0.000 F3000 ; plunge to cut depth
G1 X188.0000 Y322.0000 F1500 ; start cut at first vertex
G1 X186.0000 Y322.0000 F1500
G1 X186.0000 Y320.0000 F1500
G1 X188.0000 Y320.0000 F1500
G0 Z100.000 F5000 ; retract after polygon
(--- polygon 178 end ---)
(--- polygon 179 start ---)
G0 Z100.000 F5000 ; lift before travel
G0 X189.0000 Y125.0000 F5000 ; travel to polygon start
(Polygon ID: 179)
G1 Z0.000 F3000 ; plunge to cut depth
G1 X189.0000 Y125.0000 F1500 ; start cut at first vertex
G0 Z100.000 F5000 ; retract after polygon
(--- polygon 179 end ---)
(--- polygon 180 start ---)
G0 Z100.000 F5000 ; lift before travel
G0 X194.0000 Y109.0000 F5000 ; travel to polygon start
(Polygon ID: 180)
G1 Z0.000 F3000 ; plunge to cut depth
G1 X194.0000 Y109.0000 F1500 ; start cut at first vertex
G0 Z100.000 F5000 ; retract after polygon
(--- polygon 180 end ---)
(--- polygon 181 start ---)
G0 Z100.000 F5000 ; lift before travel
G0 X195.0000 Y38.0000 F5000 ; travel to polygon start
(Polygon ID: 181)
G1 Z0.000 F3000 ; plunge to cut depth
G1 X195.0000 Y38.0000 F1500 ; start cut at first vertex
G1 X195.0000 Y39.0000 F1500
G1 X194.0000 Y40.0000 F1500
G1 X193.0000 Y40.0000 F1500
G1 X193.0000 Y38.0000 F1500
G0 Z100.000 F5000 ; retract after polygon
(--- polygon 181 end ---)
(--- polygon 182 start ---)
G0 Z100.000 F5000 ; lift before travel
G0 X195.0000 Y289.0000 F5000 ; travel to polygon start
(Polygon ID: 182)
G1 Z0.000 F3000 ; plunge to cut depth
G1 X195.0000 Y289.0000 F1500 ; start cut at first vertex
G1 X194.0000 Y290.0000 F1500
G1 X191.0000 Y290.0000 F1500
G1 X190.0000 Y289.0000 F1500
G1 X190.0000 Y287.0000 F1500
G1 X191.0000 Y286.0000 F1500
G1 X194.0000 Y286.0000 F1500
G1 X195.0000 Y287.0000 F1500
G0 Z100.000 F5000 ; retract after polygon
(--- polygon 182 end ---)
(--- polygon 183 start ---)
G0 Z100.000 F5000 ; lift before travel
G0 X196.0000 Y142.0000 F5000 ; travel to polygon start
(Polygon ID: 183)
G1 Z0.000 F3000 ; plunge to cut depth
G1 X196.0000 Y142.0000 F1500 ; start cut at first vertex
G0 Z100.000 F5000 ; retract after polygon
(--- polygon 183 end ---)
(--- polygon 184 start ---)
G0 Z100.000 F5000 ; lift before travel
G0 X197.0000 Y257.0000 F5000 ; travel to polygon start
(Polygon ID: 184)
G1 Z0.000 F3000 ; plunge to cut depth
G1 X197.0000 Y257.0000 F1500 ; start cut at first vertex
G1 X196.0000 Y258.0000 F1500
G1 X195.0000 Y258.0000 F1500
G1 X194.0000 Y257.0000 F1500
G1 X193.0000 Y257.0000 F1500
G0 Z100.000 F5000 ; retract after polygon
(--- polygon 184 end ---)
(--- polygon 185 start ---)
G0 Z100.000 F5000 ; lift before travel
G0 X199.0000 Y134.0000 F5000 ; travel to polygon start
(Polygon ID: 185)
G1 Z0.000 F3000 ; plunge to cut depth
G1 X199.0000 Y134.0000 F1500 ; start cut at first vertex
G1 X200.0000 Y133.0000 F1500
G1 X199.0000 Y134.0000 F1500
G1 X196.0000 Y134.0000 F1500
G1 X192.0000 Y130.0000 F1500
G1 X192.0000 Y126.0000 F1500
G1 X194.0000 Y126.0000 F1500
G1 X195.0000 Y127.0000 F1500
G1 X194.0000 Y126.0000 F1500
G1 X193.0000 Y126.0000 F1500
G1 X192.0000 Y127.0000 F1500
G1 X192.0000 Y130.0000 F1500
G1 X195.0000 Y133.0000 F1500
G1 X196.0000 Y133.0000 F1500
G1 X197.0000 Y134.0000 F1500
