(generated by gCode.py)
G21
G90
(z_safe=100.0, z_cut=0.0)
G0 Z100.000 F5000
(--- polygon 0 start ---)
G0 Z100.000 F5000 ; lift before travel
G0 X419.0000 Y363.0000 F5000 ; travel to polygon start
G1 Z0.000 F3000 ; plunge to cut depth
G1 X419.0000 Y363.0000 F1500 ; start cut at first vertex
G1 X396.0000 Y386.0000 F1500
G1 X395.0000 Y386.0000 F1500
G1 X378.0000 Y403.0000 F1500
G1 X377.0000 Y403.0000 F1500
G1 X359.0000 Y421.0000 F1500
G1 X358.0000 Y421.0000 F1500
G1 X341.0000 Y438.0000 F1500
G1 X340.0000 Y438.0000 F1500
G1 X323.0000 Y455.0000 F1500
G1 X322.0000 Y455.0000 F1500
G1 X307.0000 Y470.0000 F1500
G1 X306.0000 Y470.0000 F1500
G1 X287.0000 Y489.0000 F1500
G1 X286.0000 Y489.0000 F1500
G1 X268.0000 Y507.0000 F1500
G1 X267.0000 Y507.0000 F1500
G1 X264.0000 Y510.0000 F1500
G1 X265.0000 Y509.0000 F1500
G1 X266.0000 Y509.0000 F1500
G1 X279.0000 Y496.0000 F1500
G1 X280.0000 Y496.0000 F1500
G1 X302.0000 Y474.0000 F1500
G1 X303.0000 Y474.0000 F1500
G1 X315.0000 Y462.0000 F1500
G1 X316.0000 Y462.0000 F1500
G1 X333.0000 Y445.0000 F1500
G1 X334.0000 Y445.0000 F1500
G1 X350.0000 Y429.0000 F1500
G1 X351.0000 Y429.0000 F1500
G1 X352.0000 Y428.0000 F1500
G1 X352.0000 Y427.0000 F1500
G1 X353.0000 Y426.0000 F1500
G1 X354.0000 Y426.0000 F1500
G1 X368.0000 Y412.0000 F1500
G1 X369.0000 Y412.0000 F1500
G1 X389.0000 Y392.0000 F1500
G1 X390.0000 Y392.0000 F1500
G1 X413.0000 Y369.0000 F1500
G1 X414.0000 Y369.0000 F1500
G1 X416.0000 Y367.0000 F1500
G1 X416.0000 Y366.0000 F1500
G1 X417.0000 Y365.0000 F1500
G1 X418.0000 Y365.0000 F1500
G1 X419.0000 Y364.0000 F1500
G1 X420.0000 Y365.0000 F1500
G1 X421.0000 Y364.0000 F1500
G1 X423.0000 Y366.0000 F1500
G1 X420.0000 Y363.0000 F1500
G0 Z100.000 F5000 ; retract after polygon
(--- polygon 0 end ---)
(--- polygon 1 start ---)
G0 Z100.000 F5000 ; lift before travel
G0 X449.0000 Y156.0000 F5000 ; travel to polygon start
G1 Z0.000 F3000 ; plunge to cut depth
G1 X449.0000 Y156.0000 F1500 ; start cut at first vertex
G1 X448.0000 Y157.0000 F1500
G1 X446.0000 Y157.0000 F1500
G1 X448.0000 Y157.0000 F1500
G1 X449.0000 Y158.0000 F1500
G1 X448.0000 Y159.0000 F1500
G1 X442.0000 Y159.0000 F1500
G1 X441.0000 Y158.0000 F1500
G1 X442.0000 Y157.0000 F1500
G1 X444.0000 Y157.0000 F1500
G1 X442.0000 Y157.0000 F1500
G1 X441.0000 Y158.0000 F1500
G1 X438.0000 Y158.0000 F1500
G1 X437.0000 Y159.0000 F1500
G1 X435.0000 Y159.0000 F1500
G1 X434.0000 Y160.0000 F1500
G1 X432.0000 Y160.0000 F1500
G1 X431.0000 Y161.0000 F1500
G1 X429.0000 Y161.0000 F1500
G1 X428.0000 Y162.0000 F1500
G1 X427.0000 Y162.0000 F1500
G1 X426.0000 Y163.0000 F1500
G1 X425.0000 Y163.0000 F1500
G1 X424.0000 Y164.0000 F1500
G1 X423.0000 Y164.0000 F1500
G1 X422.0000 Y165.0000 F1500
G1 X421.0000 Y165.0000 F1500
G1 X419.0000 Y167.0000 F1500
G1 X418.0000 Y167.0000 F1500
G1 X416.0000 Y169.0000 F1500
G1 X415.0000 Y169.0000 F1500
G1 X410.0000 Y174.0000 F1500
G1 X409.0000 Y174.0000 F1500
G1 X404.0000 Y179.0000 F1500
G1 X404.0000 Y180.0000 F1500
G1 X400.0000 Y184.0000 F1500
G1 X400.0000 Y185.0000 F1500
G1 X398.0000 Y187.0000 F1500
G1 X398.0000 Y188.0000 F1500
G1 X397.0000 Y189.0000 F1500
G1 X397.0000 Y190.0000 F1500
G1 X396.0000 Y191.0000 F1500
G1 X396.0000 Y192.0000 F1500
G1 X395.0000 Y193.0000 F1500
G1 X395.0000 Y194.0000 F1500
G1 X394.0000 Y195.0000 F1500
G1 X394.0000 Y196.0000 F1500
G1 X393.0000 Y197.0000 F1500
G1 X393.0000 Y198.0000 F1500
G1 X392.0000 Y199.0000 F1500
G1 X391.0000 Y198.0000 F1500
G1 X391.0000 Y197.0000 F1500
G1 X391.0000 Y198.0000 F1500
G1 X390.0000 Y199.0000 F1500
G1 X391.0000 Y198.0000 F1500
G1 X392.0000 Y199.0000 F1500
G1 X392.0000 Y201.0000 F1500
G1 X391.0000 Y202.0000 F1500
G1 X391.0000 Y204.0000 F1500
G1 X390.0000 Y205.0000 F1500
G1 X390.0000 Y207.0000 F1500
G1 X389.0000 Y208.0000 F1500
G1 X389.0000 Y212.0000 F1500
G1 X388.0000 Y213.0000 F1500
G1 X388.0000 Y219.0000 F1500
G1 X387.0000 Y220.0000 F1500
G1 X387.0000 Y228.0000 F1500
G1 X388.0000 Y229.0000 F1500
G1 X388.0000 Y233.0000 F1500
G1 X388.0000 Y229.0000 F1500
G1 X389.0000 Y228.0000 F1500
G1 X389.0000 Y220.0000 F1500
G1 X390.0000 Y219.0000 F1500
G1 X390.0000 Y213.0000 F1500
G1 X389.0000 Y212.0000 F1500
G1 X389.0000 Y208.0000 F1500
G1 X390.0000 Y207.0000 F1500
G1 X391.0000 Y208.0000 F1500
G1 X391.0000 Y211.0000 F1500
G1 X391.0000 Y208.0000 F1500
G1 X392.0000 Y207.0000 F1500
G1 X392.0000 Y205.0000 F1500
G1 X393.0000 Y204.0000 F1500
G1 X393.0000 Y203.0000 F1500
G1 X393.0000 Y204.0000 F1500
G1 X392.0000 Y205.0000 F1500
G1 X391.0000 Y204.0000 F1500
G1 X391.0000 Y202.0000 F1500
G1 X392.0000 Y201.0000 F1500
G1 X392.0000 Y199.0000 F1500
G1 X393.0000 Y198.0000 F1500
G1 X394.0000 Y199.0000 F1500
G1 X394.0000 Y200.0000 F1500
G1 X394.0000 Y199.0000 F1500
G1 X395.0000 Y198.0000 F1500
G1 X395.0000 Y197.0000 F1500
G1 X396.0000 Y196.0000 F1500
G1 X395.0000 Y197.0000 F1500
G1 X394.0000 Y196.0000 F1500
G1 X394.0000 Y195.0000 F1500
G1 X396.0000 Y193.0000 F1500
G1 X396.0000 Y192.0000 F1500
G1 X397.0000 Y191.0000 F1500
G1 X397.0000 Y190.0000 F1500
G1 X398.0000 Y189.0000 F1500
G1 X398.0000 Y188.0000 F1500
G1 X400.0000 Y186.0000 F1500
G1 X400.0000 Y185.0000 F1500
G1 X404.0000 Y181.0000 F1500
G1 X404.0000 Y180.0000 F1500
G1 X410.0000 Y174.0000 F1500
G1 X411.0000 Y174.0000 F1500
G1 X416.0000 Y169.0000 F1500
G1 X417.0000 Y169.0000 F1500
G1 X419.0000 Y167.0000 F1500
G1 X420.0000 Y167.0000 F1500
G1 X421.0000 Y168.0000 F1500
G1 X420.0000 Y167.0000 F1500
G1 X422.0000 Y165.0000 F1500
G1 X423.0000 Y165.0000 F1500
G1 X424.0000 Y164.0000 F1500
G1 X425.0000 Y164.0000 F1500
G1 X426.0000 Y165.0000 F1500
G1 X427.0000 Y164.0000 F1500
G1 X428.0000 Y164.0000 F1500
G1 X427.0000 Y164.0000 F1500
G1 X426.0000 Y163.0000 F1500
G1 X427.0000 Y162.0000 F1500
G1 X428.0000 Y162.0000 F1500
G1 X429.0000 Y161.0000 F1500
G1 X431.0000 Y161.0000 F1500
G1 X432.0000 Y162.0000 F1500
G1 X431.0000 Y163.0000 F1500
G1 X430.0000 Y163.0000 F1500
G1 X431.0000 Y163.0000 F1500
G1 X432.0000 Y162.0000 F1500
G1 X434.0000 Y162.0000 F1500
G1 X432.0000 Y162.0000 F1500
G1 X431.0000 Y161.0000 F1500
G1 X432.0000 Y160.0000 F1500
G1 X434.0000 Y160.0000 F1500
G1 X435.0000 Y159.0000 F1500
G1 X437.0000 Y159.0000 F1500
G1 X438.0000 Y158.0000 F1500
G1 X439.0000 Y158.0000 F1500
G1 X440.0000 Y159.0000 F1500
G1 X439.0000 Y160.0000 F1500
G1 X441.0000 Y158.0000 F1500
G1 X442.0000 Y159.0000 F1500
G1 X448.0000 Y159.0000 F1500
G1 X449.0000 Y158.0000 F1500
G1 X460.0000 Y158.0000 F1500
G1 X461.0000 Y157.0000 F1500
G1 X467.0000 Y157.0000 F1500
G1 X468.0000 Y158.0000 F1500
G1 X467.0000 Y159.0000 F1500
G1 X462.0000 Y159.0000 F1500
G1 X467.0000 Y159.0000 F1500
G1 X468.0000 Y158.0000 F1500
G1 X472.0000 Y158.0000 F1500
G1 X473.0000 Y159.0000 F1500
G1 X474.0000 Y159.0000 F1500
G1 X473.0000 Y159.0000 F1500
G1 X472.0000 Y158.0000 F1500
G1 X468.0000 Y158.0000 F1500
G1 X467.0000 Y157.0000 F1500
G1 X461.0000 Y157.0000 F1500
G1 X460.0000 Y156.0000 F1500
G0 Z100.000 F5000 ; retract after polygon
(--- polygon 1 end ---)
(--- polygon 2 start ---)
G0 Z100.000 F5000 ; lift before travel
G0 X335.0000 Y866.0000 F5000 ; travel to polygon start
G1 Z0.000 F3000 ; plunge to cut depth
G1 X335.0000 Y866.0000 F1500 ; start cut at first vertex
G1 X335.0000 Y867.0000 F1500
G1 X334.0000 Y868.0000 F1500
G1 X334.0000 Y880.0000 F1500
G1 X335.0000 Y881.0000 F1500
G1 X335.0000 Y887.0000 F1500
G1 X334.0000 Y888.0000 F1500
G1 X334.0000 Y889.0000 F1500
G1 X335.0000 Y890.0000 F1500
G1 X335.0000 Y892.0000 F1500
G1 X334.0000 Y893.0000 F1500
G1 X334.0000 Y894.0000 F1500
G1 X335.0000 Y895.0000 F1500
G1 X335.0000 Y896.0000 F1500
G1 X334.0000 Y897.0000 F1500
G1 X334.0000 Y898.0000 F1500
G1 X335.0000 Y899.0000 F1500
G1 X335.0000 Y911.0000 F1500
G1 X334.0000 Y912.0000 F1500
G1 X335.0000 Y913.0000 F1500
G1 X335.0000 Y914.0000 F1500
G1 X347.0000 Y914.0000 F1500
G1 X336.0000 Y914.0000 F1500
G1 X334.0000 Y912.0000 F1500
G1 X335.0000 Y911.0000 F1500
G1 X335.0000 Y899.0000 F1500
G1 X336.0000 Y898.0000 F1500
G1 X337.0000 Y899.0000 F1500
G1 X337.0000 Y912.0000 F1500
G1 X350.0000 Y912.0000 F1500
G1 X338.0000 Y912.0000 F1500
G1 X337.0000 Y911.0000 F1500
G1 X337.0000 Y899.0000 F1500
G1 X338.0000 Y898.0000 F1500
G1 X338.0000 Y897.0000 F1500
G1 X337.0000 Y896.0000 F1500
G1 X337.0000 Y895.0000 F1500
G1 X338.0000 Y894.0000 F1500
G1 X338.0000 Y893.0000 F1500
G1 X337.0000 Y892.0000 F1500
G1 X337.0000 Y890.0000 F1500
G1 X338.0000 Y889.0000 F1500
G1 X338.0000 Y888.0000 F1500
G1 X337.0000 Y887.0000 F1500
G1 X337.0000 Y881.0000 F1500
G1 X336.0000 Y880.0000 F1500
G1 X336.0000 Y869.0000 F1500
G1 X337.0000 Y868.0000 F1500
G1 X350.0000 Y868.0000 F1500
G1 X351.0000 Y869.0000 F1500
G1 X353.0000 Y869.0000 F1500
G1 X354.0000 Y870.0000 F1500
G1 X355.0000 Y870.0000 F1500
G1 X357.0000 Y872.0000 F1500
G1 X355.0000 Y870.0000 F1500
G1 X356.0000 Y869.0000 F1500
G1 X357.0000 Y869.0000 F1500
G1 X364.0000 Y876.0000 F1500
G1 X364.0000 Y877.0000 F1500
G1 X366.0000 Y879.0000 F1500
G1 X366.0000 Y881.0000 F1500
G1 X367.0000 Y882.0000 F1500
G1 X367.0000 Y885.0000 F1500
G1 X368.0000 Y886.0000 F1500
G1 X368.0000 Y895.0000 F1500
G1 X367.0000 Y896.0000 F1500
G1 X367.0000 Y899.0000 F1500
G1 X366.0000 Y900.0000 F1500
G1 X366.0000 Y901.0000 F1500
G1 X365.0000 Y902.0000 F1500
G1 X365.0000 Y903.0000 F1500
G1 X363.0000 Y905.0000 F1500
G1 X363.0000 Y906.0000 F1500
G1 X358.0000 Y911.0000 F1500
G1 X357.0000 Y911.0000 F1500
G1 X356.0000 Y912.0000 F1500
G1 X355.0000 Y912.0000 F1500
G1 X354.0000 Y911.0000 F1500
G1 X356.0000 Y909.0000 F1500
G1 X357.0000 Y909.0000 F1500
G1 X361.0000 Y905.0000 F1500
G1 X357.0000 Y909.0000 F1500
G1 X356.0000 Y909.0000 F1500
G1 X354.0000 Y911.0000 F1500
G1 X353.0000 Y911.0000 F1500
G1 X354.0000 Y911.0000 F1500
G1 X355.0000 Y912.0000 F1500
G1 X354.0000 Y913.0000 F1500
G1 X352.0000 Y913.0000 F1500
G1 X351.0000 Y914.0000 F1500
G1 X349.0000 Y914.0000 F1500
G1 X351.0000 Y914.0000 F1500
G1 X352.0000 Y915.0000 F1500
G1 X351.0000 Y916.0000 F1500
G1 X335.0000 Y916.0000 F1500
G1 X351.0000 Y916.0000 F1500
G1 X352.0000 Y915.0000 F1500
G1 X354.0000 Y915.0000 F1500
G1 X355.0000 Y914.0000 F1500
G1 X357.0000 Y914.0000 F1500
G1 X355.0000 Y914.0000 F1500
G1 X354.0000 Y913.0000 F1500
G1 X355.0000 Y912.0000 F1500
G1 X357.0000 Y912.0000 F1500
G1 X358.0000 Y911.0000 F1500
G1 X359.0000 Y911.0000 F1500
G1 X363.0000 Y907.0000 F1500
G1 X363.0000 Y906.0000 F1500
G1 X365.0000 Y904.0000 F1500
G1 X365.0000 Y902.0000 F1500
G1 X366.0000 Y901.0000 F1500
G1 X367.0000 Y902.0000 F1500
G1 X367.0000 Y903.0000 F1500
G1 X367.0000 Y902.0000 F1500
G1 X368.0000 Y901.0000 F1500
G1 X367.0000 Y902.0000 F1500
G1 X366.0000 Y901.0000 F1500
G1 X366.0000 Y900.0000 F1500
G1 X367.0000 Y899.0000 F1500
G1 X367.0000 Y896.0000 F1500
G1 X368.0000 Y895.0000 F1500
G1 X369.0000 Y896.0000 F1500
G1 X369.0000 Y899.0000 F1500
G1 X369.0000 Y896.0000 F1500
G1 X370.0000 Y895.0000 F1500
G1 X370.0000 Y886.0000 F1500
G1 X369.0000 Y885.0000 F1500
G1 X369.0000 Y882.0000 F1500
G1 X369.0000 Y885.0000 F1500
G1 X368.0000 Y886.0000 F1500
G1 X367.0000 Y885.0000 F1500
G1 X367.0000 Y882.0000 F1500
G1 X366.0000 Y881.0000 F1500
G1 X366.0000 Y878.0000 F1500
G1 X367.0000 Y877.0000 F1500
G1 X366.0000 Y878.0000 F1500
G1 X364.0000 Y876.0000 F1500
G1 X364.0000 Y875.0000 F1500
G1 X358.0000 Y869.0000 F1500
G1 X357.0000 Y869.0000 F1500
G1 X356.0000 Y868.0000 F1500
G1 X354.0000 Y868.0000 F1500
G1 X353.0000 Y867.0000 F1500
G1 X351.0000 Y867.0000 F1500
G1 X350.0000 Y866.0000 F1500
G0 Z100.000 F5000 ; retract after polygon
(--- polygon 2 end ---)
(--- polygon 3 start ---)
G0 Z100.000 F5000 ; lift before travel
G0 X314.0000 Y846.0000 F5000 ; travel to polygon start
G1 Z0.000 F3000 ; plunge to cut depth
G1 X314.0000 Y846.0000 F1500 ; start cut at first vertex
G1 X313.0000 Y847.0000 F1500
G1 X313.0000 Y933.0000 F1500
G1 X314.0000 Y934.0000 F1500
G1 X358.0000 Y934.0000 F1500
G1 X359.0000 Y935.0000 F1500
G1 X360.0000 Y935.0000 F1500
G1 X359.0000 Y935.0000 F1500
G1 X358.0000 Y934.0000 F1500
G1 X359.0000 Y933.0000 F1500
G1 X362.0000 Y933.0000 F1500
G1 X363.0000 Y932.0000 F1500
G1 X365.0000 Y932.0000 F1500
G1 X366.0000 Y931.0000 F1500
G1 X367.0000 Y931.0000 F1500
G1 X368.0000 Y930.0000 F1500
G1 X371.0000 Y930.0000 F1500
G1 X373.0000 Y928.0000 F1500
G1 X374.0000 Y928.0000 F1500
G1 X375.0000 Y927.0000 F1500
G1 X376.0000 Y927.0000 F1500
G1 X382.0000 Y921.0000 F1500
G1 X382.0000 Y920.0000 F1500
G1 X385.0000 Y917.0000 F1500
G1 X385.0000 Y916.0000 F1500
G1 X386.0000 Y915.0000 F1500
G1 X386.0000 Y912.0000 F1500
G1 X387.0000 Y911.0000 F1500
G1 X387.0000 Y910.0000 F1500
G1 X388.0000 Y909.0000 F1500
G1 X388.0000 Y908.0000 F1500
G1 X389.0000 Y907.0000 F1500
G1 X389.0000 Y904.0000 F1500
G1 X390.0000 Y903.0000 F1500
G1 X390.0000 Y899.0000 F1500
G1 X391.0000 Y898.0000 F1500
G1 X391.0000 Y883.0000 F1500
G1 X390.0000 Y882.0000 F1500
G1 X390.0000 Y878.0000 F1500
G1 X389.0000 Y877.0000 F1500
G1 X389.0000 Y875.0000 F1500
G1 X388.0000 Y874.0000 F1500
G1 X388.0000 Y870.0000 F1500
G1 X387.0000 Y869.0000 F1500
G1 X387.0000 Y868.0000 F1500
G1 X386.0000 Y867.0000 F1500
G1 X386.0000 Y866.0000 F1500
G1 X384.0000 Y864.0000 F1500
G1 X384.0000 Y863.0000 F1500
G1 X382.0000 Y861.0000 F1500
G1 X382.0000 Y860.0000 F1500
G1 X378.0000 Y856.0000 F1500
G1 X377.0000 Y856.0000 F1500
G1 X373.0000 Y852.0000 F1500
G1 X372.0000 Y852.0000 F1500
G1 X370.0000 Y850.0000 F1500
G1 X370.0000 Y851.0000 F1500
G1 X371.0000 Y851.0000 F1500
G1 X373.0000 Y853.0000 F1500
G1 X374.0000 Y853.0000 F1500
G1 X384.0000 Y863.0000 F1500
G1 X384.0000 Y864.0000 F1500
G1 X385.0000 Y865.0000 F1500
G1 X385.0000 Y866.0000 F1500
G1 X386.0000 Y867.0000 F1500
G1 X386.0000 Y868.0000 F1500
G1 X387.0000 Y869.0000 F1500
G1 X387.0000 Y870.0000 F1500
G1 X388.0000 Y871.0000 F1500
G1 X388.0000 Y874.0000 F1500
G1 X387.0000 Y875.0000 F1500
G1 X386.0000 Y874.0000 F1500
G1 X386.0000 Y872.0000 F1500
G1 X385.0000 Y871.0000 F1500
G1 X385.0000 Y870.0000 F1500
G1 X384.0000 Y869.0000 F1500
G1 X384.0000 Y868.0000 F1500
G1 X383.0000 Y867.0000 F1500
G1 X383.0000 Y866.0000 F1500
G1 X382.0000 Y865.0000 F1500
G1 X382.0000 Y864.0000 F1500
G1 X373.0000 Y855.0000 F1500
G1 X372.0000 Y855.0000 F1500
G1 X370.0000 Y853.0000 F1500
G1 X369.0000 Y853.0000 F1500
G1 X368.0000 Y852.0000 F1500
G1 X368.0000 Y853.0000 F1500
G1 X369.0000 Y853.0000 F1500
G1 X371.0000 Y855.0000 F1500
G1 X372.0000 Y855.0000 F1500
G1 X382.0000 Y865.0000 F1500
G1 X382.0000 Y866.0000 F1500
G1 X384.0000 Y868.0000 F1500
G1 X384.0000 Y869.0000 F1500
G1 X385.0000 Y870.0000 F1500
G1 X385.0000 Y871.0000 F1500
G1 X386.0000 Y872.0000 F1500
G1 X386.0000 Y874.0000 F1500
G1 X387.0000 Y875.0000 F1500
G1 X387.0000 Y877.0000 F1500
G1 X388.0000 Y878.0000 F1500
G1 X388.0000 Y882.0000 F1500
G1 X389.0000 Y883.0000 F1500
G1 X389.0000 Y884.0000 F1500
G1 X389.0000 Y883.0000 F1500
G1 X390.0000 Y882.0000 F1500
G1 X391.0000 Y883.0000 F1500
G1 X391.0000 Y898.0000 F1500
G1 X390.0000 Y899.0000 F1500
G1 X389.0000 Y898.0000 F1500
G1 X389.0000 Y886.0000 F1500
G1 X389.0000 Y898.0000 F1500
G1 X388.0000 Y899.0000 F1500
G1 X388.0000 Y903.0000 F1500
G1 X387.0000 Y904.0000 F1500
G1 X387.0000 Y906.0000 F1500
G1 X386.0000 Y907.0000 F1500
G1 X386.0000 Y909.0000 F1500
G1 X385.0000 Y910.0000 F1500
G1 X385.0000 Y911.0000 F1500
G1 X384.0000 Y912.0000 F1500
G1 X384.0000 Y913.0000 F1500
G1 X382.0000 Y915.0000 F1500
G1 X382.0000 Y916.0000 F1500
G1 X379.0000 Y919.0000 F1500
G1 X379.0000 Y920.0000 F1500
G1 X375.0000 Y924.0000 F1500
G1 X374.0000 Y924.0000 F1500
G1 X372.0000 Y926.0000 F1500
G1 X371.0000 Y926.0000 F1500
G1 X369.0000 Y928.0000 F1500
G1 X368.0000 Y928.0000 F1500
G1 X367.0000 Y929.0000 F1500
G1 X366.0000 Y929.0000 F1500
G1 X365.0000 Y930.0000 F1500
G1 X363.0000 Y930.0000 F1500
G1 X362.0000 Y931.0000 F1500
G1 X359.0000 Y931.0000 F1500
G1 X358.0000 Y932.0000 F1500
G1 X316.0000 Y932.0000 F1500
G1 X315.0000 Y931.0000 F1500
G1 X315.0000 Y849.0000 F1500
G1 X316.0000 Y848.0000 F1500
G1 X356.0000 Y848.0000 F1500
G1 X357.0000 Y849.0000 F1500
G1 X356.0000 Y850.0000 F1500
G1 X317.0000 Y850.0000 F1500
G1 X317.0000 Y930.0000 F1500
G1 X317.0000 Y851.0000 F1500
G1 X318.0000 Y850.0000 F1500
G1 X356.0000 Y850.0000 F1500
G1 X357.0000 Y849.0000 F1500
G1 X361.0000 Y849.0000 F1500
G1 X362.0000 Y850.0000 F1500
G1 X361.0000 Y851.0000 F1500
G1 X358.0000 Y851.0000 F1500
G1 X361.0000 Y851.0000 F1500
G1 X362.0000 Y852.0000 F1500
G1 X364.0000 Y852.0000 F1500
G1 X365.0000 Y851.0000 F1500
G1 X366.0000 Y851.0000 F1500
G1 X365.0000 Y851.0000 F1500
G1 X364.0000 Y850.0000 F1500
G1 X365.0000 Y849.0000 F1500
G1 X366.0000 Y849.0000 F1500
G1 X365.0000 Y849.0000 F1500
G1 X363.0000 Y847.0000 F1500
G1 X363.0000 Y848.0000 F1500
G1 X364.0000 Y848.0000 F1500
G1 X365.0000 Y849.0000 F1500
G1 X364.0000 Y850.0000 F1500
G1 X362.0000 Y850.0000 F1500
G1 X361.0000 Y849.0000 F1500
G1 X357.0000 Y849.0000 F1500
G1 X356.0000 Y848.0000 F1500
G1 X315.0000 Y848.0000 F1500
G1 X315.0000 Y932.0000 F1500
G1 X358.0000 Y932.0000 F1500
G1 X359.0000 Y933.0000 F1500
G1 X358.0000 Y934.0000 F1500
G1 X314.0000 Y934.0000 F1500
G1 X313.0000 Y933.0000 F1500
G1 X313.0000 Y847.0000 F1500
G1 X314.0000 Y846.0000 F1500
G1 X315.0000 Y846.0000 F1500
G0 Z100.000 F5000 ; retract after polygon
(--- polygon 3 end ---)
(--- polygon 4 start ---)
G0 Z100.000 F5000 ; lift before travel
G0 X226.0000 Y846.0000 F5000 ; travel to polygon start
G1 Z0.000 F3000 ; plunge to cut depth
G1 X226.0000 Y846.0000 F1500 ; start cut at first vertex
G1 X227.0000 Y847.0000 F1500
G1 X227.0000 Y848.0000 F1500
G1 X226.0000 Y849.0000 F1500
G1 X225.0000 Y848.0000 F1500
G1 X207.0000 Y848.0000 F1500
G1 X206.0000 Y849.0000 F1500
G1 X206.0000 Y880.0000 F1500
G1 X205.0000 Y881.0000 F1500
G1 X178.0000 Y881.0000 F1500
G1 X177.0000 Y880.0000 F1500
G1 X177.0000 Y849.0000 F1500
G1 X176.0000 Y848.0000 F1500
G1 X157.0000 Y848.0000 F1500
G1 X156.0000 Y849.0000 F1500
G1 X156.0000 Y931.0000 F1500
G1 X157.0000 Y932.0000 F1500
G1 X175.0000 Y932.0000 F1500
G1 X157.0000 Y932.0000 F1500
G1 X156.0000 Y931.0000 F1500
G1 X156.0000 Y849.0000 F1500
G1 X157.0000 Y848.0000 F1500
G1 X176.0000 Y848.0000 F1500
G1 X177.0000 Y849.0000 F1500
G1 X177.0000 Y881.0000 F1500
G1 X206.0000 Y881.0000 F1500
G1 X206.0000 Y849.0000 F1500
G1 X207.0000 Y848.0000 F1500
G1 X225.0000 Y848.0000 F1500
G1 X226.0000 Y849.0000 F1500
G1 X226.0000 Y931.0000 F1500
G1 X225.0000 Y932.0000 F1500
G1 X207.0000 Y932.0000 F1500
G1 X206.0000 Y931.0000 F1500
G1 X206.0000 Y900.0000 F1500
G1 X177.0000 Y900.0000 F1500
G1 X177.0000 Y902.0000 F1500
G1 X176.0000 Y903.0000 F1500
G1 X177.0000 Y904.0000 F1500
G1 X177.0000 Y928.0000 F1500
G1 X176.0000 Y929.0000 F1500
G1 X177.0000 Y930.0000 F1500
G1 X177.0000 Y931.0000 F1500
G1 X178.0000 Y932.0000 F1500
G1 X178.0000 Y933.0000 F1500
G1 X177.0000 Y934.0000 F1500
G1 X155.0000 Y934.0000 F1500
G1 X178.0000 Y934.0000 F1500
G1 X178.0000 Y932.0000 F1500
G1 X179.0000 Y931.0000 F1500
G1 X179.0000 Y930.0000 F1500
G1 X178.0000 Y929.0000 F1500
G1 X179.0000 Y928.0000 F1500
G1 X179.0000 Y923.0000 F1500
G1 X179.0000 Y928.0000 F1500
G1 X178.0000 Y929.0000 F1500
G1 X177.0000 Y928.0000 F1500
G1 X177.0000 Y904.0000 F1500
G1 X178.0000 Y903.0000 F1500
G1 X179.0000 Y904.0000 F1500
G1 X179.0000 Y921.0000 F1500
G1 X179.0000 Y904.0000 F1500
G1 X178.0000 Y903.0000 F1500
G1 X179.0000 Y902.0000 F1500
G1 X203.0000 Y902.0000 F1500
G1 X204.0000 Y903.0000 F1500
G1 X204.0000 Y933.0000 F1500
G1 X205.0000 Y934.0000 F1500
G1 X227.0000 Y934.0000 F1500
G1 X227.0000 Y932.0000 F1500
G1 X228.0000 Y931.0000 F1500
G1 X229.0000 Y932.0000 F1500
G1 X228.0000 Y931.0000 F1500
G1 X228.0000 Y897.0000 F1500
G1 X228.0000 Y931.0000 F1500
G1 X227.0000 Y932.0000 F1500
G1 X226.0000 Y931.0000 F1500
G1 X226.0000 Y849.0000 F1500
G1 X227.0000 Y848.0000 F1500
G1 X228.0000 Y849.0000 F1500
G1 X228.0000 Y856.0000 F1500
G1 X228.0000 Y849.0000 F1500
G1 X227.0000 Y848.0000 F1500
G1 X227.0000 Y846.0000 F1500
G0 Z100.000 F5000 ; retract after polygon
(--- polygon 4 end ---)
(--- polygon 5 start ---)
G0 Z100.000 F5000 ; lift before travel
G0 X356.0000 Y239.0000 F5000 ; travel to polygon start
G1 Z0.000 F3000 ; plunge to cut depth
G1 X356.0000 Y239.0000 F1500 ; start cut at first vertex
G1 X355.0000 Y240.0000 F1500
G1 X354.0000 Y240.0000 F1500
G1 X342.0000 Y252.0000 F1500
G1 X342.0000 Y253.0000 F1500
G1 X341.0000 Y254.0000 F1500
G1 X341.0000 Y255.0000 F1500
G1 X340.0000 Y256.0000 F1500
G1 X340.0000 Y257.0000 F1500
G1 X341.0000 Y258.0000 F1500
G1 X341.0000 Y260.0000 F1500
G1 X342.0000 Y261.0000 F1500
G1 X342.0000 Y262.0000 F1500
G1 X345.0000 Y265.0000 F1500
G1 X345.0000 Y266.0000 F1500
G1 X347.0000 Y268.0000 F1500
G1 X348.0000 Y268.0000 F1500
G1 X364.0000 Y284.0000 F1500
G1 X365.0000 Y284.0000 F1500
G1 X384.0000 Y303.0000 F1500
G1 X385.0000 Y303.0000 F1500
G1 X399.0000 Y317.0000 F1500
G1 X400.0000 Y317.0000 F1500
G1 X414.0000 Y331.0000 F1500
G1 X415.0000 Y331.0000 F1500
G1 X416.0000 Y332.0000 F1500
G1 X417.0000 Y332.0000 F1500
G1 X416.0000 Y332.0000 F1500
G1 X411.0000 Y327.0000 F1500
G1 X410.0000 Y327.0000 F1500
G1 X409.0000 Y326.0000 F1500
G1 X409.0000 Y325.0000 F1500
G1 X401.0000 Y317.0000 F1500
G1 X400.0000 Y317.0000 F1500
G1 X387.0000 Y304.0000 F1500
G1 X386.0000 Y304.0000 F1500
G1 X366.0000 Y284.0000 F1500
G1 X365.0000 Y284.0000 F1500
G1 X349.0000 Y268.0000 F1500
G1 X348.0000 Y268.0000 F1500
G1 X344.0000 Y264.0000 F1500
G1 X344.0000 Y263.0000 F1500
G1 X341.0000 Y260.0000 F1500
G1 X341.0000 Y258.0000 F1500
G1 X342.0000 Y257.0000 F1500
G1 X343.0000 Y258.0000 F1500
G1 X343.0000 Y259.0000 F1500
G1 X346.0000 Y262.0000 F1500
G1 X346.0000 Y263.0000 F1500
G1 X349.0000 Y266.0000 F1500
G1 X350.0000 Y266.0000 F1500
G1 X366.0000 Y282.0000 F1500
G1 X367.0000 Y282.0000 F1500
G1 X387.0000 Y302.0000 F1500
G1 X388.0000 Y302.0000 F1500
G1 X401.0000 Y315.0000 F1500
G1 X402.0000 Y315.0000 F1500
G1 X417.0000 Y330.0000 F1500
G1 X418.0000 Y330.0000 F1500
G1 X430.0000 Y342.0000 F1500
G1 X431.0000 Y342.0000 F1500
G1 X433.0000 Y344.0000 F1500
G1 X427.0000 Y338.0000 F1500
G1 X426.0000 Y338.0000 F1500
G1 X412.0000 Y324.0000 F1500
G1 X411.0000 Y324.0000 F1500
G1 X398.0000 Y311.0000 F1500
G1 X397.0000 Y311.0000 F1500
G1 X383.0000 Y297.0000 F1500
G1 X382.0000 Y297.0000 F1500
G1 X363.0000 Y278.0000 F1500
G1 X362.0000 Y278.0000 F1500
G1 X344.0000 Y260.0000 F1500
G1 X344.0000 Y259.0000 F1500
G1 X343.0000 Y258.0000 F1500
G1 X344.0000 Y257.0000 F1500
G1 X343.0000 Y256.0000 F1500
G1 X341.0000 Y258.0000 F1500
G1 X340.0000 Y257.0000 F1500
G1 X340.0000 Y256.0000 F1500
G1 X342.0000 Y254.0000 F1500
G1 X342.0000 Y253.0000 F1500
G1 X355.0000 Y240.0000 F1500
G1 X356.0000 Y240.0000 F1500
G1 X357.0000 Y239.0000 F1500
G1 X360.0000 Y239.0000 F1500
G1 X368.0000 Y247.0000 F1500
G1 X369.0000 Y247.0000 F1500
G1 X377.0000 Y255.0000 F1500
G1 X378.0000 Y255.0000 F1500
G1 X388.0000 Y265.0000 F1500
G1 X389.0000 Y265.0000 F1500
G1 X397.0000 Y273.0000 F1500
G1 X398.0000 Y273.0000 F1500
G1 X406.0000 Y281.0000 F1500
G1 X407.0000 Y281.0000 F1500
G1 X418.0000 Y292.0000 F1500
G1 X419.0000 Y292.0000 F1500
G1 X428.0000 Y301.0000 F1500
G1 X429.0000 Y301.0000 F1500
G1 X439.0000 Y311.0000 F1500
G1 X440.0000 Y311.0000 F1500
G1 X449.0000 Y320.0000 F1500
G1 X450.0000 Y320.0000 F1500
G1 X452.0000 Y322.0000 F1500
G1 X452.0000 Y323.0000 F1500
G1 X454.0000 Y325.0000 F1500
G1 X454.0000 Y330.0000 F1500
G1 X451.0000 Y333.0000 F1500
G1 X451.0000 Y334.0000 F1500
G1 X442.0000 Y343.0000 F1500
G1 X441.0000 Y343.0000 F1500
G1 X438.0000 Y346.0000 F1500
G1 X437.0000 Y346.0000 F1500
G1 X436.0000 Y347.0000 F1500
G1 X434.0000 Y347.0000 F1500
G1 X433.0000 Y346.0000 F1500
G1 X432.0000 Y346.0000 F1500
G1 X430.0000 Y344.0000 F1500
G1 X429.0000 Y344.0000 F1500
G1 X419.0000 Y334.0000 F1500
G1 X418.0000 Y334.0000 F1500
G1 X427.0000 Y343.0000 F1500
G1 X428.0000 Y343.0000 F1500
G1 X431.0000 Y346.0000 F1500
G1 X433.0000 Y346.0000 F1500
G1 X434.0000 Y347.0000 F1500
G1 X433.0000 Y348.0000 F1500
G1 X432.0000 Y348.0000 F1500
G1 X433.0000 Y348.0000 F1500
G1 X434.0000 Y349.0000 F1500
G1 X436.0000 Y349.0000 F1500
G1 X437.0000 Y348.0000 F1500
G1 X439.0000 Y348.0000 F1500
G1 X437.0000 Y348.0000 F1500
G1 X436.0000 Y347.0000 F1500
G1 X437.0000 Y346.0000 F1500
G1 X439.0000 Y346.0000 F1500
G1 X442.0000 Y343.0000 F1500
G1 X443.0000 Y343.0000 F1500
G1 X451.0000 Y335.0000 F1500
G1 X451.0000 Y334.0000 F1500
G1 X454.0000 Y331.0000 F1500
G1 X454.0000 Y324.0000 F1500
G1 X452.0000 Y322.0000 F1500
G1 X452.0000 Y321.0000 F1500
G1 X451.0000 Y320.0000 F1500
G1 X450.0000 Y320.0000 F1500
G1 X441.0000 Y311.0000 F1500
G1 X440.0000 Y311.0000 F1500
G1 X430.0000 Y301.0000 F1500
G1 X429.0000 Y301.0000 F1500
G1 X420.0000 Y292.0000 F1500
G1 X419.0000 Y292.0000 F1500
G1 X408.0000 Y281.0000 F1500
G1 X407.0000 Y281.0000 F1500
G1 X399.0000 Y273.0000 F1500
G1 X398.0000 Y273.0000 F1500
G1 X390.0000 Y265.0000 F1500
G1 X389.0000 Y265.0000 F1500
G1 X379.0000 Y255.0000 F1500
G1 X378.0000 Y255.0000 F1500
G1 X370.0000 Y247.0000 F1500
G1 X368.0000 Y247.0000 F1500
G1 X367.0000 Y246.0000 F1500
G1 X367.0000 Y245.0000 F1500
G1 X361.0000 Y239.0000 F1500
G0 Z100.000 F5000 ; retract after polygon
(--- polygon 5 end ---)
(--- polygon 6 start ---)
G0 Z100.000 F5000 ; lift before travel
G0 X650.0000 Y520.0000 F5000 ; travel to polygon start
G1 Z0.000 F3000 ; plunge to cut depth
G1 X650.0000 Y520.0000 F1500 ; start cut at first vertex
G1 X648.0000 Y522.0000 F1500
G1 X647.0000 Y522.0000 F1500
G1 X644.0000 Y525.0000 F1500
G1 X643.0000 Y525.0000 F1500
G1 X639.0000 Y529.0000 F1500
G1 X638.0000 Y529.0000 F1500
G1 X634.0000 Y533.0000 F1500
G1 X633.0000 Y533.0000 F1500
G1 X629.0000 Y537.0000 F1500
G1 X628.0000 Y537.0000 F1500
G1 X624.0000 Y541.0000 F1500
G1 X623.0000 Y541.0000 F1500
G1 X620.0000 Y544.0000 F1500
G1 X619.0000 Y544.0000 F1500
G1 X615.0000 Y548.0000 F1500
G1 X614.0000 Y548.0000 F1500
G1 X610.0000 Y552.0000 F1500
G1 X609.0000 Y552.0000 F1500
G1 X605.0000 Y556.0000 F1500
G1 X604.0000 Y556.0000 F1500
G1 X602.0000 Y558.0000 F1500
G1 X602.0000 Y559.0000 F1500
G1 X601.0000 Y560.0000 F1500
G1 X599.0000 Y560.0000 F1500
G1 X595.0000 Y564.0000 F1500
G1 X594.0000 Y564.0000 F1500
G1 X590.0000 Y568.0000 F1500
G1 X589.0000 Y568.0000 F1500
G1 X585.0000 Y572.0000 F1500
G1 X584.0000 Y572.0000 F1500
G1 X580.0000 Y576.0000 F1500
G1 X579.0000 Y576.0000 F1500
G1 X575.0000 Y580.0000 F1500
G1 X574.0000 Y580.0000 F1500
G1 X573.0000 Y581.0000 F1500
G1 X573.0000 Y582.0000 F1500
G1 X572.0000 Y583.0000 F1500
G1 X570.0000 Y583.0000 F1500
G1 X566.0000 Y587.0000 F1500
G1 X565.0000 Y587.0000 F1500
G1 X560.0000 Y592.0000 F1500
G1 X559.0000 Y592.0000 F1500
G1 X556.0000 Y595.0000 F1500
G1 X555.0000 Y595.0000 F1500
G1 X554.0000 Y594.0000 F1500
G1 X555.0000 Y595.0000 F1500
G1 X551.0000 Y599.0000 F1500
G1 X550.0000 Y599.0000 F1500
G1 X548.0000 Y601.0000 F1500
G1 X548.0000 Y602.0000 F1500
G1 X547.0000 Y603.0000 F1500
G1 X545.0000 Y603.0000 F1500
G1 X541.0000 Y607.0000 F1500
G1 X540.0000 Y607.0000 F1500
G1 X535.0000 Y612.0000 F1500
G1 X534.0000 Y612.0000 F1500
G1 X531.0000 Y615.0000 F1500
G1 X530.0000 Y615.0000 F1500
G1 X526.0000 Y619.0000 F1500
G1 X525.0000 Y619.0000 F1500
G1 X521.0000 Y623.0000 F1500
G1 X520.0000 Y623.0000 F1500
G1 X517.0000 Y626.0000 F1500
G1 X516.0000 Y626.0000 F1500
G1 X512.0000 Y630.0000 F1500
G1 X511.0000 Y630.0000 F1500
G1 X507.0000 Y634.0000 F1500
G1 X506.0000 Y634.0000 F1500
G1 X502.0000 Y638.0000 F1500
G1 X501.0000 Y638.0000 F1500
G1 X497.0000 Y642.0000 F1500
G1 X496.0000 Y642.0000 F1500
G1 X492.0000 Y646.0000 F1500
G1 X491.0000 Y646.0000 F1500
G1 X487.0000 Y650.0000 F1500
G1 X486.0000 Y650.0000 F1500
G1 X483.0000 Y653.0000 F1500
G1 X482.0000 Y653.0000 F1500
G1 X478.0000 Y657.0000 F1500
G1 X477.0000 Y657.0000 F1500
G1 X473.0000 Y661.0000 F1500
G1 X472.0000 Y661.0000 F1500
G1 X471.0000 Y662.0000 F1500
G1 X472.0000 Y661.0000 F1500
G1 X474.0000 Y661.0000 F1500
G1 X475.0000 Y660.0000 F1500
G1 X476.0000 Y661.0000 F1500
G1 X477.0000 Y660.0000 F1500
G1 X478.0000 Y660.0000 F1500
G1 X479.0000 Y659.0000 F1500
G1 X480.0000 Y659.0000 F1500
G1 X483.0000 Y656.0000 F1500
G1 X484.0000 Y656.0000 F1500
G1 X488.0000 Y652.0000 F1500
G1 X489.0000 Y652.0000 F1500
G1 X493.0000 Y648.0000 F1500
G1 X494.0000 Y648.0000 F1500
G1 X497.0000 Y645.0000 F1500
G1 X498.0000 Y645.0000 F1500
G1 X501.0000 Y642.0000 F1500
G1 X502.0000 Y642.0000 F1500
G1 X507.0000 Y637.0000 F1500
G1 X508.0000 Y637.0000 F1500
G1 X512.0000 Y633.0000 F1500
G1 X513.0000 Y633.0000 F1500
G1 X517.0000 Y629.0000 F1500
G1 X518.0000 Y629.0000 F1500
G1 X522.0000 Y625.0000 F1500
G1 X523.0000 Y625.0000 F1500
G1 X527.0000 Y621.0000 F1500
G1 X528.0000 Y621.0000 F1500
G1 X532.0000 Y617.0000 F1500
G1 X533.0000 Y617.0000 F1500
G1 X536.0000 Y614.0000 F1500
G1 X537.0000 Y614.0000 F1500
G1 X540.0000 Y611.0000 F1500
G1 X541.0000 Y611.0000 F1500
G1 X547.0000 Y605.0000 F1500
G1 X548.0000 Y605.0000 F1500
G1 X552.0000 Y601.0000 F1500
G1 X553.0000 Y601.0000 F1500
G1 X556.0000 Y598.0000 F1500
G1 X557.0000 Y598.0000 F1500
G1 X561.0000 Y594.0000 F1500
G1 X562.0000 Y594.0000 F1500
G1 X566.0000 Y590.0000 F1500
G1 X567.0000 Y590.0000 F1500
G1 X571.0000 Y586.0000 F1500
G1 X572.0000 Y586.0000 F1500
G1 X575.0000 Y583.0000 F1500
G1 X576.0000 Y583.0000 F1500
G1 X580.0000 Y579.0000 F1500
G1 X581.0000 Y579.0000 F1500
G1 X585.0000 Y575.0000 F1500
G1 X586.0000 Y575.0000 F1500
G1 X590.0000 Y571.0000 F1500
G1 X591.0000 Y571.0000 F1500
G1 X595.0000 Y567.0000 F1500
G1 X596.0000 Y567.0000 F1500
G1 X600.0000 Y563.0000 F1500
G1 X601.0000 Y563.0000 F1500
G1 X605.0000 Y559.0000 F1500
G1 X606.0000 Y559.0000 F1500
G1 X609.0000 Y556.0000 F1500
G1 X610.0000 Y556.0000 F1500
G1 X615.0000 Y551.0000 F1500
G1 X616.0000 Y551.0000 F1500
G1 X620.0000 Y547.0000 F1500
G1 X621.0000 Y547.0000 F1500
G1 X624.0000 Y544.0000 F1500
G1 X625.0000 Y544.0000 F1500
G1 X630.0000 Y539.0000 F1500
G1 X631.0000 Y539.0000 F1500
G1 X634.0000 Y536.0000 F1500
G1 X635.0000 Y536.0000 F1500
G1 X639.0000 Y532.0000 F1500
G1 X640.0000 Y532.0000 F1500
G1 X644.0000 Y528.0000 F1500
G1 X645.0000 Y528.0000 F1500
G1 X648.0000 Y525.0000 F1500
G1 X649.0000 Y525.0000 F1500
G1 X649.0000 Y524.0000 F1500
G1 X650.0000 Y523.0000 F1500
G1 X652.0000 Y525.0000 F1500
G1 X652.0000 Y526.0000 F1500
G1 X653.0000 Y527.0000 F1500
G1 X652.0000 Y526.0000 F1500
G1 X652.0000 Y525.0000 F1500
G1 X650.0000 Y523.0000 F1500
G1 X646.0000 Y527.0000 F1500
G1 X645.0000 Y527.0000 F1500
G1 X641.0000 Y531.0000 F1500
G1 X640.0000 Y531.0000 F1500
G1 X637.0000 Y534.0000 F1500
G1 X636.0000 Y534.0000 F1500
G1 X632.0000 Y538.0000 F1500
G1 X631.0000 Y538.0000 F1500
G1 X626.0000 Y543.0000 F1500
G1 X625.0000 Y543.0000 F1500
G1 X622.0000 Y546.0000 F1500
G1 X621.0000 Y546.0000 F1500
G1 X617.0000 Y550.0000 F1500
G1 X616.0000 Y550.0000 F1500
G1 X612.0000 Y554.0000 F1500
G1 X611.0000 Y554.0000 F1500
G1 X607.0000 Y558.0000 F1500
G1 X606.0000 Y558.0000 F1500
G1 X602.0000 Y562.0000 F1500
G1 X601.0000 Y562.0000 F1500
G1 X598.0000 Y565.0000 F1500
G1 X597.0000 Y565.0000 F1500
G1 X592.0000 Y570.0000 F1500
G1 X591.0000 Y570.0000 F1500
G1 X587.0000 Y574.0000 F1500
G1 X586.0000 Y574.0000 F1500
G1 X583.0000 Y577.0000 F1500
G1 X582.0000 Y577.0000 F1500
G1 X578.0000 Y581.0000 F1500
G1 X577.0000 Y581.0000 F1500
G1 X573.0000 Y585.0000 F1500
G1 X572.0000 Y585.0000 F1500
G1 X568.0000 Y589.0000 F1500
G1 X567.0000 Y589.0000 F1500
G1 X562.0000 Y594.0000 F1500
G1 X561.0000 Y594.0000 F1500
G1 X558.0000 Y597.0000 F1500
G1 X557.0000 Y597.0000 F1500
G1 X553.0000 Y601.0000 F1500
G1 X552.0000 Y601.0000 F1500
G1 X548.0000 Y605.0000 F1500
G1 X547.0000 Y605.0000 F1500
G1 X543.0000 Y609.0000 F1500
G1 X542.0000 Y609.0000 F1500
G1 X538.0000 Y613.0000 F1500
G1 X537.0000 Y613.0000 F1500
G1 X534.0000 Y616.0000 F1500
G1 X533.0000 Y616.0000 F1500
G1 X529.0000 Y620.0000 F1500
G1 X528.0000 Y620.0000 F1500
G1 X524.0000 Y624.0000 F1500
G1 X523.0000 Y624.0000 F1500
G1 X519.0000 Y628.0000 F1500
G1 X518.0000 Y628.0000 F1500
G1 X514.0000 Y632.0000 F1500
G1 X513.0000 Y632.0000 F1500
G1 X509.0000 Y636.0000 F1500
G1 X508.0000 Y636.0000 F1500
G1 X504.0000 Y640.0000 F1500
G1 X503.0000 Y640.0000 F1500
G1 X499.0000 Y644.0000 F1500
G1 X498.0000 Y644.0000 F1500
G1 X494.0000 Y648.0000 F1500
G1 X493.0000 Y648.0000 F1500
G1 X490.0000 Y651.0000 F1500
G1 X489.0000 Y651.0000 F1500
G1 X485.0000 Y655.0000 F1500
G1 X484.0000 Y655.0000 F1500
G1 X480.0000 Y659.0000 F1500
G1 X479.0000 Y659.0000 F1500
G1 X478.0000 Y660.0000 F1500
G1 X477.0000 Y660.0000 F1500
G1 X476.0000 Y659.0000 F1500
G1 X478.0000 Y657.0000 F1500
G1 X479.0000 Y657.0000 F1500
G1 X483.0000 Y653.0000 F1500
G1 X484.0000 Y653.0000 F1500
G1 X488.0000 Y649.0000 F1500
G1 X489.0000 Y649.0000 F1500
G1 X492.0000 Y646.0000 F1500
G1 X493.0000 Y646.0000 F1500
G1 X497.0000 Y642.0000 F1500
G1 X498.0000 Y642.0000 F1500
G1 X502.0000 Y638.0000 F1500
G1 X503.0000 Y638.0000 F1500
G1 X507.0000 Y634.0000 F1500
G1 X508.0000 Y634.0000 F1500
G1 X512.0000 Y630.0000 F1500
G1 X513.0000 Y630.0000 F1500
G1 X517.0000 Y626.0000 F1500
G1 X518.0000 Y626.0000 F1500
G1 X522.0000 Y622.0000 F1500
G1 X523.0000 Y622.0000 F1500
G1 X527.0000 Y618.0000 F1500
G1 X528.0000 Y618.0000 F1500
G1 X532.0000 Y614.0000 F1500
G1 X533.0000 Y614.0000 F1500
G1 X536.0000 Y611.0000 F1500
G1 X537.0000 Y611.0000 F1500
G1 X541.0000 Y607.0000 F1500
G1 X542.0000 Y607.0000 F1500
G1 X546.0000 Y603.0000 F1500
G1 X547.0000 Y603.0000 F1500
G1 X551.0000 Y599.0000 F1500
G1 X552.0000 Y599.0000 F1500
G1 X556.0000 Y595.0000 F1500
G1 X557.0000 Y595.0000 F1500
G1 X560.0000 Y592.0000 F1500
G1 X561.0000 Y592.0000 F1500
G1 X566.0000 Y587.0000 F1500
G1 X567.0000 Y587.0000 F1500
G1 X571.0000 Y583.0000 F1500
G1 X572.0000 Y583.0000 F1500
G1 X576.0000 Y579.0000 F1500
G1 X577.0000 Y579.0000 F1500
G1 X581.0000 Y575.0000 F1500
G1 X582.0000 Y575.0000 F1500
G1 X585.0000 Y572.0000 F1500
G1 X586.0000 Y572.0000 F1500
G1 X590.0000 Y568.0000 F1500
G1 X591.0000 Y568.0000 F1500
G1 X596.0000 Y563.0000 F1500
G1 X597.0000 Y563.0000 F1500
G1 X600.0000 Y560.0000 F1500
G1 X601.0000 Y560.0000 F1500
G1 X605.0000 Y556.0000 F1500
G1 X606.0000 Y556.0000 F1500
G1 X610.0000 Y552.0000 F1500
G1 X611.0000 Y552.0000 F1500
G1 X615.0000 Y548.0000 F1500
G1 X616.0000 Y548.0000 F1500
G1 X620.0000 Y544.0000 F1500
G1 X621.0000 Y544.0000 F1500
G1 X624.0000 Y541.0000 F1500
G1 X625.0000 Y541.0000 F1500
G1 X630.0000 Y536.0000 F1500
G1 X631.0000 Y536.0000 F1500
G1 X635.0000 Y532.0000 F1500
G1 X636.0000 Y532.0000 F1500
G1 X639.0000 Y529.0000 F1500
G1 X640.0000 Y529.0000 F1500
G1 X644.0000 Y525.0000 F1500
G1 X645.0000 Y525.0000 F1500
G1 X649.0000 Y521.0000 F1500
G1 X650.0000 Y521.0000 F1500
G1 X651.0000 Y520.0000 F1500
G1 X652.0000 Y521.0000 F1500
G1 X652.0000 Y522.0000 F1500
G1 X654.0000 Y524.0000 F1500
G1 X654.0000 Y525.0000 F1500
G1 X655.0000 Y526.0000 F1500
G1 X655.0000 Y527.0000 F1500
G1 X657.0000 Y529.0000 F1500
G1 X657.0000 Y530.0000 F1500
G1 X656.0000 Y531.0000 F1500
G1 X654.0000 Y529.0000 F1500
G1 X656.0000 Y531.0000 F1500
G1 X654.0000 Y533.0000 F1500
G1 X657.0000 Y530.0000 F1500
G1 X658.0000 Y531.0000 F1500
G1 X658.0000 Y532.0000 F1500
G1 X655.0000 Y535.0000 F1500
G1 X654.0000 Y535.0000 F1500
G1 X650.0000 Y539.0000 F1500
G1 X649.0000 Y539.0000 F1500
G1 X645.0000 Y543.0000 F1500
G1 X644.0000 Y543.0000 F1500
G1 X639.0000 Y548.0000 F1500
G1 X638.0000 Y548.0000 F1500
G1 X635.0000 Y551.0000 F1500
G1 X634.0000 Y551.0000 F1500
G1 X630.0000 Y555.0000 F1500
G1 X629.0000 Y555.0000 F1500
G1 X626.0000 Y558.0000 F1500
G1 X625.0000 Y558.0000 F1500
G1 X621.0000 Y562.0000 F1500
G1 X620.0000 Y562.0000 F1500
G1 X616.0000 Y566.0000 F1500
G1 X615.0000 Y566.0000 F1500
G1 X611.0000 Y570.0000 F1500
G1 X610.0000 Y570.0000 F1500
G1 X605.0000 Y575.0000 F1500
G1 X604.0000 Y575.0000 F1500
G1 X600.0000 Y579.0000 F1500
G1 X599.0000 Y579.0000 F1500
G1 X595.0000 Y583.0000 F1500
G1 X594.0000 Y583.0000 F1500
G1 X589.0000 Y588.0000 F1500
G1 X588.0000 Y588.0000 F1500
G1 X585.0000 Y591.0000 F1500
G1 X584.0000 Y591.0000 F1500
G1 X580.0000 Y595.0000 F1500
G1 X579.0000 Y595.0000 F1500
G1 X575.0000 Y599.0000 F1500
G1 X574.0000 Y599.0000 F1500
G1 X571.0000 Y602.0000 F1500
G1 X570.0000 Y602.0000 F1500
G1 X566.0000 Y606.0000 F1500
G1 X565.0000 Y606.0000 F1500
G1 X560.0000 Y611.0000 F1500
G1 X559.0000 Y611.0000 F1500
G1 X555.0000 Y615.0000 F1500
G1 X554.0000 Y615.0000 F1500
G1 X550.0000 Y619.0000 F1500
G1 X549.0000 Y619.0000 F1500
G1 X546.0000 Y622.0000 F1500
G1 X545.0000 Y622.0000 F1500
G1 X541.0000 Y626.0000 F1500
G1 X540.0000 Y626.0000 F1500
G1 X536.0000 Y630.0000 F1500
G1 X535.0000 Y630.0000 F1500
G1 X531.0000 Y634.0000 F1500
G1 X530.0000 Y634.0000 F1500
G1 X526.0000 Y638.0000 F1500
G1 X525.0000 Y638.0000 F1500
G1 X521.0000 Y642.0000 F1500
G1 X520.0000 Y642.0000 F1500
G1 X516.0000 Y646.0000 F1500
G1 X515.0000 Y646.0000 F1500
G1 X512.0000 Y649.0000 F1500
G1 X511.0000 Y649.0000 F1500
G1 X506.0000 Y654.0000 F1500
G1 X505.0000 Y654.0000 F1500
G1 X501.0000 Y658.0000 F1500
G1 X500.0000 Y658.0000 F1500
G1 X496.0000 Y662.0000 F1500
G1 X495.0000 Y662.0000 F1500
G1 X494.0000 Y663.0000 F1500
G1 X473.0000 Y663.0000 F1500
G1 X472.0000 Y664.0000 F1500
G1 X471.0000 Y664.0000 F1500
G1 X472.0000 Y664.0000 F1500
G1 X473.0000 Y665.0000 F1500
G1 X494.0000 Y665.0000 F1500
G1 X473.0000 Y665.0000 F1500
G1 X472.0000 Y664.0000 F1500
G1 X473.0000 Y663.0000 F1500
G1 X495.0000 Y663.0000 F1500
G1 X496.0000 Y662.0000 F1500
G1 X497.0000 Y662.0000 F1500
G1 X501.0000 Y658.0000 F1500
G1 X502.0000 Y658.0000 F1500
G1 X506.0000 Y654.0000 F1500
G1 X507.0000 Y654.0000 F1500
G1 X512.0000 Y649.0000 F1500
G1 X513.0000 Y649.0000 F1500
G1 X516.0000 Y646.0000 F1500
G1 X517.0000 Y646.0000 F1500
G1 X521.0000 Y642.0000 F1500
G1 X522.0000 Y642.0000 F1500
G1 X526.0000 Y638.0000 F1500
G1 X527.0000 Y638.0000 F1500
G1 X531.0000 Y634.0000 F1500
G1 X532.0000 Y634.0000 F1500
G1 X536.0000 Y630.0000 F1500
G1 X537.0000 Y630.0000 F1500
G1 X541.0000 Y626.0000 F1500
G1 X542.0000 Y626.0000 F1500
G1 X546.0000 Y622.0000 F1500
G1 X547.0000 Y622.0000 F1500
G1 X550.0000 Y619.0000 F1500
G1 X551.0000 Y619.0000 F1500
G1 X555.0000 Y615.0000 F1500
G1 X556.0000 Y615.0000 F1500
G1 X560.0000 Y611.0000 F1500
G1 X561.0000 Y611.0000 F1500
G1 X564.0000 Y608.0000 F1500
G1 X564.0000 Y607.0000 F1500
G1 X565.0000 Y606.0000 F1500
G1 X567.0000 Y606.0000 F1500
G1 X571.0000 Y602.0000 F1500
G1 X572.0000 Y602.0000 F1500
G1 X575.0000 Y599.0000 F1500
G1 X576.0000 Y599.0000 F1500
G1 X580.0000 Y595.0000 F1500
G1 X581.0000 Y595.0000 F1500
G1 X585.0000 Y591.0000 F1500
G1 X586.0000 Y591.0000 F1500
G1 X589.0000 Y588.0000 F1500
G1 X590.0000 Y588.0000 F1500
G1 X595.0000 Y583.0000 F1500
G1 X596.0000 Y583.0000 F1500
G1 X600.0000 Y579.0000 F1500
G1 X601.0000 Y579.0000 F1500
G1 X605.0000 Y575.0000 F1500
G1 X606.0000 Y575.0000 F1500
G1 X611.0000 Y570.0000 F1500
G1 X612.0000 Y570.0000 F1500
G1 X616.0000 Y566.0000 F1500
G1 X617.0000 Y566.0000 F1500
G1 X621.0000 Y562.0000 F1500
G1 X622.0000 Y562.0000 F1500
G1 X626.0000 Y558.0000 F1500
G1 X627.0000 Y558.0000 F1500
G1 X630.0000 Y555.0000 F1500
G1 X631.0000 Y555.0000 F1500
G1 X635.0000 Y551.0000 F1500
G1 X636.0000 Y551.0000 F1500
G1 X639.0000 Y548.0000 F1500
G1 X640.0000 Y548.0000 F1500
G1 X645.0000 Y543.0000 F1500
G1 X646.0000 Y543.0000 F1500
G1 X650.0000 Y539.0000 F1500
G1 X651.0000 Y539.0000 F1500
G1 X655.0000 Y535.0000 F1500
G1 X656.0000 Y535.0000 F1500
G1 X658.0000 Y533.0000 F1500
G1 X658.0000 Y530.0000 F1500
G1 X657.0000 Y529.0000 F1500
G1 X657.0000 Y528.0000 F1500
G1 X655.0000 Y526.0000 F1500
G1 X655.0000 Y525.0000 F1500
G1 X654.0000 Y524.0000 F1500
G1 X654.0000 Y523.0000 F1500
G1 X653.0000 Y522.0000 F1500
G1 X654.0000 Y521.0000 F1500
G1 X654.0000 Y520.0000 F1500
G1 X654.0000 Y521.0000 F1500
G1 X653.0000 Y522.0000 F1500
G1 X652.0000 Y521.0000 F1500
G1 X652.0000 Y520.0000 F1500
G0 Z100.000 F5000 ; retract after polygon
(--- polygon 6 end ---)
(--- polygon 7 start ---)
G0 Z100.000 F5000 ; lift before travel
G0 X474.0000 Y291.0000 F5000 ; travel to polygon start
G1 Z0.000 F3000 ; plunge to cut depth
G1 X474.0000 Y291.0000 F1500 ; start cut at first vertex
G1 X473.0000 Y292.0000 F1500
G1 X471.0000 Y292.0000 F1500
G1 X470.0000 Y293.0000 F1500
G1 X469.0000 Y293.0000 F1500
G1 X468.0000 Y294.0000 F1500
G1 X467.0000 Y294.0000 F1500
G1 X466.0000 Y295.0000 F1500
G1 X464.0000 Y295.0000 F1500
G1 X463.0000 Y296.0000 F1500
G1 X461.0000 Y296.0000 F1500
G1 X463.0000 Y296.0000 F1500
G1 X464.0000 Y295.0000 F1500
G1 X466.0000 Y295.0000 F1500
G1 X467.0000 Y294.0000 F1500
G1 X468.0000 Y294.0000 F1500
G1 X469.0000 Y295.0000 F1500
G1 X467.0000 Y297.0000 F1500
G1 X465.0000 Y297.0000 F1500
G1 X464.0000 Y298.0000 F1500
G1 X477.0000 Y311.0000 F1500
G1 X477.0000 Y312.0000 F1500
G1 X478.0000 Y313.0000 F1500
G1 X478.0000 Y314.0000 F1500
G1 X479.0000 Y315.0000 F1500
G1 X479.0000 Y316.0000 F1500
G1 X480.0000 Y317.0000 F1500
G1 X480.0000 Y320.0000 F1500
G1 X479.0000 Y321.0000 F1500
G1 X478.0000 Y320.0000 F1500
G1 X478.0000 Y318.0000 F1500
G1 X477.0000 Y317.0000 F1500
G1 X477.0000 Y316.0000 F1500
G1 X476.0000 Y315.0000 F1500
G1 X476.0000 Y314.0000 F1500
G1 X475.0000 Y313.0000 F1500
G1 X475.0000 Y312.0000 F1500
G1 X461.0000 Y298.0000 F1500
G1 X460.0000 Y298.0000 F1500
G1 X475.0000 Y313.0000 F1500
G1 X475.0000 Y314.0000 F1500
G1 X476.0000 Y315.0000 F1500
G1 X476.0000 Y316.0000 F1500
G1 X478.0000 Y318.0000 F1500
G1 X478.0000 Y320.0000 F1500
G1 X479.0000 Y321.0000 F1500
G1 X479.0000 Y324.0000 F1500
G1 X480.0000 Y325.0000 F1500
G1 X480.0000 Y330.0000 F1500
G1 X479.0000 Y331.0000 F1500
G1 X479.0000 Y334.0000 F1500
G1 X478.0000 Y335.0000 F1500
G1 X478.0000 Y336.0000 F1500
G1 X477.0000 Y337.0000 F1500
G1 X477.0000 Y338.0000 F1500
G1 X475.0000 Y340.0000 F1500
G1 X475.0000 Y341.0000 F1500
G1 X451.0000 Y365.0000 F1500
G1 X450.0000 Y365.0000 F1500
G1 X448.0000 Y367.0000 F1500
G1 X446.0000 Y367.0000 F1500
G1 X445.0000 Y368.0000 F1500
G1 X440.0000 Y368.0000 F1500
G1 X439.0000 Y369.0000 F1500
G1 X438.0000 Y369.0000 F1500
G1 X437.0000 Y368.0000 F1500
G1 X432.0000 Y368.0000 F1500
G1 X431.0000 Y367.0000 F1500
G1 X430.0000 Y367.0000 F1500
G1 X428.0000 Y365.0000 F1500
G1 X429.0000 Y364.0000 F1500
G1 X428.0000 Y365.0000 F1500
G1 X426.0000 Y365.0000 F1500
G1 X422.0000 Y361.0000 F1500
G1 X417.0000 Y361.0000 F1500
G1 X393.0000 Y385.0000 F1500
G1 X392.0000 Y385.0000 F1500
G1 X380.0000 Y397.0000 F1500
G1 X380.0000 Y398.0000 F1500
G1 X379.0000 Y399.0000 F1500
G1 X378.0000 Y399.0000 F1500
G1 X375.0000 Y402.0000 F1500
G1 X374.0000 Y402.0000 F1500
G1 X356.0000 Y420.0000 F1500
G1 X355.0000 Y420.0000 F1500
G1 X339.0000 Y436.0000 F1500
G1 X338.0000 Y436.0000 F1500
G1 X319.0000 Y455.0000 F1500
G1 X318.0000 Y455.0000 F1500
G1 X304.0000 Y469.0000 F1500
G1 X303.0000 Y469.0000 F1500
G1 X285.0000 Y487.0000 F1500
G1 X284.0000 Y487.0000 F1500
G1 X266.0000 Y505.0000 F1500
G1 X265.0000 Y505.0000 F1500
G1 X261.0000 Y509.0000 F1500
G1 X260.0000 Y509.0000 F1500
G1 X259.0000 Y510.0000 F1500
G1 X257.0000 Y510.0000 F1500
G1 X259.0000 Y510.0000 F1500
G1 X260.0000 Y509.0000 F1500
G1 X262.0000 Y509.0000 F1500
G1 X266.0000 Y505.0000 F1500
G1 X267.0000 Y505.0000 F1500
G1 X285.0000 Y487.0000 F1500
G1 X286.0000 Y487.0000 F1500
G1 X305.0000 Y468.0000 F1500
G1 X306.0000 Y468.0000 F1500
G1 X321.0000 Y453.0000 F1500
G1 X322.0000 Y453.0000 F1500
G1 X339.0000 Y436.0000 F1500
G1 X340.0000 Y436.0000 F1500
G1 X357.0000 Y419.0000 F1500
G1 X358.0000 Y419.0000 F1500
G1 X366.0000 Y411.0000 F1500
G1 X366.0000 Y410.0000 F1500
G1 X367.0000 Y409.0000 F1500
G1 X368.0000 Y409.0000 F1500
G1 X376.0000 Y401.0000 F1500
G1 X377.0000 Y401.0000 F1500
G1 X394.0000 Y384.0000 F1500
G1 X395.0000 Y384.0000 F1500
G1 X410.0000 Y369.0000 F1500
G1 X410.0000 Y368.0000 F1500
G1 X411.0000 Y367.0000 F1500
G1 X412.0000 Y367.0000 F1500
G1 X418.0000 Y361.0000 F1500
G1 X421.0000 Y361.0000 F1500
G1 X425.0000 Y365.0000 F1500
G1 X427.0000 Y365.0000 F1500
G1 X428.0000 Y366.0000 F1500
G1 X429.0000 Y366.0000 F1500
G1 X430.0000 Y367.0000 F1500
G1 X429.0000 Y368.0000 F1500
G1 X430.0000 Y369.0000 F1500
G1 X431.0000 Y369.0000 F1500
G1 X432.0000 Y370.0000 F1500
G1 X437.0000 Y370.0000 F1500
G1 X438.0000 Y371.0000 F1500
G1 X437.0000 Y372.0000 F1500
G1 X436.0000 Y372.0000 F1500
G1 X437.0000 Y372.0000 F1500
G1 X438.0000 Y371.0000 F1500
G1 X439.0000 Y371.0000 F1500
G1 X440.0000 Y370.0000 F1500
G1 X445.0000 Y370.0000 F1500
G1 X446.0000 Y369.0000 F1500
G1 X449.0000 Y369.0000 F1500
G1 X450.0000 Y368.0000 F1500
G1 X451.0000 Y368.0000 F1500
G1 X452.0000 Y367.0000 F1500
G1 X453.0000 Y367.0000 F1500
G1 X478.0000 Y342.0000 F1500
G1 X478.0000 Y341.0000 F1500
G1 X479.0000 Y340.0000 F1500
G1 X479.0000 Y339.0000 F1500
G1 X480.0000 Y338.0000 F1500
G1 X480.0000 Y335.0000 F1500
G1 X481.0000 Y334.0000 F1500
G1 X481.0000 Y331.0000 F1500
G1 X482.0000 Y330.0000 F1500
G1 X483.0000 Y331.0000 F1500
G1 X483.0000 Y332.0000 F1500
G1 X483.0000 Y331.0000 F1500
G1 X482.0000 Y330.0000 F1500
G1 X482.0000 Y325.0000 F1500
G1 X483.0000 Y324.0000 F1500
G1 X482.0000 Y325.0000 F1500
G1 X481.0000 Y324.0000 F1500
G1 X481.0000 Y321.0000 F1500
G1 X480.0000 Y320.0000 F1500
G1 X480.0000 Y316.0000 F1500
G1 X479.0000 Y315.0000 F1500
G1 X479.0000 Y314.0000 F1500
G1 X477.0000 Y312.0000 F1500
G1 X477.0000 Y311.0000 F1500
G1 X465.0000 Y299.0000 F1500
G1 X465.0000 Y298.0000 F1500
G1 X466.0000 Y297.0000 F1500
G1 X468.0000 Y297.0000 F1500
G1 X468.0000 Y296.0000 F1500
G1 X469.0000 Y295.0000 F1500
G1 X472.0000 Y295.0000 F1500
G1 X474.0000 Y293.0000 F1500
G1 X478.0000 Y293.0000 F1500
G1 X474.0000 Y293.0000 F1500
G1 X473.0000 Y292.0000 F1500
G1 X474.0000 Y291.0000 F1500
G1 X479.0000 Y291.0000 F1500
G1 X482.0000 Y294.0000 F1500
G1 X483.0000 Y294.0000 F1500
G1 X529.0000 Y340.0000 F1500
G1 X529.0000 Y341.0000 F1500
G1 X568.0000 Y380.0000 F1500
G1 X569.0000 Y380.0000 F1500
G1 X529.0000 Y340.0000 F1500
G1 X529.0000 Y339.0000 F1500
G1 X484.0000 Y294.0000 F1500
G1 X483.0000 Y294.0000 F1500
G1 X480.0000 Y291.0000 F1500
G0 Z100.000 F5000 ; retract after polygon
(--- polygon 7 end ---)
(--- polygon 8 start ---)
G0 Z100.000 F5000 ; lift before travel
G0 X748.0000 Y400.0000 F5000 ; travel to polygon start
G1 Z0.000 F3000 ; plunge to cut depth
G1 X748.0000 Y400.0000 F1500 ; start cut at first vertex
G1 X747.0000 Y401.0000 F1500
G1 X744.0000 Y401.0000 F1500
G1 X743.0000 Y402.0000 F1500
G1 X740.0000 Y402.0000 F1500
G1 X739.0000 Y403.0000 F1500
G1 X737.0000 Y403.0000 F1500
G1 X736.0000 Y404.0000 F1500
G1 X735.0000 Y404.0000 F1500
G1 X734.0000 Y405.0000 F1500
G1 X732.0000 Y405.0000 F1500
G1 X731.0000 Y406.0000 F1500
G1 X730.0000 Y406.0000 F1500
G1 X729.0000 Y407.0000 F1500
G1 X728.0000 Y407.0000 F1500
G1 X727.0000 Y408.0000 F1500
G1 X726.0000 Y408.0000 F1500
G1 X724.0000 Y410.0000 F1500
G1 X723.0000 Y410.0000 F1500
G1 X721.0000 Y412.0000 F1500
G1 X720.0000 Y412.0000 F1500
G1 X718.0000 Y414.0000 F1500
G1 X717.0000 Y414.0000 F1500
G1 X706.0000 Y425.0000 F1500
G1 X706.0000 Y426.0000 F1500
G1 X703.0000 Y429.0000 F1500
G1 X703.0000 Y430.0000 F1500
G1 X701.0000 Y432.0000 F1500
G1 X701.0000 Y433.0000 F1500
G1 X700.0000 Y434.0000 F1500
G1 X700.0000 Y435.0000 F1500
G1 X699.0000 Y436.0000 F1500
G1 X699.0000 Y437.0000 F1500
G1 X698.0000 Y438.0000 F1500
G1 X697.0000 Y437.0000 F1500
G1 X697.0000 Y435.0000 F1500
G1 X698.0000 Y434.0000 F1500
G1 X698.0000 Y433.0000 F1500
G1 X699.0000 Y432.0000 F1500
G1 X698.0000 Y433.0000 F1500
G1 X698.0000 Y434.0000 F1500
G1 X697.0000 Y435.0000 F1500
G1 X697.0000 Y437.0000 F1500
G1 X696.0000 Y438.0000 F1500
G1 X697.0000 Y437.0000 F1500
G1 X698.0000 Y438.0000 F1500
G1 X698.0000 Y440.0000 F1500
G1 X697.0000 Y441.0000 F1500
G1 X697.0000 Y442.0000 F1500
G1 X696.0000 Y443.0000 F1500
G1 X695.0000 Y442.0000 F1500
G1 X695.0000 Y440.0000 F1500
G1 X695.0000 Y442.0000 F1500
G1 X694.0000 Y443.0000 F1500
G1 X694.0000 Y444.0000 F1500
G1 X694.0000 Y443.0000 F1500
G1 X695.0000 Y442.0000 F1500
G1 X696.0000 Y443.0000 F1500
G1 X696.0000 Y445.0000 F1500
G1 X695.0000 Y446.0000 F1500
G1 X695.0000 Y448.0000 F1500
G1 X694.0000 Y449.0000 F1500
G1 X694.0000 Y452.0000 F1500
G1 X693.0000 Y453.0000 F1500
G1 X693.0000 Y458.0000 F1500
G1 X692.0000 Y459.0000 F1500
G1 X692.0000 Y474.0000 F1500
G1 X693.0000 Y475.0000 F1500
G1 X693.0000 Y480.0000 F1500
G1 X694.0000 Y481.0000 F1500
G1 X694.0000 Y485.0000 F1500
G1 X693.0000 Y486.0000 F1500
G1 X693.0000 Y488.0000 F1500
G1 X694.0000 Y489.0000 F1500
G1 X694.0000 Y491.0000 F1500
G1 X695.0000 Y492.0000 F1500
G1 X695.0000 Y493.0000 F1500
G1 X695.0000 Y492.0000 F1500
G1 X696.0000 Y491.0000 F1500
G1 X697.0000 Y492.0000 F1500
G1 X697.0000 Y493.0000 F1500
G1 X698.0000 Y494.0000 F1500
G1 X698.0000 Y496.0000 F1500
G1 X699.0000 Y497.0000 F1500
G1 X699.0000 Y498.0000 F1500
G1 X700.0000 Y499.0000 F1500
G1 X700.0000 Y500.0000 F1500
G1 X701.0000 Y501.0000 F1500
G1 X701.0000 Y502.0000 F1500
G1 X703.0000 Y504.0000 F1500
G1 X703.0000 Y505.0000 F1500
G1 X705.0000 Y507.0000 F1500
G1 X705.0000 Y508.0000 F1500
G1 X711.0000 Y514.0000 F1500
G1 X711.0000 Y515.0000 F1500
G1 X712.0000 Y515.0000 F1500
G1 X718.0000 Y521.0000 F1500
G1 X719.0000 Y521.0000 F1500
G1 X721.0000 Y523.0000 F1500
G1 X722.0000 Y523.0000 F1500
G1 X724.0000 Y525.0000 F1500
G1 X725.0000 Y525.0000 F1500
G1 X726.0000 Y526.0000 F1500
G1 X727.0000 Y526.0000 F1500
G1 X728.0000 Y527.0000 F1500
G1 X729.0000 Y527.0000 F1500
G1 X730.0000 Y528.0000 F1500
G1 X731.0000 Y528.0000 F1500
G1 X732.0000 Y529.0000 F1500
G1 X731.0000 Y530.0000 F1500
G1 X729.0000 Y530.0000 F1500
G1 X728.0000 Y529.0000 F1500
G1 X727.0000 Y529.0000 F1500
G1 X726.0000 Y528.0000 F1500
G1 X725.0000 Y528.0000 F1500
G1 X724.0000 Y527.0000 F1500
G1 X725.0000 Y528.0000 F1500
G1 X726.0000 Y528.0000 F1500
G1 X727.0000 Y529.0000 F1500
G1 X728.0000 Y529.0000 F1500
G1 X729.0000 Y530.0000 F1500
G1 X731.0000 Y530.0000 F1500
G1 X733.0000 Y532.0000 F1500
G1 X735.0000 Y532.0000 F1500
G1 X736.0000 Y531.0000 F1500
G1 X738.0000 Y531.0000 F1500
G1 X739.0000 Y532.0000 F1500
G1 X738.0000 Y533.0000 F1500
G1 X737.0000 Y533.0000 F1500
G1 X738.0000 Y533.0000 F1500
G1 X739.0000 Y534.0000 F1500
G1 X741.0000 Y534.0000 F1500
G1 X742.0000 Y535.0000 F1500
G1 X741.0000 Y536.0000 F1500
G1 X742.0000 Y535.0000 F1500
G1 X746.0000 Y535.0000 F1500
G1 X747.0000 Y536.0000 F1500
G1 X753.0000 Y536.0000 F1500
G1 X754.0000 Y537.0000 F1500
G1 X753.0000 Y538.0000 F1500
G1 X752.0000 Y538.0000 F1500
G1 X753.0000 Y538.0000 F1500
G1 X754.0000 Y537.0000 F1500
G1 X764.0000 Y537.0000 F1500
G1 X765.0000 Y538.0000 F1500
G1 X767.0000 Y538.0000 F1500
G1 X765.0000 Y538.0000 F1500
G1 X764.0000 Y537.0000 F1500
G1 X765.0000 Y536.0000 F1500
G1 X770.0000 Y536.0000 F1500
G1 X771.0000 Y535.0000 F1500
G1 X775.0000 Y535.0000 F1500
G1 X776.0000 Y534.0000 F1500
G1 X778.0000 Y534.0000 F1500
G1 X779.0000 Y533.0000 F1500
G1 X781.0000 Y533.0000 F1500
G1 X782.0000 Y532.0000 F1500
G1 X785.0000 Y532.0000 F1500
G1 X786.0000 Y531.0000 F1500
G1 X787.0000 Y532.0000 F1500
G1 X786.0000 Y531.0000 F1500
G1 X787.0000 Y530.0000 F1500
G1 X789.0000 Y530.0000 F1500
G1 X790.0000 Y529.0000 F1500
G1 X791.0000 Y529.0000 F1500
G1 X792.0000 Y528.0000 F1500
G1 X793.0000 Y528.0000 F1500
G1 X794.0000 Y527.0000 F1500
G1 X795.0000 Y527.0000 F1500
G1 X797.0000 Y525.0000 F1500
G1 X798.0000 Y525.0000 F1500
G1 X802.0000 Y521.0000 F1500
G1 X803.0000 Y521.0000 F1500
G1 X812.0000 Y512.0000 F1500
G1 X812.0000 Y511.0000 F1500
G1 X815.0000 Y508.0000 F1500
G1 X815.0000 Y507.0000 F1500
G1 X817.0000 Y505.0000 F1500
G1 X817.0000 Y504.0000 F1500
G1 X819.0000 Y502.0000 F1500
G1 X819.0000 Y501.0000 F1500
G1 X820.0000 Y500.0000 F1500
G1 X820.0000 Y497.0000 F1500
G1 X821.0000 Y496.0000 F1500
G1 X822.0000 Y497.0000 F1500
G1 X822.0000 Y498.0000 F1500
G1 X822.0000 Y497.0000 F1500
G1 X821.0000 Y496.0000 F1500
G1 X821.0000 Y495.0000 F1500
G1 X822.0000 Y494.0000 F1500
G1 X822.0000 Y492.0000 F1500
G1 X823.0000 Y491.0000 F1500
G1 X823.0000 Y490.0000 F1500
G1 X824.0000 Y489.0000 F1500
G1 X824.0000 Y487.0000 F1500
G1 X825.0000 Y486.0000 F1500
G1 X825.0000 Y483.0000 F1500
G1 X826.0000 Y482.0000 F1500
G1 X827.0000 Y483.0000 F1500
G1 X826.0000 Y482.0000 F1500
G1 X826.0000 Y479.0000 F1500
G1 X827.0000 Y478.0000 F1500
G1 X827.0000 Y473.0000 F1500
G1 X828.0000 Y472.0000 F1500
G1 X829.0000 Y473.0000 F1500
G1 X828.0000 Y472.0000 F1500
G1 X828.0000 Y462.0000 F1500
G1 X827.0000 Y461.0000 F1500
G1 X827.0000 Y455.0000 F1500
G1 X826.0000 Y454.0000 F1500
G1 X826.0000 Y451.0000 F1500
G1 X825.0000 Y450.0000 F1500
G1 X825.0000 Y447.0000 F1500
G1 X824.0000 Y446.0000 F1500
G1 X824.0000 Y445.0000 F1500
G1 X823.0000 Y444.0000 F1500
G1 X823.0000 Y442.0000 F1500
G1 X822.0000 Y441.0000 F1500
G1 X822.0000 Y440.0000 F1500
G1 X821.0000 Y439.0000 F1500
G1 X821.0000 Y436.0000 F1500
G1 X820.0000 Y435.0000 F1500
G1 X820.0000 Y434.0000 F1500
G1 X818.0000 Y432.0000 F1500
G1 X818.0000 Y431.0000 F1500
G1 X816.0000 Y429.0000 F1500
G1 X816.0000 Y428.0000 F1500
G1 X814.0000 Y426.0000 F1500
G1 X814.0000 Y425.0000 F1500
G1 X807.0000 Y418.0000 F1500
G1 X807.0000 Y417.0000 F1500
G1 X806.0000 Y416.0000 F1500
G1 X805.0000 Y416.0000 F1500
G1 X801.0000 Y412.0000 F1500
G1 X800.0000 Y412.0000 F1500
G1 X797.0000 Y409.0000 F1500
G1 X796.0000 Y409.0000 F1500
G1 X794.0000 Y407.0000 F1500
G1 X793.0000 Y407.0000 F1500
G1 X792.0000 Y406.0000 F1500
G1 X791.0000 Y406.0000 F1500
G1 X789.0000 Y404.0000 F1500
G1 X788.0000 Y404.0000 F1500
G1 X787.0000 Y403.0000 F1500
G1 X787.0000 Y404.0000 F1500
G1 X788.0000 Y404.0000 F1500
G1 X789.0000 Y405.0000 F1500
G1 X790.0000 Y405.0000 F1500
G1 X791.0000 Y406.0000 F1500
G1 X792.0000 Y406.0000 F1500
G1 X794.0000 Y408.0000 F1500
G1 X795.0000 Y408.0000 F1500
G1 X797.0000 Y410.0000 F1500
G1 X798.0000 Y410.0000 F1500
G1 X800.0000 Y412.0000 F1500
G1 X801.0000 Y412.0000 F1500
G1 X813.0000 Y424.0000 F1500
G1 X813.0000 Y425.0000 F1500
G1 X815.0000 Y427.0000 F1500
G1 X815.0000 Y428.0000 F1500
G1 X818.0000 Y431.0000 F1500
G1 X818.0000 Y432.0000 F1500
G1 X819.0000 Y433.0000 F1500
G1 X819.0000 Y434.0000 F1500
G1 X820.0000 Y435.0000 F1500
G1 X820.0000 Y436.0000 F1500
G1 X821.0000 Y437.0000 F1500
G1 X821.0000 Y439.0000 F1500
G1 X822.0000 Y440.0000 F1500
G1 X822.0000 Y441.0000 F1500
G1 X821.0000 Y442.0000 F1500
G1 X820.0000 Y441.0000 F1500
G1 X821.0000 Y442.0000 F1500
G1 X821.0000 Y444.0000 F1500
G1 X822.0000 Y445.0000 F1500
G1 X822.0000 Y446.0000 F1500
G1 X823.0000 Y447.0000 F1500
G1 X823.0000 Y450.0000 F1500
G1 X824.0000 Y451.0000 F1500
G1 X824.0000 Y454.0000 F1500
G1 X825.0000 Y455.0000 F1500
G1 X825.0000 Y461.0000 F1500
G1 X826.0000 Y462.0000 F1500
G1 X826.0000 Y472.0000 F1500
G1 X825.0000 Y473.0000 F1500
G1 X825.0000 Y478.0000 F1500
G1 X824.0000 Y479.0000 F1500
G1 X824.0000 Y482.0000 F1500
G1 X823.0000 Y483.0000 F1500
G1 X823.0000 Y486.0000 F1500
G1 X822.0000 Y487.0000 F1500
G1 X822.0000 Y489.0000 F1500
G1 X821.0000 Y490.0000 F1500
G1 X821.0000 Y491.0000 F1500
G1 X820.0000 Y492.0000 F1500
G1 X820.0000 Y494.0000 F1500
G1 X819.0000 Y495.0000 F1500
G1 X819.0000 Y496.0000 F1500
G1 X818.0000 Y497.0000 F1500
G1 X818.0000 Y498.0000 F1500
G1 X816.0000 Y500.0000 F1500
G1 X816.0000 Y501.0000 F1500
G1 X815.0000 Y502.0000 F1500
G1 X815.0000 Y503.0000 F1500
G1 X816.0000 Y502.0000 F1500
G1 X816.0000 Y501.0000 F1500
G1 X817.0000 Y500.0000 F1500
G1 X817.0000 Y499.0000 F1500
G1 X818.0000 Y498.0000 F1500
G1 X818.0000 Y497.0000 F1500
G1 X819.0000 Y496.0000 F1500
G1 X820.0000 Y497.0000 F1500
G1 X820.0000 Y499.0000 F1500
G1 X819.0000 Y500.0000 F1500
G1 X819.0000 Y501.0000 F1500
G1 X818.0000 Y502.0000 F1500
G1 X818.0000 Y503.0000 F1500
G1 X816.0000 Y505.0000 F1500
G1 X816.0000 Y506.0000 F1500
G1 X814.0000 Y508.0000 F1500
G1 X814.0000 Y509.0000 F1500
G1 X810.0000 Y513.0000 F1500
G1 X810.0000 Y514.0000 F1500
G1 X804.0000 Y520.0000 F1500
G1 X803.0000 Y520.0000 F1500
G1 X799.0000 Y524.0000 F1500
G1 X798.0000 Y524.0000 F1500
G1 X796.0000 Y526.0000 F1500
G1 X795.0000 Y526.0000 F1500
G1 X793.0000 Y528.0000 F1500
G1 X791.0000 Y528.0000 F1500
G1 X789.0000 Y530.0000 F1500
G1 X787.0000 Y530.0000 F1500
G1 X786.0000 Y529.0000 F1500
G1 X787.0000 Y528.0000 F1500
G1 X788.0000 Y528.0000 F1500
G1 X790.0000 Y526.0000 F1500
G1 X792.0000 Y526.0000 F1500
G1 X794.0000 Y524.0000 F1500
G1 X795.0000 Y524.0000 F1500
G1 X797.0000 Y522.0000 F1500
G1 X798.0000 Y522.0000 F1500
G1 X802.0000 Y518.0000 F1500
G1 X803.0000 Y518.0000 F1500
G1 X808.0000 Y513.0000 F1500
G1 X808.0000 Y512.0000 F1500
G1 X812.0000 Y508.0000 F1500
G1 X812.0000 Y507.0000 F1500
G1 X814.0000 Y505.0000 F1500
G1 X813.0000 Y505.0000 F1500
G1 X812.0000 Y506.0000 F1500
G1 X812.0000 Y507.0000 F1500
G1 X808.0000 Y511.0000 F1500
G1 X808.0000 Y512.0000 F1500
G1 X801.0000 Y519.0000 F1500
G1 X800.0000 Y519.0000 F1500
G1 X797.0000 Y522.0000 F1500
G1 X796.0000 Y522.0000 F1500
G1 X794.0000 Y524.0000 F1500
G1 X793.0000 Y524.0000 F1500
G1 X791.0000 Y526.0000 F1500
G1 X790.0000 Y526.0000 F1500
G1 X789.0000 Y527.0000 F1500
G1 X788.0000 Y527.0000 F1500
G1 X786.0000 Y529.0000 F1500
G1 X784.0000 Y529.0000 F1500
G1 X783.0000 Y530.0000 F1500
G1 X782.0000 Y530.0000 F1500
G1 X781.0000 Y531.0000 F1500
G1 X779.0000 Y531.0000 F1500
G1 X778.0000 Y532.0000 F1500
G1 X776.0000 Y532.0000 F1500
G1 X775.0000 Y533.0000 F1500
G1 X771.0000 Y533.0000 F1500
G1 X770.0000 Y534.0000 F1500
G1 X765.0000 Y534.0000 F1500
G1 X764.0000 Y535.0000 F1500
G1 X754.0000 Y535.0000 F1500
G1 X753.0000 Y534.0000 F1500
G1 X747.0000 Y534.0000 F1500
G1 X746.0000 Y533.0000 F1500
G1 X742.0000 Y533.0000 F1500
G1 X741.0000 Y532.0000 F1500
G1 X739.0000 Y532.0000 F1500
G1 X738.0000 Y531.0000 F1500
G1 X736.0000 Y531.0000 F1500
G1 X735.0000 Y530.0000 F1500
G1 X734.0000 Y530.0000 F1500
G1 X733.0000 Y529.0000 F1500
G1 X732.0000 Y529.0000 F1500
G1 X731.0000 Y528.0000 F1500
G1 X730.0000 Y528.0000 F1500
G1 X729.0000 Y527.0000 F1500
G1 X728.0000 Y527.0000 F1500
G1 X726.0000 Y525.0000 F1500
G1 X725.0000 Y525.0000 F1500
G1 X723.0000 Y523.0000 F1500
G1 X722.0000 Y523.0000 F1500
G1 X720.0000 Y521.0000 F1500
G1 X719.0000 Y521.0000 F1500
G1 X713.0000 Y515.0000 F1500
G1 X712.0000 Y515.0000 F1500
G1 X711.0000 Y514.0000 F1500
G1 X711.0000 Y513.0000 F1500
G1 X705.0000 Y507.0000 F1500
G1 X705.0000 Y506.0000 F1500
G1 X703.0000 Y504.0000 F1500
G1 X703.0000 Y503.0000 F1500
G1 X704.0000 Y502.0000 F1500
G1 X703.0000 Y503.0000 F1500
G1 X701.0000 Y501.0000 F1500
G1 X701.0000 Y500.0000 F1500
G1 X700.0000 Y499.0000 F1500
G1 X701.0000 Y498.0000 F1500
G1 X701.0000 Y497.0000 F1500
G1 X700.0000 Y496.0000 F1500
G1 X700.0000 Y495.0000 F1500
G1 X700.0000 Y496.0000 F1500
G1 X699.0000 Y497.0000 F1500
G1 X698.0000 Y496.0000 F1500
G1 X698.0000 Y494.0000 F1500
G1 X697.0000 Y493.0000 F1500
G1 X697.0000 Y492.0000 F1500
G1 X698.0000 Y491.0000 F1500
G1 X699.0000 Y492.0000 F1500
G1 X698.0000 Y491.0000 F1500
G1 X698.0000 Y489.0000 F1500
G1 X697.0000 Y488.0000 F1500
G1 X697.0000 Y486.0000 F1500
G1 X696.0000 Y485.0000 F1500
G1 X696.0000 Y481.0000 F1500
G1 X695.0000 Y480.0000 F1500
G1 X695.0000 Y475.0000 F1500
G1 X694.0000 Y474.0000 F1500
G1 X694.0000 Y459.0000 F1500
G1 X695.0000 Y458.0000 F1500
G1 X695.0000 Y453.0000 F1500
G1 X696.0000 Y452.0000 F1500
G1 X695.0000 Y451.0000 F1500
G1 X696.0000 Y450.0000 F1500
G1 X695.0000 Y451.0000 F1500
G1 X694.0000 Y450.0000 F1500
G1 X694.0000 Y449.0000 F1500
G1 X695.0000 Y448.0000 F1500
G1 X695.0000 Y446.0000 F1500
G1 X696.0000 Y445.0000 F1500
G1 X697.0000 Y446.0000 F1500
G1 X697.0000 Y448.0000 F1500
G1 X697.0000 Y446.0000 F1500
G1 X698.0000 Y445.0000 F1500
G1 X698.0000 Y442.0000 F1500
G1 X697.0000 Y441.0000 F1500
G1 X698.0000 Y440.0000 F1500
G1 X698.0000 Y438.0000 F1500
G1 X699.0000 Y437.0000 F1500
G1 X700.0000 Y438.0000 F1500
G1 X700.0000 Y440.0000 F1500
G1 X700.0000 Y438.0000 F1500
G1 X701.0000 Y437.0000 F1500
G1 X700.0000 Y436.0000 F1500
G1 X700.0000 Y435.0000 F1500
G1 X701.0000 Y434.0000 F1500
G1 X701.0000 Y433.0000 F1500
G1 X703.0000 Y431.0000 F1500
G1 X703.0000 Y430.0000 F1500
G1 X706.0000 Y427.0000 F1500
G1 X706.0000 Y426.0000 F1500
G1 X718.0000 Y414.0000 F1500
G1 X719.0000 Y414.0000 F1500
G1 X721.0000 Y412.0000 F1500
G1 X722.0000 Y412.0000 F1500
G1 X724.0000 Y410.0000 F1500
G1 X725.0000 Y410.0000 F1500
G1 X727.0000 Y408.0000 F1500
G1 X728.0000 Y408.0000 F1500
G1 X730.0000 Y406.0000 F1500
G1 X731.0000 Y406.0000 F1500
G1 X732.0000 Y405.0000 F1500
G1 X734.0000 Y405.0000 F1500
G1 X735.0000 Y406.0000 F1500
G1 X734.0000 Y407.0000 F1500
G1 X733.0000 Y407.0000 F1500
G1 X734.0000 Y407.0000 F1500
G1 X735.0000 Y406.0000 F1500
G1 X736.0000 Y406.0000 F1500
G1 X737.0000 Y405.0000 F1500
G1 X739.0000 Y405.0000 F1500
G1 X740.0000 Y404.0000 F1500
G1 X743.0000 Y404.0000 F1500
G1 X740.0000 Y404.0000 F1500
G1 X739.0000 Y403.0000 F1500
G1 X740.0000 Y402.0000 F1500
G1 X743.0000 Y402.0000 F1500
G1 X744.0000 Y401.0000 F1500
G1 X747.0000 Y401.0000 F1500
G1 X748.0000 Y402.0000 F1500
G1 X769.0000 Y402.0000 F1500
G1 X770.0000 Y403.0000 F1500
G1 X774.0000 Y403.0000 F1500
G1 X775.0000 Y404.0000 F1500
G1 X777.0000 Y404.0000 F1500
G1 X778.0000 Y405.0000 F1500
G1 X779.0000 Y405.0000 F1500
G1 X778.0000 Y405.0000 F1500
G1 X777.0000 Y404.0000 F1500
G1 X778.0000 Y403.0000 F1500
G1 X780.0000 Y403.0000 F1500
G1 X781.0000 Y404.0000 F1500
G1 X783.0000 Y404.0000 F1500
G1 X784.0000 Y405.0000 F1500
G1 X783.0000 Y406.0000 F1500
G1 X784.0000 Y405.0000 F1500
G1 X785.0000 Y405.0000 F1500
G1 X786.0000 Y406.0000 F1500
G1 X787.0000 Y406.0000 F1500
G1 X788.0000 Y407.0000 F1500
G1 X787.0000 Y408.0000 F1500
G1 X786.0000 Y408.0000 F1500
G1 X787.0000 Y408.0000 F1500
G1 X788.0000 Y407.0000 F1500
G1 X789.0000 Y408.0000 F1500
G1 X790.0000 Y408.0000 F1500
G1 X791.0000 Y409.0000 F1500
G1 X792.0000 Y409.0000 F1500
G1 X795.0000 Y412.0000 F1500
G1 X796.0000 Y412.0000 F1500
G1 X798.0000 Y414.0000 F1500
G1 X799.0000 Y414.0000 F1500
G1 X811.0000 Y426.0000 F1500
G1 X811.0000 Y427.0000 F1500
G1 X814.0000 Y430.0000 F1500
G1 X814.0000 Y431.0000 F1500
G1 X816.0000 Y433.0000 F1500
G1 X816.0000 Y434.0000 F1500
G1 X817.0000 Y435.0000 F1500
G1 X817.0000 Y436.0000 F1500
G1 X819.0000 Y438.0000 F1500
G1 X819.0000 Y439.0000 F1500
G1 X819.0000 Y438.0000 F1500
G1 X818.0000 Y437.0000 F1500
G1 X818.0000 Y436.0000 F1500
G1 X817.0000 Y435.0000 F1500
G1 X817.0000 Y434.0000 F1500
G1 X816.0000 Y433.0000 F1500
G1 X816.0000 Y432.0000 F1500
G1 X813.0000 Y429.0000 F1500
G1 X813.0000 Y428.0000 F1500
G1 X811.0000 Y426.0000 F1500
G1 X811.0000 Y425.0000 F1500
G1 X800.0000 Y414.0000 F1500
G1 X799.0000 Y414.0000 F1500
G1 X797.0000 Y412.0000 F1500
G1 X796.0000 Y412.0000 F1500
G1 X794.0000 Y410.0000 F1500
G1 X793.0000 Y410.0000 F1500
G1 X791.0000 Y408.0000 F1500
G1 X790.0000 Y408.0000 F1500
G1 X789.0000 Y407.0000 F1500
G1 X788.0000 Y407.0000 F1500
G1 X787.0000 Y406.0000 F1500
G1 X786.0000 Y406.0000 F1500
G1 X785.0000 Y405.0000 F1500
G1 X784.0000 Y405.0000 F1500
G1 X783.0000 Y404.0000 F1500
G1 X784.0000 Y403.0000 F1500
G1 X785.0000 Y403.0000 F1500
G1 X784.0000 Y403.0000 F1500
G1 X782.0000 Y401.0000 F1500
G1 X782.0000 Y402.0000 F1500
G1 X783.0000 Y402.0000 F1500
G1 X784.0000 Y403.0000 F1500
G1 X783.0000 Y404.0000 F1500
G1 X781.0000 Y404.0000 F1500
G1 X780.0000 Y403.0000 F1500
G1 X778.0000 Y403.0000 F1500
G1 X777.0000 Y402.0000 F1500
G1 X775.0000 Y402.0000 F1500
G1 X774.0000 Y401.0000 F1500
G1 X775.0000 Y400.0000 F1500
G1 X777.0000 Y400.0000 F1500
G1 X775.0000 Y400.0000 F1500
G1 X774.0000 Y401.0000 F1500
G1 X770.0000 Y401.0000 F1500
G1 X769.0000 Y400.0000 F1500
G0 Z100.000 F5000 ; retract after polygon
(--- polygon 8 end ---)
(--- polygon 9 start ---)
G0 Z100.000 F5000 ; lift before travel
G0 X355.0000 Y215.0000 F5000 ; travel to polygon start
G1 Z0.000 F3000 ; plunge to cut depth
G1 X355.0000 Y215.0000 F1500 ; start cut at first vertex
G1 X354.0000 Y216.0000 F1500
G1 X351.0000 Y216.0000 F1500
G1 X350.0000 Y217.0000 F1500
G1 X348.0000 Y217.0000 F1500
G1 X347.0000 Y218.0000 F1500
G1 X346.0000 Y218.0000 F1500
G1 X344.0000 Y220.0000 F1500
G1 X343.0000 Y220.0000 F1500
G1 X321.0000 Y242.0000 F1500
G1 X321.0000 Y243.0000 F1500
G1 X319.0000 Y245.0000 F1500
G1 X319.0000 Y247.0000 F1500
G1 X318.0000 Y248.0000 F1500
G1 X318.0000 Y249.0000 F1500
G1 X317.0000 Y250.0000 F1500
G1 X317.0000 Y254.0000 F1500
G1 X316.0000 Y255.0000 F1500
G1 X316.0000 Y260.0000 F1500
G1 X317.0000 Y261.0000 F1500
G1 X317.0000 Y265.0000 F1500
G1 X318.0000 Y266.0000 F1500
G1 X318.0000 Y268.0000 F1500
G1 X319.0000 Y269.0000 F1500
G1 X319.0000 Y271.0000 F1500
G1 X320.0000 Y272.0000 F1500
G1 X320.0000 Y273.0000 F1500
G1 X322.0000 Y275.0000 F1500
G1 X322.0000 Y276.0000 F1500
G1 X321.0000 Y277.0000 F1500
G1 X319.0000 Y275.0000 F1500
G1 X321.0000 Y277.0000 F1500
G1 X320.0000 Y278.0000 F1500
G1 X320.0000 Y279.0000 F1500
G1 X316.0000 Y283.0000 F1500
G1 X316.0000 Y284.0000 F1500
G1 X311.0000 Y289.0000 F1500
G1 X311.0000 Y290.0000 F1500
G1 X306.0000 Y295.0000 F1500
G1 X306.0000 Y296.0000 F1500
G1 X302.0000 Y300.0000 F1500
G1 X302.0000 Y301.0000 F1500
G1 X296.0000 Y307.0000 F1500
G1 X296.0000 Y308.0000 F1500
G1 X291.0000 Y313.0000 F1500
G1 X291.0000 Y314.0000 F1500
G1 X287.0000 Y318.0000 F1500
G1 X287.0000 Y319.0000 F1500
G1 X282.0000 Y324.0000 F1500
G1 X282.0000 Y325.0000 F1500
G1 X276.0000 Y331.0000 F1500
G1 X276.0000 Y332.0000 F1500
G1 X271.0000 Y337.0000 F1500
G1 X271.0000 Y338.0000 F1500
G1 X266.0000 Y343.0000 F1500
G1 X266.0000 Y344.0000 F1500
G1 X262.0000 Y348.0000 F1500
G1 X262.0000 Y349.0000 F1500
G1 X257.0000 Y354.0000 F1500
G1 X257.0000 Y355.0000 F1500
G1 X251.0000 Y361.0000 F1500
G1 X251.0000 Y362.0000 F1500
G1 X247.0000 Y366.0000 F1500
G1 X247.0000 Y367.0000 F1500
G1 X243.0000 Y371.0000 F1500
G1 X243.0000 Y372.0000 F1500
G1 X238.0000 Y377.0000 F1500
G1 X238.0000 Y378.0000 F1500
G1 X233.0000 Y383.0000 F1500
G1 X233.0000 Y384.0000 F1500
G1 X229.0000 Y388.0000 F1500
G1 X229.0000 Y389.0000 F1500
G1 X224.0000 Y394.0000 F1500
G1 X224.0000 Y395.0000 F1500
G1 X219.0000 Y400.0000 F1500
G1 X219.0000 Y401.0000 F1500
G1 X215.0000 Y405.0000 F1500
G1 X215.0000 Y406.0000 F1500
G1 X209.0000 Y412.0000 F1500
G1 X209.0000 Y413.0000 F1500
G1 X204.0000 Y418.0000 F1500
G1 X204.0000 Y419.0000 F1500
G1 X199.0000 Y424.0000 F1500
G1 X199.0000 Y425.0000 F1500
G1 X193.0000 Y431.0000 F1500
G1 X193.0000 Y432.0000 F1500
G1 X188.0000 Y437.0000 F1500
G1 X188.0000 Y438.0000 F1500
G1 X187.0000 Y439.0000 F1500
G1 X187.0000 Y440.0000 F1500
G1 X186.0000 Y441.0000 F1500
G1 X185.0000 Y440.0000 F1500
G1 X185.0000 Y438.0000 F1500
G1 X186.0000 Y437.0000 F1500
G1 X185.0000 Y438.0000 F1500
G1 X185.0000 Y440.0000 F1500
G1 X184.0000 Y441.0000 F1500
G1 X184.0000 Y442.0000 F1500
G1 X183.0000 Y443.0000 F1500
G1 X183.0000 Y445.0000 F1500
G1 X183.0000 Y443.0000 F1500
G1 X184.0000 Y442.0000 F1500
G1 X184.0000 Y441.0000 F1500
G1 X185.0000 Y440.0000 F1500
G1 X186.0000 Y441.0000 F1500
G1 X186.0000 Y443.0000 F1500
G1 X185.0000 Y444.0000 F1500
G1 X185.0000 Y446.0000 F1500
G1 X184.0000 Y447.0000 F1500
G1 X184.0000 Y451.0000 F1500
G1 X183.0000 Y452.0000 F1500
G1 X183.0000 Y464.0000 F1500
G1 X182.0000 Y465.0000 F1500
G1 X181.0000 Y464.0000 F1500
G1 X181.0000 Y453.0000 F1500
G1 X181.0000 Y464.0000 F1500
G1 X175.0000 Y470.0000 F1500
G1 X181.0000 Y464.0000 F1500
G1 X182.0000 Y465.0000 F1500
G1 X182.0000 Y466.0000 F1500
G1 X176.0000 Y472.0000 F1500
G1 X176.0000 Y473.0000 F1500
G1 X169.0000 Y480.0000 F1500
G1 X169.0000 Y481.0000 F1500
G1 X163.0000 Y487.0000 F1500
G1 X163.0000 Y488.0000 F1500
G1 X158.0000 Y493.0000 F1500
G1 X158.0000 Y494.0000 F1500
G1 X157.0000 Y495.0000 F1500
G1 X157.0000 Y496.0000 F1500
G1 X156.0000 Y497.0000 F1500
G1 X155.0000 Y496.0000 F1500
G1 X155.0000 Y495.0000 F1500
G1 X155.0000 Y496.0000 F1500
G1 X154.0000 Y497.0000 F1500
G1 X154.0000 Y506.0000 F1500
G1 X154.0000 Y497.0000 F1500
G1 X155.0000 Y496.0000 F1500
G1 X156.0000 Y497.0000 F1500
G1 X156.0000 Y507.0000 F1500
G1 X155.0000 Y508.0000 F1500
G1 X155.0000 Y510.0000 F1500
G1 X154.0000 Y511.0000 F1500
G1 X154.0000 Y513.0000 F1500
G1 X153.0000 Y514.0000 F1500
G1 X153.0000 Y515.0000 F1500
G1 X152.0000 Y516.0000 F1500
G1 X151.0000 Y515.0000 F1500
G1 X151.0000 Y514.0000 F1500
G1 X151.0000 Y515.0000 F1500
G1 X150.0000 Y516.0000 F1500
G1 X150.0000 Y517.0000 F1500
G1 X150.0000 Y516.0000 F1500
G1 X151.0000 Y515.0000 F1500
G1 X152.0000 Y516.0000 F1500
G1 X152.0000 Y518.0000 F1500
G1 X151.0000 Y519.0000 F1500
G1 X151.0000 Y521.0000 F1500
G1 X150.0000 Y522.0000 F1500
G1 X150.0000 Y524.0000 F1500
G1 X149.0000 Y525.0000 F1500
G1 X149.0000 Y526.0000 F1500
G1 X148.0000 Y527.0000 F1500
G1 X148.0000 Y529.0000 F1500
G1 X147.0000 Y530.0000 F1500
G1 X147.0000 Y532.0000 F1500
G1 X146.0000 Y533.0000 F1500
G1 X146.0000 Y535.0000 F1500
G1 X145.0000 Y536.0000 F1500
G1 X145.0000 Y537.0000 F1500
G1 X144.0000 Y538.0000 F1500
G1 X143.0000 Y537.0000 F1500
G1 X143.0000 Y536.0000 F1500
G1 X143.0000 Y537.0000 F1500
G1 X142.0000 Y538.0000 F1500
G1 X142.0000 Y539.0000 F1500
G1 X142.0000 Y538.0000 F1500
G1 X143.0000 Y537.0000 F1500
G1 X144.0000 Y538.0000 F1500
G1 X144.0000 Y540.0000 F1500
G1 X143.0000 Y541.0000 F1500
G1 X143.0000 Y543.0000 F1500
G1 X142.0000 Y544.0000 F1500
G1 X142.0000 Y545.0000 F1500
G1 X141.0000 Y546.0000 F1500
G1 X141.0000 Y554.0000 F1500
G1 X142.0000 Y555.0000 F1500
G1 X142.0000 Y556.0000 F1500
G1 X144.0000 Y558.0000 F1500
G1 X145.0000 Y558.0000 F1500
G1 X146.0000 Y559.0000 F1500
G1 X147.0000 Y559.0000 F1500
G1 X148.0000 Y560.0000 F1500
G1 X147.0000 Y561.0000 F1500
G1 X148.0000 Y562.0000 F1500
G1 X151.0000 Y562.0000 F1500
G1 X152.0000 Y563.0000 F1500
G1 X153.0000 Y563.0000 F1500
G1 X154.0000 Y562.0000 F1500
G1 X157.0000 Y562.0000 F1500
G1 X158.0000 Y561.0000 F1500
G1 X159.0000 Y561.0000 F1500
G1 X160.0000 Y560.0000 F1500
G1 X163.0000 Y560.0000 F1500
G1 X165.0000 Y558.0000 F1500
G1 X168.0000 Y558.0000 F1500
G1 X170.0000 Y556.0000 F1500
G1 X172.0000 Y556.0000 F1500
G1 X173.0000 Y555.0000 F1500
G1 X174.0000 Y555.0000 F1500
G1 X175.0000 Y554.0000 F1500
G1 X178.0000 Y554.0000 F1500
G1 X180.0000 Y552.0000 F1500
G1 X183.0000 Y552.0000 F1500
G1 X185.0000 Y550.0000 F1500
G1 X188.0000 Y550.0000 F1500
G1 X190.0000 Y548.0000 F1500
G1 X192.0000 Y548.0000 F1500
G1 X193.0000 Y547.0000 F1500
G1 X194.0000 Y547.0000 F1500
G1 X195.0000 Y546.0000 F1500
G1 X197.0000 Y546.0000 F1500
G1 X198.0000 Y545.0000 F1500
G1 X205.0000 Y545.0000 F1500
G1 X206.0000 Y544.0000 F1500
G1 X208.0000 Y544.0000 F1500
G1 X209.0000 Y543.0000 F1500
G1 X213.0000 Y543.0000 F1500
G1 X215.0000 Y541.0000 F1500
G1 X216.0000 Y541.0000 F1500
G1 X243.0000 Y514.0000 F1500
G1 X253.0000 Y514.0000 F1500
G1 X254.0000 Y515.0000 F1500
G1 X253.0000 Y514.0000 F1500
G1 X254.0000 Y513.0000 F1500
G1 X256.0000 Y513.0000 F1500
G1 X257.0000 Y512.0000 F1500
G1 X261.0000 Y512.0000 F1500
G1 X262.0000 Y511.0000 F1500
G1 X261.0000 Y511.0000 F1500
G1 X260.0000 Y512.0000 F1500
G1 X257.0000 Y512.0000 F1500
G1 X256.0000 Y513.0000 F1500
G1 X254.0000 Y513.0000 F1500
G1 X253.0000 Y512.0000 F1500
G1 X254.0000 Y511.0000 F1500
G1 X255.0000 Y511.0000 F1500
G1 X254.0000 Y511.0000 F1500
G1 X253.0000 Y512.0000 F1500
G1 X241.0000 Y512.0000 F1500
G1 X229.0000 Y524.0000 F1500
G1 X229.0000 Y525.0000 F1500
G1 X228.0000 Y526.0000 F1500
G1 X227.0000 Y526.0000 F1500
G1 X215.0000 Y538.0000 F1500
G1 X214.0000 Y538.0000 F1500
G1 X211.0000 Y541.0000 F1500
G1 X209.0000 Y541.0000 F1500
G1 X208.0000 Y542.0000 F1500
G1 X206.0000 Y542.0000 F1500
G1 X205.0000 Y543.0000 F1500
G1 X197.0000 Y543.0000 F1500
G1 X196.0000 Y544.0000 F1500
G1 X195.0000 Y544.0000 F1500
G1 X194.0000 Y545.0000 F1500
G1 X192.0000 Y545.0000 F1500
G1 X191.0000 Y546.0000 F1500
G1 X190.0000 Y546.0000 F1500
G1 X189.0000 Y547.0000 F1500
G1 X188.0000 Y547.0000 F1500
G1 X187.0000 Y548.0000 F1500
G1 X185.0000 Y548.0000 F1500
G1 X184.0000 Y549.0000 F1500
G1 X182.0000 Y549.0000 F1500
G1 X181.0000 Y550.0000 F1500
G1 X180.0000 Y550.0000 F1500
G1 X179.0000 Y551.0000 F1500
G1 X178.0000 Y551.0000 F1500
G1 X177.0000 Y552.0000 F1500
G1 X175.0000 Y552.0000 F1500
G1 X174.0000 Y553.0000 F1500
G1 X173.0000 Y553.0000 F1500
G1 X172.0000 Y554.0000 F1500
G1 X170.0000 Y554.0000 F1500
G1 X169.0000 Y555.0000 F1500
G1 X168.0000 Y555.0000 F1500
G1 X167.0000 Y556.0000 F1500
G1 X165.0000 Y556.0000 F1500
G1 X164.0000 Y557.0000 F1500
G1 X163.0000 Y557.0000 F1500
G1 X162.0000 Y558.0000 F1500
G1 X160.0000 Y558.0000 F1500
G1 X159.0000 Y559.0000 F1500
G1 X157.0000 Y559.0000 F1500
G1 X156.0000 Y560.0000 F1500
G1 X154.0000 Y560.0000 F1500
G1 X153.0000 Y561.0000 F1500
G1 X152.0000 Y561.0000 F1500
G1 X151.0000 Y560.0000 F1500
G1 X148.0000 Y560.0000 F1500
G1 X146.0000 Y558.0000 F1500
G1 X145.0000 Y558.0000 F1500
G1 X141.0000 Y554.0000 F1500
G1 X141.0000 Y546.0000 F1500
G1 X142.0000 Y545.0000 F1500
G1 X143.0000 Y546.0000 F1500
G1 X143.0000 Y553.0000 F1500
G1 X143.0000 Y545.0000 F1500
G1 X142.0000 Y544.0000 F1500
G1 X143.0000 Y543.0000 F1500
G1 X143.0000 Y541.0000 F1500
G1 X144.0000 Y540.0000 F1500
G1 X145.0000 Y541.0000 F1500
G1 X145.0000 Y542.0000 F1500
G1 X145.0000 Y541.0000 F1500
G1 X146.0000 Y540.0000 F1500
G1 X146.0000 Y538.0000 F1500
G1 X147.0000 Y537.0000 F1500
G1 X146.0000 Y538.0000 F1500
G1 X145.0000 Y537.0000 F1500
G1 X145.0000 Y536.0000 F1500
G1 X146.0000 Y535.0000 F1500
G1 X146.0000 Y533.0000 F1500
G1 X147.0000 Y532.0000 F1500
G1 X147.0000 Y530.0000 F1500
G1 X148.0000 Y529.0000 F1500
G1 X148.0000 Y527.0000 F1500
G1 X149.0000 Y526.0000 F1500
G1 X150.0000 Y527.0000 F1500
G1 X150.0000 Y528.0000 F1500
G1 X150.0000 Y527.0000 F1500
G1 X151.0000 Y526.0000 F1500
G1 X150.0000 Y527.0000 F1500
G1 X149.0000 Y526.0000 F1500
G1 X149.0000 Y525.0000 F1500
G1 X150.0000 Y524.0000 F1500
G1 X150.0000 Y522.0000 F1500
G1 X151.0000 Y521.0000 F1500
G1 X151.0000 Y519.0000 F1500
G1 X152.0000 Y518.0000 F1500
G1 X153.0000 Y519.0000 F1500
G1 X153.0000 Y521.0000 F1500
G1 X153.0000 Y519.0000 F1500
G1 X154.0000 Y518.0000 F1500
G1 X154.0000 Y516.0000 F1500
G1 X155.0000 Y515.0000 F1500
G1 X154.0000 Y516.0000 F1500
G1 X153.0000 Y515.0000 F1500
G1 X153.0000 Y514.0000 F1500
G1 X154.0000 Y513.0000 F1500
G1 X154.0000 Y511.0000 F1500
G1 X155.0000 Y510.0000 F1500
G1 X155.0000 Y508.0000 F1500
G1 X156.0000 Y507.0000 F1500
G1 X157.0000 Y508.0000 F1500
G1 X157.0000 Y510.0000 F1500
G1 X157.0000 Y508.0000 F1500
G1 X158.0000 Y507.0000 F1500
G1 X158.0000 Y497.0000 F1500
G1 X159.0000 Y496.0000 F1500
G1 X158.0000 Y495.0000 F1500
G1 X158.0000 Y494.0000 F1500
G1 X163.0000 Y489.0000 F1500
G1 X163.0000 Y488.0000 F1500
G1 X169.0000 Y482.0000 F1500
G1 X169.0000 Y481.0000 F1500
G1 X176.0000 Y474.0000 F1500
G1 X176.0000 Y473.0000 F1500
G1 X182.0000 Y467.0000 F1500
G1 X182.0000 Y466.0000 F1500
G1 X183.0000 Y465.0000 F1500
G1 X183.0000 Y452.0000 F1500
G1 X184.0000 Y451.0000 F1500
G1 X185.0000 Y452.0000 F1500
G1 X185.0000 Y464.0000 F1500
G1 X185.0000 Y452.0000 F1500
G1 X186.0000 Y451.0000 F1500
G1 X186.0000 Y447.0000 F1500
G1 X187.0000 Y446.0000 F1500
G1 X187.0000 Y445.0000 F1500
G1 X187.0000 Y446.0000 F1500
G1 X186.0000 Y447.0000 F1500
G1 X185.0000 Y446.0000 F1500
G1 X185.0000 Y444.0000 F1500
G1 X186.0000 Y443.0000 F1500
G1 X186.0000 Y441.0000 F1500
G1 X187.0000 Y440.0000 F1500
G1 X188.0000 Y441.0000 F1500
G1 X188.0000 Y443.0000 F1500
G1 X188.0000 Y441.0000 F1500
G1 X187.0000 Y440.0000 F1500
G1 X188.0000 Y439.0000 F1500
G1 X188.0000 Y438.0000 F1500
G1 X193.0000 Y433.0000 F1500
G1 X193.0000 Y432.0000 F1500
G1 X199.0000 Y426.0000 F1500
G1 X199.0000 Y425.0000 F1500
G1 X204.0000 Y420.0000 F1500
G1 X204.0000 Y419.0000 F1500
G1 X209.0000 Y414.0000 F1500
G1 X209.0000 Y413.0000 F1500
G1 X214.0000 Y408.0000 F1500
G1 X214.0000 Y407.0000 F1500
G1 X219.0000 Y402.0000 F1500
G1 X219.0000 Y401.0000 F1500
G1 X224.0000 Y396.0000 F1500
G1 X224.0000 Y395.0000 F1500
G1 X229.0000 Y390.0000 F1500
G1 X229.0000 Y389.0000 F1500
G1 X233.0000 Y385.0000 F1500
G1 X233.0000 Y384.0000 F1500
G1 X238.0000 Y379.0000 F1500
G1 X238.0000 Y378.0000 F1500
G1 X243.0000 Y373.0000 F1500
G1 X243.0000 Y372.0000 F1500
G1 X247.0000 Y368.0000 F1500
G1 X247.0000 Y367.0000 F1500
G1 X251.0000 Y363.0000 F1500
G1 X251.0000 Y362.0000 F1500
G1 X257.0000 Y356.0000 F1500
G1 X257.0000 Y355.0000 F1500
G1 X262.0000 Y350.0000 F1500
G1 X262.0000 Y349.0000 F1500
G1 X266.0000 Y345.0000 F1500
G1 X266.0000 Y344.0000 F1500
G1 X271.0000 Y339.0000 F1500
G1 X271.0000 Y338.0000 F1500
G1 X276.0000 Y333.0000 F1500
G1 X276.0000 Y332.0000 F1500
G1 X282.0000 Y326.0000 F1500
G1 X282.0000 Y325.0000 F1500
G1 X287.0000 Y320.0000 F1500
G1 X287.0000 Y319.0000 F1500
G1 X291.0000 Y315.0000 F1500
G1 X291.0000 Y314.0000 F1500
G1 X296.0000 Y309.0000 F1500
G1 X296.0000 Y308.0000 F1500
G1 X297.0000 Y307.0000 F1500
G1 X298.0000 Y308.0000 F1500
G1 X297.0000 Y307.0000 F1500
G1 X302.0000 Y302.0000 F1500
G1 X302.0000 Y301.0000 F1500
G1 X306.0000 Y297.0000 F1500
G1 X306.0000 Y296.0000 F1500
G1 X311.0000 Y291.0000 F1500
G1 X311.0000 Y290.0000 F1500
G1 X316.0000 Y285.0000 F1500
G1 X316.0000 Y284.0000 F1500
G1 X320.0000 Y280.0000 F1500
G1 X320.0000 Y279.0000 F1500
G1 X322.0000 Y277.0000 F1500
G1 X322.0000 Y274.0000 F1500
G1 X321.0000 Y273.0000 F1500
G1 X322.0000 Y272.0000 F1500
G1 X322.0000 Y271.0000 F1500
G1 X322.0000 Y272.0000 F1500
G1 X321.0000 Y273.0000 F1500
G1 X320.0000 Y272.0000 F1500
G1 X320.0000 Y271.0000 F1500
G1 X319.0000 Y270.0000 F1500
G1 X319.0000 Y269.0000 F1500
G1 X318.0000 Y268.0000 F1500
G1 X318.0000 Y266.0000 F1500
G1 X319.0000 Y265.0000 F1500
G1 X319.0000 Y262.0000 F1500
G1 X319.0000 Y265.0000 F1500
G1 X318.0000 Y266.0000 F1500
G1 X317.0000 Y265.0000 F1500
G1 X317.0000 Y261.0000 F1500
G1 X318.0000 Y260.0000 F1500
G1 X318.0000 Y255.0000 F1500
G1 X319.0000 Y254.0000 F1500
G1 X319.0000 Y251.0000 F1500
G1 X319.0000 Y254.0000 F1500
G1 X318.0000 Y255.0000 F1500
G1 X317.0000 Y254.0000 F1500
G1 X317.0000 Y250.0000 F1500
G1 X318.0000 Y249.0000 F1500
G1 X319.0000 Y249.0000 F1500
G1 X318.0000 Y248.0000 F1500
G1 X319.0000 Y247.0000 F1500
G1 X319.0000 Y246.0000 F1500
G1 X321.0000 Y244.0000 F1500
G1 X321.0000 Y243.0000 F1500
G1 X344.0000 Y220.0000 F1500
G1 X345.0000 Y220.0000 F1500
G1 X348.0000 Y217.0000 F1500
G1 X350.0000 Y217.0000 F1500
G1 X351.0000 Y216.0000 F1500
G1 X354.0000 Y216.0000 F1500
G1 X355.0000 Y217.0000 F1500
G1 X354.0000 Y218.0000 F1500
G1 X352.0000 Y218.0000 F1500
G1 X354.0000 Y218.0000 F1500
G1 X355.0000 Y217.0000 F1500
G1 X361.0000 Y217.0000 F1500
G1 X362.0000 Y218.0000 F1500
G1 X363.0000 Y218.0000 F1500
G1 X362.0000 Y218.0000 F1500
G1 X361.0000 Y217.0000 F1500
G1 X362.0000 Y216.0000 F1500
G1 X365.0000 Y216.0000 F1500
G1 X366.0000 Y217.0000 F1500
G1 X365.0000 Y218.0000 F1500
G1 X366.0000 Y219.0000 F1500
G1 X367.0000 Y219.0000 F1500
G1 X368.0000 Y218.0000 F1500
G1 X369.0000 Y219.0000 F1500
G1 X370.0000 Y219.0000 F1500
G1 X373.0000 Y222.0000 F1500
G1 X374.0000 Y222.0000 F1500
G1 X383.0000 Y231.0000 F1500
G1 X384.0000 Y231.0000 F1500
G1 X385.0000 Y232.0000 F1500
G1 X386.0000 Y232.0000 F1500
G1 X385.0000 Y231.0000 F1500
G1 X384.0000 Y231.0000 F1500
G1 X376.0000 Y223.0000 F1500
G1 X375.0000 Y223.0000 F1500
G1 X371.0000 Y219.0000 F1500
G1 X370.0000 Y219.0000 F1500
G1 X369.0000 Y218.0000 F1500
G1 X368.0000 Y218.0000 F1500
G1 X367.0000 Y217.0000 F1500
G1 X366.0000 Y217.0000 F1500
G1 X365.0000 Y216.0000 F1500
G1 X366.0000 Y215.0000 F1500
G1 X367.0000 Y215.0000 F1500
G1 X366.0000 Y215.0000 F1500
G1 X365.0000 Y216.0000 F1500
G1 X362.0000 Y216.0000 F1500
G1 X361.0000 Y215.0000 F1500
G0 Z100.000 F5000 ; retract after polygon
(--- polygon 9 end ---)
(--- polygon 10 start ---)
G0 Z100.000 F5000 ; lift before travel
G0 X749.0000 Y378.0000 F5000 ; travel to polygon start
G1 Z0.000 F3000 ; plunge to cut depth
G1 X749.0000 Y378.0000 F1500 ; start cut at first vertex
G1 X748.0000 Y379.0000 F1500
G1 X743.0000 Y379.0000 F1500
G1 X742.0000 Y380.0000 F1500
G1 X738.0000 Y380.0000 F1500
G1 X737.0000 Y381.0000 F1500
G1 X735.0000 Y381.0000 F1500
G1 X734.0000 Y382.0000 F1500
G1 X732.0000 Y382.0000 F1500
G1 X731.0000 Y383.0000 F1500
G1 X729.0000 Y383.0000 F1500
G1 X728.0000 Y384.0000 F1500
G1 X727.0000 Y384.0000 F1500
G1 X726.0000 Y385.0000 F1500
G1 X724.0000 Y385.0000 F1500
G1 X723.0000 Y386.0000 F1500
G1 X722.0000 Y386.0000 F1500
G1 X721.0000 Y387.0000 F1500
G1 X720.0000 Y387.0000 F1500
G1 X719.0000 Y388.0000 F1500
G1 X718.0000 Y388.0000 F1500
G1 X717.0000 Y389.0000 F1500
G1 X716.0000 Y389.0000 F1500
G1 X714.0000 Y391.0000 F1500
G1 X713.0000 Y391.0000 F1500
G1 X712.0000 Y392.0000 F1500
G1 X711.0000 Y392.0000 F1500
G1 X708.0000 Y395.0000 F1500
G1 X707.0000 Y395.0000 F1500
G1 X704.0000 Y398.0000 F1500
G1 X703.0000 Y398.0000 F1500
G1 X693.0000 Y408.0000 F1500
G1 X693.0000 Y409.0000 F1500
G1 X690.0000 Y412.0000 F1500
G1 X690.0000 Y413.0000 F1500
G1 X687.0000 Y416.0000 F1500
G1 X687.0000 Y417.0000 F1500
G1 X685.0000 Y419.0000 F1500
G1 X685.0000 Y420.0000 F1500
G1 X683.0000 Y422.0000 F1500
G1 X683.0000 Y424.0000 F1500
G1 X682.0000 Y425.0000 F1500
G1 X682.0000 Y426.0000 F1500
G1 X681.0000 Y427.0000 F1500
G1 X681.0000 Y428.0000 F1500
G1 X679.0000 Y430.0000 F1500
G1 X679.0000 Y432.0000 F1500
G1 X678.0000 Y433.0000 F1500
G1 X678.0000 Y434.0000 F1500
G1 X677.0000 Y435.0000 F1500
G1 X677.0000 Y436.0000 F1500
G1 X676.0000 Y437.0000 F1500
G1 X676.0000 Y439.0000 F1500
G1 X675.0000 Y440.0000 F1500
G1 X675.0000 Y442.0000 F1500
G1 X674.0000 Y443.0000 F1500
G1 X674.0000 Y446.0000 F1500
G1 X673.0000 Y447.0000 F1500
G1 X673.0000 Y450.0000 F1500
G1 X672.0000 Y451.0000 F1500
G1 X672.0000 Y455.0000 F1500
G1 X671.0000 Y456.0000 F1500
G1 X671.0000 Y465.0000 F1500
G1 X670.0000 Y466.0000 F1500
G1 X670.0000 Y473.0000 F1500
G1 X671.0000 Y474.0000 F1500
G1 X671.0000 Y482.0000 F1500
G1 X672.0000 Y483.0000 F1500
G1 X672.0000 Y487.0000 F1500
G1 X673.0000 Y488.0000 F1500
G1 X673.0000 Y491.0000 F1500
G1 X674.0000 Y492.0000 F1500
G1 X674.0000 Y495.0000 F1500
G1 X675.0000 Y496.0000 F1500
G1 X675.0000 Y498.0000 F1500
G1 X676.0000 Y499.0000 F1500
G1 X676.0000 Y501.0000 F1500
G1 X677.0000 Y502.0000 F1500
G1 X677.0000 Y503.0000 F1500
G1 X678.0000 Y504.0000 F1500
G1 X678.0000 Y506.0000 F1500
G1 X679.0000 Y507.0000 F1500
G1 X679.0000 Y508.0000 F1500
G1 X680.0000 Y509.0000 F1500
G1 X680.0000 Y510.0000 F1500
G1 X681.0000 Y511.0000 F1500
G1 X681.0000 Y512.0000 F1500
G1 X682.0000 Y513.0000 F1500
G1 X682.0000 Y514.0000 F1500
G1 X684.0000 Y516.0000 F1500
G1 X684.0000 Y517.0000 F1500
G1 X686.0000 Y519.0000 F1500
G1 X686.0000 Y520.0000 F1500
G1 X689.0000 Y523.0000 F1500
G1 X689.0000 Y524.0000 F1500
G1 X702.0000 Y537.0000 F1500
G1 X703.0000 Y537.0000 F1500
G1 X706.0000 Y540.0000 F1500
G1 X707.0000 Y540.0000 F1500
G1 X708.0000 Y541.0000 F1500
G1 X707.0000 Y542.0000 F1500
G1 X708.0000 Y541.0000 F1500
G1 X709.0000 Y542.0000 F1500
G1 X710.0000 Y542.0000 F1500
G1 X711.0000 Y543.0000 F1500
G1 X710.0000 Y544.0000 F1500
G1 X711.0000 Y543.0000 F1500
G1 X712.0000 Y544.0000 F1500
G1 X713.0000 Y544.0000 F1500
G1 X715.0000 Y546.0000 F1500
G1 X716.0000 Y546.0000 F1500
G1 X717.0000 Y547.0000 F1500
G1 X719.0000 Y547.0000 F1500
G1 X720.0000 Y548.0000 F1500
G1 X719.0000 Y549.0000 F1500
G1 X720.0000 Y548.0000 F1500
G1 X721.0000 Y548.0000 F1500
G1 X722.0000 Y549.0000 F1500
G1 X721.0000 Y550.0000 F1500
G1 X722.0000 Y549.0000 F1500
G1 X723.0000 Y549.0000 F1500
G1 X724.0000 Y550.0000 F1500
G1 X723.0000 Y551.0000 F1500
G1 X724.0000 Y552.0000 F1500
G1 X723.0000 Y551.0000 F1500
G1 X724.0000 Y550.0000 F1500
G1 X726.0000 Y550.0000 F1500
G1 X727.0000 Y551.0000 F1500
G1 X726.0000 Y552.0000 F1500
G1 X727.0000 Y553.0000 F1500
G1 X726.0000 Y552.0000 F1500
G1 X727.0000 Y551.0000 F1500
G1 X728.0000 Y551.0000 F1500
G1 X729.0000 Y552.0000 F1500
G1 X731.0000 Y552.0000 F1500
G1 X732.0000 Y553.0000 F1500
G1 X735.0000 Y553.0000 F1500
G1 X736.0000 Y554.0000 F1500
G1 X735.0000 Y555.0000 F1500
G1 X736.0000 Y556.0000 F1500
G1 X739.0000 Y556.0000 F1500
G1 X740.0000 Y555.0000 F1500
G1 X745.0000 Y555.0000 F1500
G1 X746.0000 Y556.0000 F1500
G1 X745.0000 Y557.0000 F1500
G1 X741.0000 Y557.0000 F1500
G1 X745.0000 Y557.0000 F1500
G1 X746.0000 Y556.0000 F1500
G1 X748.0000 Y556.0000 F1500
G1 X746.0000 Y556.0000 F1500
G1 X745.0000 Y555.0000 F1500
G1 X740.0000 Y555.0000 F1500
G1 X739.0000 Y554.0000 F1500
G1 X736.0000 Y554.0000 F1500
G1 X735.0000 Y553.0000 F1500
G1 X732.0000 Y553.0000 F1500
G1 X731.0000 Y552.0000 F1500
G1 X729.0000 Y552.0000 F1500
G1 X728.0000 Y551.0000 F1500
G1 X727.0000 Y551.0000 F1500
G1 X726.0000 Y550.0000 F1500
G1 X727.0000 Y549.0000 F1500
G1 X728.0000 Y549.0000 F1500
G1 X727.0000 Y549.0000 F1500
G1 X725.0000 Y547.0000 F1500
G1 X725.0000 Y548.0000 F1500
G1 X726.0000 Y548.0000 F1500
G1 X727.0000 Y549.0000 F1500
G1 X726.0000 Y550.0000 F1500
G1 X724.0000 Y550.0000 F1500
G1 X723.0000 Y549.0000 F1500
G1 X722.0000 Y549.0000 F1500
G1 X721.0000 Y548.0000 F1500
G1 X720.0000 Y548.0000 F1500
G1 X719.0000 Y547.0000 F1500
G1 X718.0000 Y547.0000 F1500
G1 X717.0000 Y546.0000 F1500
G1 X716.0000 Y546.0000 F1500
G1 X714.0000 Y544.0000 F1500
G1 X713.0000 Y544.0000 F1500
G1 X711.0000 Y542.0000 F1500
G1 X710.0000 Y542.0000 F1500
G1 X709.0000 Y541.0000 F1500
G1 X708.0000 Y541.0000 F1500
G1 X704.0000 Y537.0000 F1500
G1 X703.0000 Y537.0000 F1500
G1 X689.0000 Y523.0000 F1500
G1 X689.0000 Y522.0000 F1500
G1 X686.0000 Y519.0000 F1500
G1 X686.0000 Y518.0000 F1500
G1 X684.0000 Y516.0000 F1500
G1 X684.0000 Y515.0000 F1500
G1 X682.0000 Y513.0000 F1500
G1 X682.0000 Y512.0000 F1500
G1 X681.0000 Y511.0000 F1500
G1 X681.0000 Y510.0000 F1500
G1 X680.0000 Y509.0000 F1500
G1 X680.0000 Y508.0000 F1500
G1 X679.0000 Y507.0000 F1500
G1 X680.0000 Y506.0000 F1500
G1 X680.0000 Y503.0000 F1500
G1 X678.0000 Y501.0000 F1500
G1 X678.0000 Y499.0000 F1500
G1 X677.0000 Y498.0000 F1500
G1 X677.0000 Y496.0000 F1500
G1 X676.0000 Y495.0000 F1500
G1 X676.0000 Y492.0000 F1500
G1 X677.0000 Y491.0000 F1500
G1 X676.0000 Y492.0000 F1500
G1 X675.0000 Y491.0000 F1500
G1 X675.0000 Y488.0000 F1500
G1 X676.0000 Y487.0000 F1500
G1 X675.0000 Y488.0000 F1500
G1 X674.0000 Y487.0000 F1500
G1 X674.0000 Y483.0000 F1500
G1 X673.0000 Y482.0000 F1500
G1 X673.0000 Y474.0000 F1500
G1 X674.0000 Y473.0000 F1500
G1 X674.0000 Y466.0000 F1500
G1 X673.0000 Y465.0000 F1500
G1 X673.0000 Y456.0000 F1500
G1 X674.0000 Y455.0000 F1500
G1 X674.0000 Y451.0000 F1500
G1 X675.0000 Y450.0000 F1500
G1 X676.0000 Y451.0000 F1500
G1 X676.0000 Y452.0000 F1500
G1 X676.0000 Y451.0000 F1500
G1 X675.0000 Y450.0000 F1500
G1 X675.0000 Y447.0000 F1500
G1 X676.0000 Y446.0000 F1500
G1 X677.0000 Y447.0000 F1500
G1 X676.0000 Y446.0000 F1500
G1 X676.0000 Y443.0000 F1500
G1 X677.0000 Y442.0000 F1500
G1 X677.0000 Y440.0000 F1500
G1 X678.0000 Y439.0000 F1500
G1 X678.0000 Y438.0000 F1500
G1 X679.0000 Y437.0000 F1500
G1 X679.0000 Y435.0000 F1500
G1 X680.0000 Y434.0000 F1500
G1 X680.0000 Y433.0000 F1500
G1 X682.0000 Y431.0000 F1500
G1 X682.0000 Y430.0000 F1500
G1 X683.0000 Y429.0000 F1500
G1 X683.0000 Y428.0000 F1500
G1 X684.0000 Y427.0000 F1500
G1 X684.0000 Y426.0000 F1500
G1 X685.0000 Y425.0000 F1500
G1 X685.0000 Y424.0000 F1500
G1 X687.0000 Y422.0000 F1500
G1 X687.0000 Y421.0000 F1500
G1 X689.0000 Y419.0000 F1500
G1 X689.0000 Y418.0000 F1500
G1 X693.0000 Y414.0000 F1500
G1 X693.0000 Y413.0000 F1500
G1 X697.0000 Y409.0000 F1500
G1 X697.0000 Y408.0000 F1500
G1 X704.0000 Y401.0000 F1500
G1 X705.0000 Y401.0000 F1500
G1 X709.0000 Y397.0000 F1500
G1 X710.0000 Y397.0000 F1500
G1 X713.0000 Y394.0000 F1500
G1 X714.0000 Y394.0000 F1500
G1 X716.0000 Y392.0000 F1500
G1 X717.0000 Y392.0000 F1500
G1 X718.0000 Y391.0000 F1500
G1 X719.0000 Y391.0000 F1500
G1 X720.0000 Y390.0000 F1500
G1 X721.0000 Y390.0000 F1500
G1 X724.0000 Y387.0000 F1500
G1 X727.0000 Y387.0000 F1500
G1 X729.0000 Y385.0000 F1500
G1 X731.0000 Y385.0000 F1500
G1 X732.0000 Y386.0000 F1500
G1 X731.0000 Y385.0000 F1500
G1 X732.0000 Y384.0000 F1500
G1 X734.0000 Y384.0000 F1500
G1 X735.0000 Y383.0000 F1500
G1 X737.0000 Y383.0000 F1500
G1 X738.0000 Y382.0000 F1500
G1 X742.0000 Y382.0000 F1500
G1 X743.0000 Y381.0000 F1500
G1 X748.0000 Y381.0000 F1500
G1 X749.0000 Y382.0000 F1500
G1 X750.0000 Y382.0000 F1500
G1 X749.0000 Y382.0000 F1500
G1 X748.0000 Y381.0000 F1500
G1 X749.0000 Y380.0000 F1500
G1 X769.0000 Y380.0000 F1500
G1 X770.0000 Y381.0000 F1500
G1 X775.0000 Y381.0000 F1500
G1 X776.0000 Y382.0000 F1500
G1 X779.0000 Y382.0000 F1500
G1 X780.0000 Y383.0000 F1500
G1 X783.0000 Y383.0000 F1500
G1 X786.0000 Y386.0000 F1500
G1 X787.0000 Y385.0000 F1500
G1 X789.0000 Y385.0000 F1500
G1 X790.0000 Y386.0000 F1500
G1 X789.0000 Y387.0000 F1500
G1 X788.0000 Y387.0000 F1500
G1 X789.0000 Y387.0000 F1500
G1 X790.0000 Y386.0000 F1500
G1 X791.0000 Y387.0000 F1500
G1 X792.0000 Y387.0000 F1500
G1 X793.0000 Y388.0000 F1500
G1 X794.0000 Y388.0000 F1500
G1 X793.0000 Y388.0000 F1500
G1 X792.0000 Y387.0000 F1500
G1 X791.0000 Y387.0000 F1500
G1 X789.0000 Y385.0000 F1500
G1 X790.0000 Y384.0000 F1500
G1 X791.0000 Y384.0000 F1500
G1 X792.0000 Y385.0000 F1500
G1 X794.0000 Y385.0000 F1500
G1 X795.0000 Y386.0000 F1500
G1 X796.0000 Y386.0000 F1500
G1 X797.0000 Y387.0000 F1500
G1 X796.0000 Y388.0000 F1500
G1 X797.0000 Y387.0000 F1500
G1 X798.0000 Y387.0000 F1500
G1 X800.0000 Y389.0000 F1500
G1 X801.0000 Y389.0000 F1500
G1 X802.0000 Y390.0000 F1500
G1 X801.0000 Y391.0000 F1500
G1 X800.0000 Y391.0000 F1500
G1 X801.0000 Y391.0000 F1500
G1 X803.0000 Y393.0000 F1500
G1 X801.0000 Y391.0000 F1500
G1 X802.0000 Y390.0000 F1500
G1 X803.0000 Y390.0000 F1500
G1 X805.0000 Y392.0000 F1500
G1 X806.0000 Y392.0000 F1500
G1 X808.0000 Y394.0000 F1500
G1 X809.0000 Y394.0000 F1500
G1 X813.0000 Y398.0000 F1500
G1 X814.0000 Y398.0000 F1500
G1 X825.0000 Y409.0000 F1500
G1 X825.0000 Y410.0000 F1500
G1 X829.0000 Y414.0000 F1500
G1 X829.0000 Y415.0000 F1500
G1 X832.0000 Y418.0000 F1500
G1 X832.0000 Y419.0000 F1500
G1 X834.0000 Y421.0000 F1500
G1 X834.0000 Y422.0000 F1500
G1 X836.0000 Y424.0000 F1500
G1 X836.0000 Y425.0000 F1500
G1 X837.0000 Y426.0000 F1500
G1 X837.0000 Y427.0000 F1500
G1 X839.0000 Y429.0000 F1500
G1 X839.0000 Y431.0000 F1500
G1 X840.0000 Y432.0000 F1500
G1 X840.0000 Y433.0000 F1500
G1 X839.0000 Y434.0000 F1500
G1 X838.0000 Y433.0000 F1500
G1 X839.0000 Y434.0000 F1500
G1 X839.0000 Y435.0000 F1500
G1 X839.0000 Y434.0000 F1500
G1 X840.0000 Y433.0000 F1500
G1 X841.0000 Y434.0000 F1500
G1 X841.0000 Y435.0000 F1500
G1 X842.0000 Y436.0000 F1500
G1 X842.0000 Y437.0000 F1500
G1 X843.0000 Y438.0000 F1500
G1 X843.0000 Y440.0000 F1500
G1 X844.0000 Y441.0000 F1500
G1 X844.0000 Y443.0000 F1500
G1 X845.0000 Y444.0000 F1500
G1 X845.0000 Y447.0000 F1500
G1 X846.0000 Y448.0000 F1500
G1 X846.0000 Y451.0000 F1500
G1 X847.0000 Y452.0000 F1500
G1 X847.0000 Y456.0000 F1500
G1 X848.0000 Y457.0000 F1500
G1 X848.0000 Y479.0000 F1500
G1 X847.0000 Y480.0000 F1500
G1 X847.0000 Y484.0000 F1500
G1 X846.0000 Y485.0000 F1500
G1 X846.0000 Y489.0000 F1500
G1 X845.0000 Y490.0000 F1500
G1 X845.0000 Y493.0000 F1500
G1 X844.0000 Y494.0000 F1500
G1 X844.0000 Y496.0000 F1500
G1 X843.0000 Y497.0000 F1500
G1 X843.0000 Y498.0000 F1500
G1 X842.0000 Y499.0000 F1500
G1 X841.0000 Y498.0000 F1500
G1 X841.0000 Y497.0000 F1500
G1 X841.0000 Y498.0000 F1500
G1 X840.0000 Y499.0000 F1500
G1 X841.0000 Y498.0000 F1500
G1 X842.0000 Y499.0000 F1500
G1 X842.0000 Y501.0000 F1500
G1 X841.0000 Y502.0000 F1500
G1 X841.0000 Y503.0000 F1500
G1 X839.0000 Y505.0000 F1500
G1 X839.0000 Y506.0000 F1500
G1 X838.0000 Y507.0000 F1500
G1 X838.0000 Y509.0000 F1500
G1 X836.0000 Y511.0000 F1500
G1 X836.0000 Y512.0000 F1500
G1 X834.0000 Y514.0000 F1500
G1 X834.0000 Y515.0000 F1500
G1 X832.0000 Y517.0000 F1500
G1 X832.0000 Y518.0000 F1500
G1 X829.0000 Y521.0000 F1500
G1 X829.0000 Y522.0000 F1500
G1 X815.0000 Y536.0000 F1500
G1 X814.0000 Y536.0000 F1500
G1 X810.0000 Y540.0000 F1500
G1 X809.0000 Y540.0000 F1500
G1 X807.0000 Y542.0000 F1500
G1 X806.0000 Y542.0000 F1500
G1 X805.0000 Y543.0000 F1500
G1 X804.0000 Y543.0000 F1500
G1 X802.0000 Y545.0000 F1500
G1 X801.0000 Y545.0000 F1500
G1 X800.0000 Y546.0000 F1500
G1 X799.0000 Y546.0000 F1500
G1 X798.0000 Y547.0000 F1500
G1 X797.0000 Y547.0000 F1500
G1 X796.0000 Y548.0000 F1500
G1 X795.0000 Y548.0000 F1500
G1 X794.0000 Y547.0000 F1500
G1 X796.0000 Y545.0000 F1500
G1 X797.0000 Y545.0000 F1500
G1 X798.0000 Y544.0000 F1500
G1 X799.0000 Y544.0000 F1500
G1 X800.0000 Y543.0000 F1500
G1 X801.0000 Y543.0000 F1500
G1 X802.0000 Y542.0000 F1500
G1 X801.0000 Y543.0000 F1500
G1 X800.0000 Y543.0000 F1500
G1 X799.0000 Y544.0000 F1500
G1 X798.0000 Y544.0000 F1500
G1 X797.0000 Y545.0000 F1500
G1 X796.0000 Y545.0000 F1500
G1 X794.0000 Y547.0000 F1500
G1 X793.0000 Y547.0000 F1500
G1 X794.0000 Y547.0000 F1500
G1 X795.0000 Y548.0000 F1500
G1 X794.0000 Y549.0000 F1500
G1 X793.0000 Y549.0000 F1500
G1 X792.0000 Y550.0000 F1500
G1 X790.0000 Y550.0000 F1500
G1 X789.0000 Y549.0000 F1500
G1 X790.0000 Y548.0000 F1500
G1 X791.0000 Y548.0000 F1500
G1 X790.0000 Y548.0000 F1500
G1 X789.0000 Y549.0000 F1500
G1 X788.0000 Y549.0000 F1500
G1 X789.0000 Y549.0000 F1500
G1 X790.0000 Y550.0000 F1500
G1 X789.0000 Y551.0000 F1500
G1 X787.0000 Y551.0000 F1500
G1 X786.0000 Y550.0000 F1500
G1 X785.0000 Y550.0000 F1500
G1 X786.0000 Y550.0000 F1500
G1 X787.0000 Y551.0000 F1500
G1 X786.0000 Y552.0000 F1500
G1 X784.0000 Y552.0000 F1500
G1 X783.0000 Y551.0000 F1500
G1 X781.0000 Y551.0000 F1500
G1 X783.0000 Y551.0000 F1500
G1 X784.0000 Y552.0000 F1500
G1 X783.0000 Y553.0000 F1500
G1 X781.0000 Y553.0000 F1500
G1 X780.0000 Y554.0000 F1500
G1 X776.0000 Y554.0000 F1500
G1 X775.0000 Y555.0000 F1500
G1 X770.0000 Y555.0000 F1500
G1 X769.0000 Y556.0000 F1500
G1 X750.0000 Y556.0000 F1500
G1 X769.0000 Y556.0000 F1500
G1 X770.0000 Y557.0000 F1500
G1 X775.0000 Y557.0000 F1500
G1 X776.0000 Y556.0000 F1500
G1 X779.0000 Y556.0000 F1500
G1 X776.0000 Y556.0000 F1500
G1 X775.0000 Y555.0000 F1500
G1 X776.0000 Y554.0000 F1500
G1 X780.0000 Y554.0000 F1500
G1 X781.0000 Y555.0000 F1500
G1 X783.0000 Y555.0000 F1500
G1 X784.0000 Y554.0000 F1500
G1 X786.0000 Y554.0000 F1500
G1 X784.0000 Y554.0000 F1500
G1 X783.0000 Y553.0000 F1500
G1 X784.0000 Y552.0000 F1500
G1 X786.0000 Y552.0000 F1500
G1 X787.0000 Y551.0000 F1500
G1 X788.0000 Y551.0000 F1500
G1 X789.0000 Y552.0000 F1500
G1 X788.0000 Y553.0000 F1500
G1 X789.0000 Y552.0000 F1500
G1 X791.0000 Y552.0000 F1500
G1 X790.0000 Y552.0000 F1500
G1 X789.0000 Y551.0000 F1500
G1 X790.0000 Y550.0000 F1500
G1 X792.0000 Y550.0000 F1500
G1 X793.0000 Y549.0000 F1500
G1 X794.0000 Y549.0000 F1500
G1 X795.0000 Y548.0000 F1500
G1 X797.0000 Y548.0000 F1500
G1 X798.0000 Y549.0000 F1500
G1 X797.0000 Y548.0000 F1500
G1 X798.0000 Y547.0000 F1500
G1 X799.0000 Y547.0000 F1500
G1 X800.0000 Y546.0000 F1500
G1 X801.0000 Y546.0000 F1500
G1 X803.0000 Y544.0000 F1500
G1 X804.0000 Y544.0000 F1500
G1 X805.0000 Y543.0000 F1500
G1 X806.0000 Y543.0000 F1500
G1 X807.0000 Y542.0000 F1500
G1 X808.0000 Y542.0000 F1500
G1 X810.0000 Y540.0000 F1500
G1 X811.0000 Y540.0000 F1500
G1 X815.0000 Y536.0000 F1500
G1 X816.0000 Y536.0000 F1500
G1 X821.0000 Y531.0000 F1500
G1 X821.0000 Y530.0000 F1500
G1 X822.0000 Y529.0000 F1500
G1 X823.0000 Y529.0000 F1500
G1 X829.0000 Y523.0000 F1500
G1 X829.0000 Y522.0000 F1500
G1 X832.0000 Y519.0000 F1500
G1 X832.0000 Y518.0000 F1500
G1 X834.0000 Y516.0000 F1500
G1 X834.0000 Y515.0000 F1500
G1 X836.0000 Y513.0000 F1500
G1 X836.0000 Y512.0000 F1500
G1 X838.0000 Y510.0000 F1500
G1 X838.0000 Y508.0000 F1500
G1 X839.0000 Y507.0000 F1500
G1 X839.0000 Y506.0000 F1500
G1 X840.0000 Y505.0000 F1500
G1 X841.0000 Y506.0000 F1500
G1 X841.0000 Y507.0000 F1500
G1 X841.0000 Y505.0000 F1500
G1 X840.0000 Y504.0000 F1500
G1 X841.0000 Y503.0000 F1500
G1 X841.0000 Y502.0000 F1500
G1 X842.0000 Y501.0000 F1500
G1 X842.0000 Y499.0000 F1500
G1 X843.0000 Y498.0000 F1500
G1 X844.0000 Y499.0000 F1500
G1 X844.0000 Y501.0000 F1500
G1 X844.0000 Y499.0000 F1500
G1 X845.0000 Y498.0000 F1500
G1 X844.0000 Y499.0000 F1500
G1 X843.0000 Y498.0000 F1500
G1 X843.0000 Y497.0000 F1500
G1 X844.0000 Y496.0000 F1500
G1 X844.0000 Y494.0000 F1500
G1 X845.0000 Y493.0000 F1500
G1 X846.0000 Y494.0000 F1500
G1 X846.0000 Y496.0000 F1500
G1 X846.0000 Y494.0000 F1500
G1 X845.0000 Y493.0000 F1500
G1 X845.0000 Y490.0000 F1500
G1 X846.0000 Y489.0000 F1500
G1 X846.0000 Y485.0000 F1500
G1 X847.0000 Y484.0000 F1500
G1 X847.0000 Y480.0000 F1500
G1 X848.0000 Y479.0000 F1500
G1 X849.0000 Y480.0000 F1500
G1 X849.0000 Y483.0000 F1500
G1 X849.0000 Y480.0000 F1500
G1 X848.0000 Y479.0000 F1500
G1 X848.0000 Y457.0000 F1500
G1 X849.0000 Y456.0000 F1500
G1 X849.0000 Y453.0000 F1500
G1 X849.0000 Y456.0000 F1500
G1 X848.0000 Y457.0000 F1500
G1 X847.0000 Y456.0000 F1500
G1 X847.0000 Y452.0000 F1500
G1 X848.0000 Y451.0000 F1500
G1 X848.0000 Y449.0000 F1500
G1 X848.0000 Y451.0000 F1500
G1 X847.0000 Y452.0000 F1500
G1 X846.0000 Y451.0000 F1500
G1 X846.0000 Y448.0000 F1500
G1 X847.0000 Y447.0000 F1500
G1 X847.0000 Y444.0000 F1500
G1 X847.0000 Y447.0000 F1500
G1 X846.0000 Y448.0000 F1500
G1 X845.0000 Y447.0000 F1500
G1 X845.0000 Y444.0000 F1500
G1 X844.0000 Y443.0000 F1500
G1 X844.0000 Y441.0000 F1500
G1 X845.0000 Y440.0000 F1500
G1 X846.0000 Y441.0000 F1500
G1 X846.0000 Y442.0000 F1500
G1 X846.0000 Y441.0000 F1500
G1 X845.0000 Y440.0000 F1500
G1 X845.0000 Y439.0000 F1500
G1 X845.0000 Y440.0000 F1500
G1 X844.0000 Y441.0000 F1500
G1 X843.0000 Y440.0000 F1500
G1 X843.0000 Y437.0000 F1500
G1 X844.0000 Y436.0000 F1500
G1 X843.0000 Y437.0000 F1500
G1 X841.0000 Y435.0000 F1500
G1 X841.0000 Y434.0000 F1500
G1 X842.0000 Y433.0000 F1500
G1 X843.0000 Y434.0000 F1500
G1 X842.0000 Y433.0000 F1500
G1 X842.0000 Y432.0000 F1500
G1 X842.0000 Y433.0000 F1500
G1 X841.0000 Y434.0000 F1500
G1 X840.0000 Y433.0000 F1500
G1 X840.0000 Y432.0000 F1500
G1 X839.0000 Y431.0000 F1500
G1 X839.0000 Y428.0000 F1500
G1 X837.0000 Y426.0000 F1500
G1 X837.0000 Y425.0000 F1500
G1 X835.0000 Y423.0000 F1500
G1 X835.0000 Y422.0000 F1500
G1 X834.0000 Y421.0000 F1500
G1 X834.0000 Y420.0000 F1500
G1 X832.0000 Y418.0000 F1500
G1 X832.0000 Y417.0000 F1500
G1 X829.0000 Y414.0000 F1500
G1 X829.0000 Y413.0000 F1500
G1 X825.0000 Y409.0000 F1500
G1 X825.0000 Y408.0000 F1500
G1 X815.0000 Y398.0000 F1500
G1 X814.0000 Y398.0000 F1500
G1 X810.0000 Y394.0000 F1500
G1 X809.0000 Y394.0000 F1500
G1 X807.0000 Y392.0000 F1500
G1 X806.0000 Y392.0000 F1500
G1 X804.0000 Y390.0000 F1500
G1 X803.0000 Y390.0000 F1500
G1 X802.0000 Y389.0000 F1500
G1 X801.0000 Y389.0000 F1500
G1 X799.0000 Y387.0000 F1500
G1 X800.0000 Y386.0000 F1500
G1 X799.0000 Y387.0000 F1500
G1 X798.0000 Y387.0000 F1500
G1 X797.0000 Y386.0000 F1500
G1 X796.0000 Y386.0000 F1500
G1 X795.0000 Y385.0000 F1500
G1 X792.0000 Y385.0000 F1500
G1 X791.0000 Y384.0000 F1500
G1 X790.0000 Y384.0000 F1500
G1 X789.0000 Y383.0000 F1500
G1 X787.0000 Y383.0000 F1500
G1 X786.0000 Y382.0000 F1500
G1 X784.0000 Y382.0000 F1500
G1 X783.0000 Y381.0000 F1500
G1 X780.0000 Y381.0000 F1500
G1 X779.0000 Y380.0000 F1500
G1 X776.0000 Y380.0000 F1500
G1 X775.0000 Y379.0000 F1500
G1 X773.0000 Y379.0000 F1500
G1 X775.0000 Y379.0000 F1500
G1 X776.0000 Y380.0000 F1500
G1 X775.0000 Y381.0000 F1500
G1 X770.0000 Y381.0000 F1500
G1 X769.0000 Y380.0000 F1500
G1 X770.0000 Y379.0000 F1500
G1 X771.0000 Y379.0000 F1500
G1 X770.0000 Y379.0000 F1500
G1 X769.0000 Y378.0000 F1500
G0 Z100.000 F5000 ; retract after polygon
(--- polygon 10 end ---)
(--- polygon 11 start ---)
G0 Z100.000 F5000 ; lift before travel
G0 X562.0000 Y846.0000 F5000 ; travel to polygon start
G1 Z0.000 F3000 ; plunge to cut depth
G1 X562.0000 Y846.0000 F1500 ; start cut at first vertex
G1 X563.0000 Y847.0000 F1500
G1 X563.0000 Y849.0000 F1500
G1 X562.0000 Y850.0000 F1500
G1 X561.0000 Y849.0000 F1500
G1 X561.0000 Y848.0000 F1500
G1 X541.0000 Y848.0000 F1500
G1 X540.0000 Y847.0000 F1500
G1 X539.0000 Y848.0000 F1500
G1 X539.0000 Y849.0000 F1500
G1 X540.0000 Y850.0000 F1500
G1 X540.0000 Y852.0000 F1500
G1 X541.0000 Y853.0000 F1500
G1 X541.0000 Y855.0000 F1500
G1 X542.0000 Y856.0000 F1500
G1 X542.0000 Y858.0000 F1500
G1 X543.0000 Y859.0000 F1500
G1 X543.0000 Y862.0000 F1500
G1 X544.0000 Y863.0000 F1500
G1 X544.0000 Y865.0000 F1500
G1 X545.0000 Y866.0000 F1500
G1 X545.0000 Y868.0000 F1500
G1 X546.0000 Y869.0000 F1500
G1 X546.0000 Y871.0000 F1500
G1 X547.0000 Y872.0000 F1500
G1 X547.0000 Y874.0000 F1500
G1 X548.0000 Y875.0000 F1500
G1 X548.0000 Y877.0000 F1500
G1 X549.0000 Y878.0000 F1500
G1 X549.0000 Y880.0000 F1500
G1 X550.0000 Y881.0000 F1500
G1 X550.0000 Y883.0000 F1500
G1 X551.0000 Y884.0000 F1500
G1 X551.0000 Y886.0000 F1500
G1 X552.0000 Y887.0000 F1500
G1 X552.0000 Y889.0000 F1500
G1 X553.0000 Y890.0000 F1500
G1 X553.0000 Y892.0000 F1500
G1 X554.0000 Y893.0000 F1500
G1 X554.0000 Y895.0000 F1500
G1 X555.0000 Y896.0000 F1500
G1 X555.0000 Y899.0000 F1500
G1 X554.0000 Y900.0000 F1500
G1 X553.0000 Y899.0000 F1500
G1 X553.0000 Y897.0000 F1500
G1 X552.0000 Y896.0000 F1500
G1 X552.0000 Y894.0000 F1500
G1 X552.0000 Y896.0000 F1500
G1 X553.0000 Y897.0000 F1500
G1 X553.0000 Y899.0000 F1500
G1 X554.0000 Y900.0000 F1500
G1 X554.0000 Y902.0000 F1500
G1 X554.0000 Y900.0000 F1500
G1 X555.0000 Y899.0000 F1500
G1 X556.0000 Y900.0000 F1500
G1 X556.0000 Y902.0000 F1500
G1 X557.0000 Y903.0000 F1500
G1 X557.0000 Y905.0000 F1500
G1 X558.0000 Y906.0000 F1500
G1 X558.0000 Y908.0000 F1500
G1 X559.0000 Y909.0000 F1500
G1 X559.0000 Y911.0000 F1500
G1 X560.0000 Y912.0000 F1500
G1 X560.0000 Y914.0000 F1500
G1 X561.0000 Y915.0000 F1500
G1 X561.0000 Y917.0000 F1500
G1 X562.0000 Y918.0000 F1500
G1 X562.0000 Y920.0000 F1500
G1 X563.0000 Y921.0000 F1500
G1 X563.0000 Y924.0000 F1500
G1 X562.0000 Y925.0000 F1500
G1 X561.0000 Y924.0000 F1500
